Data/Shaders/SimpleGraphicsSuite/LUTs/Cinematic Fantasy.cube
LUT_3D_SIZE 17
0.000000 0.000000 0.000000
0.000000 0.000000 0.000000
0.044713 0.000000 0.000000
0.112426 0.000000 0.000000
0.180139 0.000000 0.000000
0.247851 0.000000 0.000000
0.315564 0.000000 0.000000
0.383277 0.000000 0.000000
0.450989 0.000000 0.000000
0.518702 0.000000 0.000000
0.586414 0.000000 0.000000
0.654127 0.000000 0.000000
0.721840 0.000000 0.000000
0.789552 0.000000 0.000000
0.857265 0.000000 0.000000
0.924977 0.000000 0.000000
0.992690 0.000000 0.000000
0.000000 0.007535 0.000000
0.000000 0.009097 0.000000
0.049720 0.010660 0.000000
0.117432 0.012222 0.000000
0.185145 0.013785 0.000000
0.252858 0.015348 0.000000
0.320570 0.016910 0.000000
0.388283 0.018473 0.000000
0.455996 0.020036 0.000000
0.523708 0.021598 0.000000
0.591421 0.023161 0.000000
0.659133 0.024723 0.000000
0.726846 0.026286 0.000000
0.794559 0.027849 0.000000
0.862271 0.029411 0.000000
0.929984 0.030974 0.000000
0.997696 0.032536 0.000000
0.000000 0.075541 0.000000
0.000000 0.077104 0.000000
0.054726 0.078666 0.000000
0.122439 0.080229 0.000000
0.190151 0.081791 0.000000
0.257864 0.083354 0.000000
0.325577 0.084917 0.000000
0.393289 0.086479 0.000000
0.461002 0.088042 0.000000
0.528715 0.089605 0.000000
0.596427 0.091167 0.000000
0.664140 0.092730 0.000000
0.731852 0.094292 0.000000
0.799565 0.095855 0.000095
0.867278 0.097418 0.001658
0.934990 0.098980 0.003220
1.000000 0.100543 0.004783
0.000000 0.143547 0.000000
0.000000 0.145110 0.000000
0.059733 0.146673 0.000000
0.127445 0.148235 0.000000
0.195158 0.149798 0.000000
0.262871 0.151361 0.000000
0.330583 0.152923 0.000000
0.398296 0.154486 0.000000
0.466008 0.156048 0.000000
0.533721 0.157611 0.000000
0.601434 0.159174 0.000414
0.669146 0.160736 0.001976
0.736859 0.162299 0.003539
0.804571 0.163861 0.005101
0.872284 0.165424 0.006664
0.939997 0.166987 0.008227
1.000000 0.168549 0.009789
0.000000 0.211554 0.000000
0.000000 0.213116 0.000000
0.064739 0.214679 0.000000
0.132452 0.216242 0.000000
0.200164 0.217804 0.000000
0.267877 0.219367 0.000000
0.335590 0.220930 0.000000
0.403302 0.222492 0.000732
0.471015 0.224055 0.002295
0.538727 0.225617 0.003857
0.606440 0.227180 0.005420
0.674153 0.228743 0.006983
0.741865 0.230305 0.008545
0.809578 0.231868 0.010108
0.877290 0.233430 0.011670
0.945003 0.234993 0.013233
1.000000 0.236556 0.014796
0.000000 0.279560 0.000000
0.002033 0.281123 0.000000
0.069745 0.282685 0.000000
0.137458 0.284248 0.000000
0.205171 0.285811 0.001051
0.272883 0.287373 0.002613
0.340596 0.288936 0.004176
0.408309 0.290499 0.005739
0.476021 0.292061 0.007301
0.543734 0.293624 0.008864
0.611446 0.295186 0.010426
0.679159 0.296749 0.011989
0.746872 0.298312 0.013552
0.814584 0.299874 0.015114
0.882297 0.301437 0.016677
0.950009 0.302999 0.018239
1.000000 0.304562 0.019802
0.000000 0.347567 0.000000
0.007039 0.349129 0.001369
0.074752 0.350692 0.002932
0.142464 0.352254 0.004494
0.210177 0.353817 0.006057
0.277890 0.355380 0.007620
0.345602 0.356942 0.009182
0.413315 0.358505 0.010745
0.481028 0.360068 0.012308
0.548740 0.361630 0.013870
0.616453 0.363193 0.015433
0.684165 0.364755 0.016995
0.751878 0.366318 0.018558
0.819591 0.367881 0.020121
0.887303 0.369443 0.021683
0.955016 0.371006 0.023246
1.000000 0.372568 0.024808
0.000000 0.415573 0.004813
0.012046 0.417136 0.006376
0.079758 0.418698 0.007938
0.147471 0.420261 0.009501
0.215183 0.421823 0.011063
0.282896 0.423386 0.012626
0.350609 0.424949 0.014189
0.418321 0.426511 0.015751
0.486034 0.428074 0.017314
0.553747 0.429637 0.018877
0.621459 0.431199 0.020439
0.689172 0.432762 0.022002
0.756884 0.434324 0.023564
0.824597 0.435887 0.025127
0.892310 0.437450 0.026690
0.960022 0.439012 0.028252
1.000000 0.440575 0.029815
0.000000 0.483579 0.009819
0.017052 0.485142 0.011382
0.084765 0.486705 0.012945
0.152477 0.488267 0.014507
0.220190 0.489830 0.016070
0.287903 0.491393 0.017633
0.355615 0.492955 0.019195
0.423328 0.494518 0.020758
0.491040 0.496080 0.022320
0.558753 0.497643 0.023883
0.626466 0.499206 0.025446
0.694178 0.500768 0.027008
0.761891 0.502331 0.028571
0.829603 0.503893 0.030133
0.897316 0.505456 0.031696
0.965029 0.507019 0.033259
1.000000 0.508581 0.034821
0.000000 0.551586 0.014826
0.022058 0.553148 0.016388
0.089771 0.554711 0.017951
0.157484 0.556274 0.019514
0.225196 0.557836 0.021076
0.292909 0.559399 0.022639
0.360622 0.560962 0.024202
0.428334 0.562524 0.025764
0.496047 0.564087 0.027327
0.563759 0.565649 0.028889
0.631472 0.567212 0.030452
0.699185 0.568775 0.032015
0.766897 0.570337 0.033577
0.834610 0.571900 0.035140
0.902322 0.573462 0.036702
0.970035 0.575025 0.038265
1.000000 0.576588 0.039828
0.000000 0.619592 0.019832
0.027065 0.621155 0.021395
0.094777 0.622717 0.022957
0.162490 0.624280 0.024520
0.230203 0.625843 0.026083
0.297915 0.627405 0.027645
0.365628 0.628968 0.029208
0.433341 0.630531 0.030771
0.501053 0.632093 0.032333
0.568766 0.633656 0.033896
0.636478 0.635218 0.035458
0.704191 0.636781 0.037021
0.771904 0.638344 0.038584
0.839616 0.639906 0.040146
0.907329 0.641469 0.041709
0.975041 0.643031 0.043271
1.000000 0.644594 0.044834
0.000000 0.687599 0.024839
0.032071 0.689161 0.026401
0.099784 0.690724 0.027964
0.167496 0.692286 0.029526
0.235209 0.693849 0.031089
0.302922 0.695412 0.032652
0.370634 0.696974 0.034214
0.438347 0.698537 0.035777
0.506060 0.700100 0.037340
0.573772 0.701662 0.038902
0.641485 0.703225 0.040465
0.709197 0.704787 0.042027
0.776910 0.706350 0.043590
0.844623 0.707913 0.045153
0.912335 0.709475 0.046715
0.980048 0.711038 0.048278
1.000000 0.712600 0.049840
0.000000 0.755605 0.029845
0.037078 0.757168 0.031408
0.104790 0.758730 0.032970
0.172503 0.760293 0.034533
0.240215 0.761855 0.036095
0.307928 0.763418 0.037658
0.375641 0.764981 0.039221
0.443353 0.766543 0.040783
0.511066 0.768106 0.042346
0.578779 0.769669 0.043909
0.646491 0.771231 0.045471
0.714204 0.772794 0.047034
0.781916 0.774356 0.048596
0.849629 0.775919 0.050159
0.917342 0.777482 0.051722
0.985054 0.779044 0.053284
1.000000 0.780607 0.054847
0.000000 0.823611 0.034851
0.042084 0.825174 0.036414
0.109797 0.826737 0.037977
0.177509 0.828299 0.039539
0.245222 0.829862 0.041102
0.312935 0.831425 0.042665
0.380647 0.832987 0.044227
0.448360 0.834550 0.045790
0.516072 0.836112 0.047352
0.583785 0.837675 0.048915
0.651498 0.839238 0.050478
0.719210 0.840800 0.052040
0.786923 0.842363 0.053603
0.854635 0.843925 0.055165
0.922348 0.845488 0.056728
0.990061 0.847051 0.058291
1.000000 0.848613 0.059853
0.000000 0.891618 0.039858
0.047090 0.893180 0.041420
0.114803 0.894743 0.042983
0.182516 0.896306 0.044546
0.250228 0.897868 0.046108
0.317941 0.899431 0.047671
0.385654 0.900994 0.049234
0.453366 0.902556 0.050796
0.521079 0.904119 0.052359
0.588791 0.905681 0.053921
0.656504 0.907244 0.055484
0.724217 0.908807 0.057047
0.791929 0.910369 0.058609
0.859642 0.911932 0.060172
0.927354 0.913494 0.061734
0.995067 0.915057 0.063297
1.000000 0.916620 0.064860
0.000000 0.959624 0.044864
0.052097 0.961187 0.046427
0.119809 0.962749 0.047989
0.187522 0.964312 0.049552
0.255235 0.965875 0.051115
0.322947 0.967437 0.052677
0.390660 0.969000 0.054240
0.458373 0.970563 0.055803
0.526085 0.972125 0.057365
0.593798 0.973688 0.058928
0.661510 0.975250 0.060490
0.729223 0.976813 0.062053
0.796936 0.978376 0.063616
0.864648 0.979938 0.065178
0.932361 0.981501 0.066741
1.000000 0.983063 0.068303
1.000000 0.984626 0.069866
0.000000 1.000000 0.049871
0.057103 1.000000 0.051433
0.124816 1.000000 0.052996
0.192528 1.000000 0.054558
0.260241 1.000000 0.056121
0.327954 1.000000 0.057684
0.395666 1.000000 0.059246
0.463379 1.000000 0.060809
0.531092 1.000000 0.062372
0.598804 1.000000 0.063934
0.666517 1.000000 0.065497
0.734229 1.000000 0.067059
0.801942 1.000000 0.068622
0.869655 1.000000 0.070185
0.937367 1.000000 0.071747
1.000000 1.000000 0.073310
1.000000 1.000000 0.074872
0.000000 0.000000 0.028193
0.000000 0.000000 0.029756
0.045178 0.000000 0.031318
0.112891 0.000000 0.032881
0.180604 0.000000 0.034444
0.248316 0.000000 0.036006
0.316029 0.000000 0.037569
0.383741 0.000000 0.039131
0.451454 0.000000 0.040694
0.519167 0.000000 0.042257
0.586879 0.000000 0.043819
0.654592 0.000000 0.045382
0.722305 0.000000 0.046945
0.790017 0.000000 0.048507
0.857730 0.000000 0.050070
0.925442 0.000000 0.051632
0.993155 0.000000 0.053195
0.000000 0.008000 0.033200
0.000000 0.009562 0.034762
0.050185 0.011125 0.036325
0.117897 0.012687 0.037887
0.185610 0.014250 0.039450
0.253323 0.015813 0.041013
0.321035 0.017375 0.042575
0.388748 0.018938 0.044138
0.456461 0.020501 0.045701
0.524173 0.022063 0.047263
0.591886 0.023626 0.048826
0.659598 0.025188 0.050388
0.727311 0.026751 0.051951
0.795024 0.028314 0.053514
0.862736 0.029876 0.055076
0.930449 0.031439 0.056639
0.998161 0.033001 0.058201
0.000000 0.076006 0.038206
0.000000 0.077569 0.039769
0.055191 0.079131 0.041331
0.122904 0.080694 0.042894
0.190616 0.082256 0.044456
0.258329 0.083819 0.046019
0.326042 0.085382 0.047582
0.393754 0.086944 0.049144
0.461467 0.088507 0.050707
0.529180 0.090070 0.052270
0.596892 0.091632 0.053832
0.664605 0.093195 0.055395
0.732317 0.094757 0.056957
0.800030 0.096320 0.058520
0.867743 0.097883 0.060083
0.935455 0.099445 0.061645
1.000000 0.101008 0.063208
0.000000 0.144012 0.043212
0.000000 0.145575 0.044775
0.060198 0.147138 0.046338
0.127910 0.148700 0.047900
0.195623 0.150263 0.049463
0.263335 0.151825 0.051025
0.331048 0.153388 0.052588
0.398761 0.154951 0.054151
0.466473 0.156513 0.055713
0.534186 0.158076 0.057276
0.601899 0.159639 0.058839
0.669611 0.161201 0.060401
0.737324 0.162764 0.061964
0.805036 0.164326 0.063526
0.872749 0.165889 0.065089
0.940462 0.167452 0.066652
1.000000 0.169014 0.068214
0.000000 0.212019 0.048219
0.000000 0.213581 0.049781
0.065204 0.215144 0.051344
0.132917 0.216707 0.052907
0.200629 0.218269 0.054469
0.268342 0.219832 0.056032
0.336054 0.221394 0.057594
0.403767 0.222957 0.059157
0.471480 0.224520 0.060720
0.539192 0.226082 0.062282
0.606905 0.227645 0.063845
0.674618 0.229208 0.065408
0.742330 0.230770 0.066970
0.810043 0.232333 0.068533
0.877755 0.233895 0.070095
0.945468 0.235458 0.071658
1.000000 0.237021 0.073221
0.000000 0.280025 0.053225
0.002498 0.281588 0.054788
0.070210 0.283150 0.056350
0.137923 0.284713 0.057913
0.205636 0.286276 0.059476
0.273348 0.287838 0.061038
0.341061 0.289401 0.062601
0.408773 0.290963 0.064163
0.476486 0.292526 0.065726
0.544199 0.294089 0.067289
0.611911 0.295651 0.068851
0.679624 0.297214 0.070414
0.747337 0.298777 0.071977
0.815049 0.300339 0.073539
0.882762 0.301902 0.075102
0.950474 0.303464 0.076664
1.000000 0.305027 0.078227
0.000000 0.348032 0.058232
0.007504 0.349594 0.059794
0.075217 0.351157 0.061357
0.142929 0.352719 0.062919
0.210642 0.354282 0.064482
0.278355 0.355845 0.066045
0.346067 0.357407 0.067607
0.413780 0.358970 0.069170
0.481493 0.360533 0.070733
0.549205 0.362095 0.072295
0.616918 0.363658 0.073858
0.684630 0.365220 0.075420
0.752343 0.366783 0.076983
0.820056 0.368346 0.078546
0.887768 0.369908 0.080108
0.955481 0.371471 0.081671
1.000000 0.373033 0.083233
0.000000 0.416038 0.063238
0.012511 0.417601 0.064801
0.080223 0.419163 0.066363
0.147936 0.420726 0.067926
0.215648 0.422288 0.069488
0.283361 0.423851 0.071051
0.351074 0.425414 0.072614
0.418786 0.426976 0.074176
0.486499 0.428539 0.075739
0.554212 0.430102 0.077302
0.621924 0.431664 0.078864
0.689637 0.433227 0.080427
0.757349 0.434789 0.081989
0.825062 0.436352 0.083552
0.892775 0.437915 0.085115
0.960487 0.439477 0.086677
1.000000 0.441040 0.088240
0.000000 0.484044 0.068244
0.017517 0.485607 0.069807
0.085230 0.487170 0.071370
0.152942 0.488732 0.072932
0.220655 0.490295 0.074495
0.288367 0.491857 0.076057
0.356080 0.493420 0.077620
0.423793 0.494983 0.079183
0.491505 0.496545 0.080745
0.559218 0.498108 0.082308
0.626931 0.499671 0.083871
0.694643 0.501233 0.085433
0.762356 0.502796 0.086996
0.830068 0.504358 0.088558
0.897781 0.505921 0.090121
0.965494 0.507484 0.091684
1.000000 0.509046 0.093246
0.000000 0.552051 0.073251
0.022523 0.553613 0.074813
0.090236 0.555176 0.076376
0.157949 0.556739 0.077939
0.225661 0.558301 0.079501
0.293374 0.559864 0.081064
0.361086 0.561426 0.082626
0.428799 0.562989 0.084189
0.496512 0.564552 0.085752
0.564224 0.566114 0.087314
0.631937 0.567677 0.088877
0.699650 0.569240 0.090440
0.767362 0.570802 0.092002
0.835075 0.572365 0.093565
0.902787 0.573927 0.095127
0.970500 0.575490 0.096690
1.000000 0.577053 0.098253
0.000000 0.620057 0.078257
0.027530 0.621620 0.079820
0.095242 0.623182 0.081382
0.162955 0.624745 0.082945
0.230668 0.626308 0.084508
0.298380 0.627870 0.086070
0.366093 0.629433 0.087633
0.433805 0.630995 0.089195
0.501518 0.632558 0.090758
0.569231 0.634121 0.092321
0.636943 0.635683 0.093883
0.704656 0.637246 0.095446
0.772369 0.638809 0.097009
0.840081 0.640371 0.098571
0.907794 0.641934 0.100134
0.975506 0.643496 0.101696
1.000000 0.645059 0.103259
0.000000 0.688064 0.083264
0.032536 0.689626 0.084826
0.100249 0.691189 0.086389
0.167961 0.692751 0.087951
0.235674 0.694314 0.089514
0.303387 0.695877 0.091077
0.371099 0.697439 0.092639
0.438812 0.699002 0.094202
0.506525 0.700565 0.095765
0.574237 0.702127 0.097327
0.641950 0.703690 0.098890
0.709662 0.705252 0.100452
0.777375 0.706815 0.102015
0.845088 0.708378 0.103578
0.912800 0.709940 0.105140
0.980513 0.711503 0.106703
1.000000 0.713065 0.108265
0.000000 0.756070 0.088270
0.037543 0.757633 0.089833
0.105255 0.759195 0.091395
0.172968 0.760758 0.092958
0.240680 0.762320 0.094520
0.308393 0.763883 0.096083
0.376106 0.765446 0.097646
0.443818 0.767008 0.099208
0.511531 0.768571 0.100771
0.579244 0.770134 0.102334
0.646956 0.771696 0.103896
0.714669 0.773259 0.105459
0.782381 0.774821 0.107021
0.850094 0.776384 0.108584
0.917807 0.777947 0.110147
0.985519 0.779509 0.111709
1.000000 0.781072 0.113272
0.000000 0.824076 0.093276
0.042549 0.825639 0.094839
0.110262 0.827202 0.096402
0.177974 0.828764 0.097964
0.245687 0.830327 0.099527
0.313399 0.831889 0.101089
0.381112 0.833452 0.102652
0.448825 0.835015 0.104215
0.516537 0.836577 0.105777
0.584250 0.838140 0.107340
0.651963 0.839703 0.108903
0.719675 0.841265 0.110465
0.787388 0.842828 0.112028
0.855100 0.844390 0.113590
0.922813 0.845953 0.115153
0.990526 0.847516 0.116716
1.000000 0.849078 0.118278
0.000000 0.892083 0.098283
0.047555 0.893645 0.099845
0.115268 0.895208 0.101408
0.182981 0.896771 0.102971
0.250693 0.898333 0.104533
0.318406 0.899896 0.106096
0.386118 0.901458 0.107658
0.453831 0.903021 0.109221
0.521544 0.904584 0.110784
0.589256 0.906146 0.112346
0.656969 0.907709 0.113909
0.724682 0.909272 0.115472
0.792394 0.910834 0.117034
0.860107 0.912397 0.118597
0.927819 0.913959 0.120159
0.995532 0.915522 0.121722
1.000000 0.917085 0.123285
0.000000 0.960089 0.103289
0.052562 0.961652 0.104852
0.120274 0.963214 0.106414
0.187987 0.964777 0.107977
0.255700 0.966340 0.109540
0.323412 0.967902 0.111102
0.391125 0.969465 0.112665
0.458837 0.971027 0.114227
0.526550 0.972590 0.115790
0.594263 0.974153 0.117353
0.661975 0.975715 0.118915
0.729688 0.977278 0.120478
0.797401 0.978841 0.122041
0.865113 0.980403 0.123603
0.932826 0.981966 0.125166
1.000000 0.983528 0.126728
1.000000 0.985091 0.128291
0.000000 1.000000 0.108296
0.057568 1.000000 0.109858
0.125281 1.000000 0.111421
0.192993 1.000000 0.112983
0.260706 1.000000 0.114546
0.328419 1.000000 0.116109
0.396131 1.000000 0.117671
0.463844 1.000000 0.119234
0.531557 1.000000 0.120797
0.599269 1.000000 0.122359
0.666982 1.000000 0.123922
0.734694 1.000000 0.125484
0.802407 1.000000 0.127047
0.870120 1.000000 0.128610
0.937832 1.000000 0.130172
1.000000 1.000000 0.131735
1.000000 1.000000 0.133297
0.000000 0.000000 0.086618
0.000000 0.000000 0.088181
0.045643 0.000000 0.089743
0.113356 0.000000 0.091306
0.181069 0.000000 0.092869
0.248781 0.000000 0.094431
0.316494 0.000000 0.095994
0.384206 0.000000 0.097556
0.451919 0.000000 0.099119
0.519632 0.000000 0.100682
0.587344 0.000000 0.102244
0.655057 0.000000 0.103807
0.722770 0.000000 0.105370
0.790482 0.000000 0.106932
0.858195 0.000000 0.108495
0.925907 0.000000 0.110057
0.993620 0.000000 0.111620
0.000000 0.008465 0.091625
0.000000 0.010027 0.093187
0.050650 0.011590 0.094750
0.118362 0.013152 0.096312
0.186075 0.014715 0.097875
0.253788 0.016278 0.099438
0.321500 0.017840 0.101000
0.389213 0.019403 0.102563
0.456925 0.020965 0.104125
0.524638 0.022528 0.105688
0.592351 0.024091 0.107251
0.660063 0.025653 0.108813
0.727776 0.027216 0.110376
0.795489 0.028779 0.111939
0.863201 0.030341 0.113501
0.930914 0.031904 0.115064
0.998626 0.033466 0.116626
0.000000 0.076471 0.096631
0.000000 0.078034 0.098194
0.055656 0.079596 0.099756
0.123369 0.081159 0.101319
0.191081 0.082721 0.102881
0.258794 0.084284 0.104444
0.326507 0.085847 0.106007
0.394219 0.087409 0.107569
0.461932 0.088972 0.109132
0.529644 0.090534 0.110694
0.597357 0.092097 0.112257
0.665070 0.093660 0.113820
0.732782 0.095222 0.115382
0.800495 0.096785 0.116945
0.868208 0.098348 0.118508
0.935920 0.099910 0.120070
1.000000 0.101473 0.121633
0.000000 0.144477 0.101637
0.000000 0.146040 0.103200
0.060663 0.147603 0.104763
0.128375 0.149165 0.106325
0.196088 0.150728 0.107888
0.263800 0.152290 0.109450
0.331513 0.153853 0.111013
0.399226 0.155416 0.112576
0.466938 0.156978 0.114138
0.534651 0.158541 0.115701
0.602363 0.160103 0.117263
0.670076 0.161666 0.118826
0.737789 0.163229 0.120389
0.805501 0.164791 0.121951
0.873214 0.166354 0.123514
0.940927 0.167917 0.125077
1.000000 0.169479 0.126639
0.000000 0.212484 0.106644
0.000000 0.214046 0.108206
0.065669 0.215609 0.109769
0.133382 0.217172 0.111332
0.201094 0.218734 0.112894
0.268807 0.220297 0.114457
0.336519 0.221859 0.116019
0.404232 0.223422 0.117582
0.471945 0.224985 0.119145
0.539657 0.226547 0.120707
0.607370 0.228110 0.122270
0.675083 0.229673 0.123833
0.742795 0.231235 0.125395
0.810508 0.232798 0.126958
0.878220 0.234360 0.128520
0.945933 0.235923 0.130083
1.000000 0.237486 0.131646
0.000000 0.280490 0.111650
0.002963 0.282053 0.113213
0.070675 0.283615 0.114775
0.138388 0.285178 0.116338
0.206101 0.286741 0.117901
0.273813 0.288303 0.119463
0.341526 0.289866 0.121026
0.409238 0.291428 0.122588
0.476951 0.292991 0.124151
0.544664 0.294554 0.125714
0.612376 0.296116 0.127276
0.680089 0.297679 0.128839
0.747802 0.299242 0.130402
0.815514 0.300804 0.131964
0.883227 0.302367 0.133527
0.950939 0.303929 0.135089
1.000000 0.305492 0.136652
0.000000 0.348497 0.116657
0.007969 0.350059 0.118219
0.075682 0.351622 0.119782
0.143394 0.353184 0.121344
0.211107 0.354747 0.122907
0.278820 0.356310 0.124470
0.346532 0.357872 0.126032
0.414245 0.359435 0.127595
0.481957 0.360997 0.129157
0.549670 0.362560 0.130720
0.617383 0.364123 0.132283
0.685095 0.365685 0.133845
0.752808 0.367248 0.135408
0.820521 0.368811 0.136971
0.888233 0.370373 0.138533
0.955946 0.371936 0.140096
1.000000 0.373498 0.141658
0.000000 0.416503 0.121663
0.012976 0.418066 0.123226
0.080688 0.419628 0.124788
0.148401 0.421191 0.126351
0.216113 0.422753 0.127913
0.283826 0.424316 0.129476
0.351539 0.425879 0.131039
0.419251 0.427441 0.132601
0.486964 0.429004 0.134164
0.554676 0.430566 0.135726
0.622389 0.432129 0.137289
0.690102 0.433692 0.138852
0.757814 0.435254 0.140414
0.825527 0.436817 0.141977
0.893240 0.438380 0.143540
0.960952 0.439942 0.145102
1.000000 0.441505 0.146665
0.000000 0.484509 0.126669
0.017982 0.486072 0.128232
0.085695 0.487635 0.129795
0.153407 0.489197 0.131357
0.221120 0.490760 0.132920
0.288832 0.492322 0.134482
0.356545 0.493885 0.136045
0.424258 0.495448 0.137608
0.491970 0.497010 0.139170
0.559683 0.498573 0.140733
0.627395 0.500135 0.142295
0.695108 0.501698 0.143858
0.762821 0.503261 0.145421
0.830533 0.504823 0.146983
0.898246 0.506386 0.148546
0.965959 0.507949 0.150109
1.000000 0.509511 0.151671
0.000000 0.552516 0.131676
0.022988 0.554078 0.133238
0.090701 0.555641 0.134801
0.158414 0.557204 0.136364
0.226126 0.558766 0.137926
0.293839 0.560329 0.139489
0.361551 0.561891 0.141051
0.429264 0.563454 0.142614
0.496977 0.565017 0.144177
0.564689 0.566579 0.145739
0.632402 0.568142 0.147302
0.700115 0.569705 0.148865
0.767827 0.571267 0.150427
0.835540 0.572830 0.151990
0.903252 0.574392 0.153552
0.970965 0.575955 0.155115
1.000000 0.577518 0.156678
0.000000 0.620522 0.136682
0.027995 0.622085 0.138245
0.095707 0.623647 0.139807
0.163420 0.625210 0.141370
0.231133 0.626773 0.142933
0.298845 0.628335 0.144495
0.366558 0.629898 0.146058
0.434270 0.631460 0.147620
0.501983 0.633023 0.149183
0.569696 0.634586 0.150746
0.637408 0.636148 0.152308
0.705121 0.637711 0.153871
0.772834 0.639274 0.155434
0.840546 0.640836 0.156996
0.908259 0.642399 0.158559
0.975971 0.643961 0.160121
1.000000 0.645524 0.161684
0.000000 0.688529 0.141689
0.033001 0.690091 0.143251
0.100714 0.691654 0.144814
0.168426 0.693216 0.146376
0.236139 0.694779 0.147939
0.303852 0.696342 0.149502
0.371564 0.697904 0.151064
0.439277 0.699467 0.152627
0.506989 0.701029 0.154189
0.574702 0.702592 0.155752
0.642415 0.704155 0.157315
0.710127 0.705717 0.158877
0.777840 0.707280 0.160440
0.845553 0.708843 0.162003
0.913265 0.710405 0.163565
0.980978 0.711968 0.165128
1.000000 0.713530 0.166690
0.000000 0.756535 0.146695
0.038008 0.758098 0.148258
0.105720 0.759660 0.149820
0.173433 0.761223 0.151383
0.241145 0.762785 0.152945
0.308858 0.764348 0.154508
0.376571 0.765911 0.156071
0.444283 0.767473 0.157633
0.511996 0.769036 0.159196
0.579708 0.770598 0.160758
0.647421 0.772161 0.162321
0.715134 0.773724 0.163884
0.782846 0.775286 0.165446
0.850559 0.776849 0.167009
0.918272 0.778412 0.168572
0.985984 0.779974 0.170134
1.000000 0.781537 0.171697
0.000000 0.824541 0.151701
0.043014 0.826104 0.153264
0.110727 0.827667 0.154827
0.178439 0.829229 0.156389
0.246152 0.830792 0.157952
0.313864 0.832354 0.159514
0.381577 0.833917 0.161077
0.449290 0.835480 0.162640
0.517002 0.837042 0.164202
0.584715 0.838605 0.165765
0.652427 0.840167 0.167327
0.720140 0.841730 0.168890
0.787853 0.843293 0.170453
0.855565 0.844855 0.172015
0.923278 0.846418 0.173578
0.990991 0.847981 0.175141
1.000000 0.849543 0.176703
0.000000 0.892548 0.156708
0.048020 0.894110 0.158270
0.115733 0.895673 0.159833
0.183446 0.897236 0.161396
0.251158 0.898798 0.162958
0.318871 0.900361 0.164521
0.386583 0.901923 0.166083
0.454296 0.903486 0.167646
0.522009 0.905049 0.169209
0.589721 0.906611 0.170771
0.657434 0.908174 0.172334
0.725147 0.909737 0.173897
0.792859 0.911299 0.175459
0.860572 0.912862 0.177022
0.928284 0.914424 0.178584
0.995997 0.915987 0.180147
1.000000 0.917550 0.181710
0.000000 0.960554 0.161714
0.053027 0.962117 0.163277
0.120739 0.963679 0.164839
0.188452 0.965242 0.166402
0.256165 0.966805 0.167965
0.323877 0.968367 0.169527
0.391590 0.969930 0.171090
0.459302 0.971492 0.172652
0.527015 0.973055 0.174215
0.594728 0.974618 0.175778
0.662440 0.976180 0.177340
0.730153 0.977743 0.178903
0.797866 0.979306 0.180466
0.865578 0.980868 0.182028
0.933291 0.982431 0.183591
1.000000 0.983993 0.185153
1.000000 0.985556 0.186716
0.000000 1.000000 0.166721
0.058033 1.000000 0.168283
0.125746 1.000000 0.169846
0.193458 1.000000 0.171408
0.261171 1.000000 0.172971
0.328884 1.000000 0.174534
0.396596 1.000000 0.176096
0.464309 1.000000 0.177659
0.532021 1.000000 0.179221
0.599734 1.000000 0.180784
0.667447 1.000000 0.182347
0.735159 1.000000 0.183909
0.802872 1.000000 0.185472
0.870585 1.000000 0.187035
0.938297 1.000000 0.188597
1.000000 1.000000 0.190160
1.000000 1.000000 0.191722
0.000000 0.000000 0.145043
0.000000 0.000000 0.146606
0.046108 0.000000 0.148168
0.113821 0.000000 0.149731
0.181534 0.000000 0.151294
0.249246 0.000000 0.152856
0.316959 0.000000 0.154419
0.384671 0.000000 0.155981
0.452384 0.000000 0.157544
0.520097 0.000000 0.159107
0.587809 0.000000 0.160669
0.655522 0.000000 0.162232
0.723234 0.000000 0.163794
0.790947 0.000000 0.165357
0.858660 0.000000 0.166920
0.926372 0.000000 0.168482
0.994085 0.000000 0.170045
0.000000 0.008930 0.150050
0.000000 0.010492 0.151612
0.051115 0.012055 0.153175
0.118827 0.013617 0.154737
