Data/Shaders/SimpleGraphicsSuite/LUTs/Cinematic Fantasy.cube
LUT_3D_SIZE 5
0.000000 0.000000 0.000000
0.180139 0.000000 0.000000
0.450989 0.000000 0.000000
0.721840 0.000000 0.000000
0.992690 0.000000 0.000000
0.000000 0.211554 0.000000
0.200164 0.217804 0.000000
0.471015 0.224055 0.002295
0.741865 0.230305 0.008545
1.000000 0.236556 0.014796
0.000000 0.483579 0.009819
0.220190 0.489830 0.016070
0.491040 0.496080 0.022320
0.761891 0.502331 0.028571
1.000000 0.508581 0.034821
0.000000 0.755605 0.029845
0.240215 0.761855 0.036095
0.511066 0.768106 0.042346
0.781916 0.774356 0.048596
1.000000 0.780607 0.054847
0.000000 1.000000 0.049871
0.260241 1.000000 0.056121
0.531092 1.000000 0.062372
0.801942 1.000000 0.068622
1.000000 1.000000 0.074872
0.000000 0.000000 0.203468
0.181999 0.000000 0.209719
0.452849 0.000000 0.215969
0.723699 0.000000 0.222219
0.994550 0.000000 0.228470
0.000000 0.213414 0.223494
0.202024 0.219664 0.229744
0.472875 0.225915 0.235995
0.743725 0.232165 0.242245
1.000000 0.238415 0.248495
0.000000 0.485439 0.243519
0.222050 0.491690 0.249770
0.492900 0.497940 0.256020
0.763751 0.504191 0.262271
1.000000 0.510441 0.268521
0.000000 0.757465 0.263545
0.242075 0.763715 0.269795
0.512926 0.769966 0.276046
0.783776 0.776216 0.282296
1.000000 0.782467 0.288547
0.000000 1.000000 0.283571
0.262101 1.000000 0.289821
0.532951 1.000000 0.296071
0.803802 1.000000 0.302322
1.000000 1.000000 0.308572
0.000000 0.000000 0.437168
0.183858 0.000000 0.443418
0.454709 0.000000 0.449669
0.725559 0.000000 0.455919
0.996410 0.000000 0.462170
0.000000 0.215274 0.457194
0.203884 0.221524 0.463444
0.474734 0.227774 0.469694
0.745585 0.234025 0.475945
1.000000 0.240275 0.482195
0.000000 0.487299 0.477219
0.223910 0.493550 0.483470
0.494760 0.499800 0.489720
0.765611 0.506051 0.495971
1.000000 0.512301 0.502221
0.000000 0.759325 0.497245
0.243935 0.765575 0.503495
0.514786 0.771826 0.509746
0.785636 0.778076 0.515996
1.000000 0.784327 0.522247
0.000000 1.000000 0.517270
0.263961 1.000000 0.523521
0.534811 1.000000 0.529771
0.805662 1.000000 0.536022
1.000000 1.000000 0.542272
0.000000 0.000000 0.670868
0.185718 0.000000 0.677118
0.456569 0.000000 0.683369
0.727419 0.000000 0.689619
0.998270 0.000000 0.695870
0.000000 0.217133 0.690893
0.205744 0.223384 0.697144
0.476594 0.229634 0.703394
0.747445 0.235885 0.709645
1.000000 0.242135 0.715895
0.000000 0.489159 0.710919
0.225770 0.495410 0.717170
0.496620 0.501660 0.723420
0.767470 0.507910 0.729670
1.000000 0.514161 0.735921
0.000000 0.761185 0.730945
0.245795 0.767435 0.737195
0.516646 0.773686 0.743446
0.787496 0.779936 0.749696
1.000000 0.786186 0.755946
0.000000 1.000000 0.750970
0.265821 1.000000 0.757221
0.536671 1.000000 0.763471
0.807522 1.000000 0.769722
1.000000 1.000000 0.775972
0.000000 0.000000 0.904568
0.187578 0.000000 0.910818
0.458429 0.000000 0.917069
0.729279 0.000000 0.923319
1.000000 0.000000 0.929570
0.000000 0.218993 0.924593
0.207604 0.225244 0.930844
0.478454 0.231494 0.937094
0.749305 0.237745 0.943345
1.000000 0.243995 0.949595
0.000000 0.491019 0.944619
0.227629 0.497269 0.950869
0.498480 0.503520 0.957120
0.769330 0.509770 0.963370
1.000000 0.516021 0.969621
0.000000 0.763045 0.964645
0.247655 0.769295 0.970895
0.518505 0.775545 0.977145
0.789356 0.781796 0.983396
1.000000 0.788046 0.989646
0.000000 1.000000 0.984670
0.267681 1.000000 0.990921
0.538531 1.000000 0.997171
0.809381 1.000000 1.000000
1.000000 1.000000 1.000000
