Data/Shaders/SimpleGraphicsSuite/LUTs/Cinematic Fantasy.cube
LUT_3D_SIZE 9
0.000000 0.000000 0.000000
0.044713 0.000000 0.000000
0.180139 0.000000 0.000000
0.315564 0.000000 0.000000
0.450989 0.000000 0.000000
0.586414 0.000000 0.000000
0.721840 0.000000 0.000000
0.857265 0.000000 0.000000
0.992690 0.000000 0.000000
0.000000 0.075541 0.000000
0.054726 0.078666 0.000000
0.190151 0.081791 0.000000
0.325577 0.084917 0.000000
0.461002 0.088042 0.000000
0.596427 0.091167 0.000000
0.731852 0.094292 0.000000
0.867278 0.097418 0.001658
1.000000 0.100543 0.004783
0.000000 0.211554 0.000000
0.064739 0.214679 0.000000
0.200164 0.217804 0.000000
0.335590 0.220930 0.000000
0.471015 0.224055 0.002295
0.606440 0.227180 0.005420
0.741865 0.230305 0.008545
0.877290 0.233430 0.011670
1.000000 0.236556 0.014796
0.000000 0.347567 0.000000
0.074752 0.350692 0.002932
0.210177 0.353817 0.006057
0.345602 0.356942 0.009182
0.481028 0.360068 0.012308
0.616453 0.363193 0.015433
0.751878 0.366318 0.018558
0.887303 0.369443 0.021683
1.000000 0.372568 0.024808
0.000000 0.483579 0.009819
0.084765 0.486705 0.012945
0.220190 0.489830 0.016070
0.355615 0.492955 0.019195
0.491040 0.496080 0.022320
0.626466 0.499206 0.025446
0.761891 0.502331 0.028571
0.897316 0.505456 0.031696
1.000000 0.508581 0.034821
0.000000 0.619592 0.019832
0.094777 0.622717 0.022957
0.230203 0.625843 0.026083
0.365628 0.628968 0.029208
0.501053 0.632093 0.032333
0.636478 0.635218 0.035458
0.771904 0.638344 0.038584
0.907329 0.641469 0.041709
1.000000 0.644594 0.044834
0.000000 0.755605 0.029845
0.104790 0.758730 0.032970
0.240215 0.761855 0.036095
0.375641 0.764981 0.039221
0.511066 0.768106 0.042346
0.646491 0.771231 0.045471
0.781916 0.774356 0.048596
0.917342 0.777482 0.051722
1.000000 0.780607 0.054847
0.000000 0.891618 0.039858
0.114803 0.894743 0.042983
0.250228 0.897868 0.046108
0.385654 0.900994 0.049234
0.521079 0.904119 0.052359
0.656504 0.907244 0.055484
0.791929 0.910369 0.058609
0.927354 0.913494 0.061734
1.000000 0.916620 0.064860
0.000000 1.000000 0.049871
0.124816 1.000000 0.052996
0.260241 1.000000 0.056121
0.395666 1.000000 0.059246
0.531092 1.000000 0.062372
0.666517 1.000000 0.065497
0.801942 1.000000 0.068622
0.937367 1.000000 0.071747
1.000000 1.000000 0.074872
0.000000 0.000000 0.086618
0.045643 0.000000 0.089743
0.181069 0.000000 0.092869
0.316494 0.000000 0.095994
0.451919 0.000000 0.099119
0.587344 0.000000 0.102244
0.722770 0.000000 0.105370
0.858195 0.000000 0.108495
0.993620 0.000000 0.111620
0.000000 0.076471 0.096631
0.055656 0.079596 0.099756
0.191081 0.082721 0.102881
0.326507 0.085847 0.106007
0.461932 0.088972 0.109132
0.597357 0.092097 0.112257
0.732782 0.095222 0.115382
0.868208 0.098348 0.118508
1.000000 0.101473 0.121633
0.000000 0.212484 0.106644
0.065669 0.215609 0.109769
0.201094 0.218734 0.112894
0.336519 0.221859 0.116019
0.471945 0.224985 0.119145
0.607370 0.228110 0.122270
0.742795 0.231235 0.125395
0.878220 0.234360 0.128520
1.000000 0.237486 0.131646
0.000000 0.348497 0.116657
0.075682 0.351622 0.119782
0.211107 0.354747 0.122907
0.346532 0.357872 0.126032
0.481957 0.360997 0.129157
0.617383 0.364123 0.132283
0.752808 0.367248 0.135408
0.888233 0.370373 0.138533
1.000000 0.373498 0.141658
0.000000 0.484509 0.126669
0.085695 0.487635 0.129795
0.221120 0.490760 0.132920
0.356545 0.493885 0.136045
0.491970 0.497010 0.139170
0.627395 0.500135 0.142295
0.762821 0.503261 0.145421
0.898246 0.506386 0.148546
1.000000 0.509511 0.151671
0.000000 0.620522 0.136682
0.095707 0.623647 0.139807
0.231133 0.626773 0.142933
0.366558 0.629898 0.146058
0.501983 0.633023 0.149183
0.637408 0.636148 0.152308
0.772834 0.639274 0.155434
0.908259 0.642399 0.158559
1.000000 0.645524 0.161684
0.000000 0.756535 0.146695
0.105720 0.759660 0.149820
0.241145 0.762785 0.152945
0.376571 0.765911 0.156071
0.511996 0.769036 0.159196
0.647421 0.772161 0.162321
0.782846 0.775286 0.165446
0.918272 0.778412 0.168572
1.000000 0.781537 0.171697
0.000000 0.892548 0.156708
0.115733 0.895673 0.159833
0.251158 0.898798 0.162958
0.386583 0.901923 0.166083
0.522009 0.905049 0.169209
0.657434 0.908174 0.172334
0.792859 0.911299 0.175459
0.928284 0.914424 0.178584
1.000000 0.917550 0.181710
0.000000 1.000000 0.166721
0.125746 1.000000 0.169846
0.261171 1.000000 0.172971
0.396596 1.000000 0.176096
0.532021 1.000000 0.179221
0.667447 1.000000 0.182347
0.802872 1.000000 0.185472
0.938297 1.000000 0.188597
1.000000 1.000000 0.191722
0.000000 0.000000 0.203468
0.046573 0.000000 0.206593
0.181999 0.000000 0.209719
0.317424 0.000000 0.212844
0.452849 0.000000 0.215969
0.588274 0.000000 0.219094
0.723699 0.000000 0.222219
0.859125 0.000000 0.225345
0.994550 0.000000 0.228470
0.000000 0.077401 0.213481
0.056586 0.080526 0.216606
0.192011 0.083651 0.219731
0.327437 0.086777 0.222857
0.462862 0.089902 0.225982
0.598287 0.093027 0.229107
0.733712 0.096152 0.232232
0.869137 0.099277 0.235357
1.000000 0.102403 0.238483
0.000000 0.213414 0.223494
0.066599 0.216539 0.226619
0.202024 0.219664 0.229744
0.337449 0.222789 0.232869
0.472875 0.225915 0.235995
0.608300 0.229040 0.239120
0.743725 0.232165 0.242245
0.879150 0.235290 0.245370
1.000000 0.238415 0.248495
0.000000 0.349427 0.233507
0.076612 0.352552 0.236632
0.212037 0.355677 0.239757
0.347462 0.358802 0.242882
0.482887 0.361927 0.246007
0.618313 0.365053 0.249133
0.753738 0.368178 0.252258
0.889163 0.371303 0.255383
1.000000 0.374428 0.258508
0.000000 0.485439 0.243519
0.086625 0.488565 0.246645
0.222050 0.491690 0.249770
0.357475 0.494815 0.252895
0.492900 0.497940 0.256020
0.628325 0.501065 0.259145
0.763751 0.504191 0.262271
0.899176 0.507316 0.265396
1.000000 0.510441 0.268521
0.000000 0.621452 0.253532
0.096637 0.624577 0.256657
0.232063 0.627703 0.259783
0.367488 0.630828 0.262908
0.502913 0.633953 0.266033
0.638338 0.637078 0.269158
0.773763 0.640203 0.272283
0.909189 0.643329 0.275409
1.000000 0.646454 0.278534
0.000000 0.757465 0.263545
0.106650 0.760590 0.266670
0.242075 0.763715 0.269795
0.377501 0.766841 0.272921
0.512926 0.769966 0.276046
0.648351 0.773091 0.279171
0.783776 0.776216 0.282296
0.919201 0.779341 0.285421
1.000000 0.782467 0.288547
0.000000 0.893478 0.273558
0.116663 0.896603 0.276683
0.252088 0.899728 0.279808
0.387513 0.902853 0.282933
0.522939 0.905979 0.286059
0.658364 0.909104 0.289184
0.793789 0.912229 0.292309
0.929214 0.915354 0.295434
1.000000 0.918479 0.298559
0.000000 1.000000 0.283571
0.126676 1.000000 0.286696
0.262101 1.000000 0.289821
0.397526 1.000000 0.292946
0.532951 1.000000 0.296071
0.668377 1.000000 0.299197
0.803802 1.000000 0.302322
0.939227 1.000000 0.305447
1.000000 1.000000 0.308572
0.000000 0.000000 0.320318
0.047503 0.000000 0.323443
0.182929 0.000000 0.326569
0.318354 0.000000 0.329694
0.453779 0.000000 0.332819
0.589204 0.000000 0.335944
0.724629 0.000000 0.339069
0.860055 0.000000 0.342195
0.995480 0.000000 0.345320
0.000000 0.078331 0.330331
0.057516 0.081456 0.333456
0.192941 0.084581 0.336581
0.328367 0.087707 0.339707
0.463792 0.090832 0.342832
0.599217 0.093957 0.345957
0.734642 0.097082 0.349082
0.870067 0.100207 0.352207
1.000000 0.103333 0.355333
0.000000 0.214344 0.340344
0.067529 0.217469 0.343469
0.202954 0.220594 0.346594
0.338379 0.223719 0.349719
0.473805 0.226845 0.352845
0.609230 0.229970 0.355970
0.744655 0.233095 0.359095
0.880080 0.236220 0.362220
1.000000 0.239345 0.365345
0.000000 0.350356 0.350356
0.077542 0.353482 0.353482
0.212967 0.356607 0.356607
0.348392 0.359732 0.359732
0.483817 0.362857 0.362857
0.619243 0.365983 0.365983
0.754668 0.369108 0.369108
0.890093 0.372233 0.372233
1.000000 0.375358 0.375358
0.000000 0.486369 0.360369
0.087554 0.489494 0.363494
0.222980 0.492620 0.366620
0.358405 0.495745 0.369745
0.493830 0.498870 0.372870
0.629255 0.501995 0.375995
0.764681 0.505121 0.379121
0.900106 0.508246 0.382246
1.000000 0.511371 0.385371
0.000000 0.622382 0.370382
0.097567 0.625507 0.373507
0.232993 0.628633 0.376633
0.368418 0.631758 0.379758
0.503843 0.634883 0.382883
0.639268 0.638008 0.386008
0.774693 0.641133 0.389133
0.910119 0.644259 0.392259
1.000000 0.647384 0.395384
0.000000 0.758395 0.380395
0.107580 0.761520 0.383520
0.243005 0.764645 0.386645
0.378431 0.767771 0.389771
0.513856 0.770896 0.392896
0.649281 0.774021 0.396021
0.784706 0.777146 0.399146
0.920131 0.780271 0.402271
1.000000 0.783397 0.405397
0.000000 0.894408 0.390408
0.117593 0.897533 0.393533
0.253018 0.900658 0.396658
0.388443 0.903783 0.399783
0.523869 0.906909 0.402909
0.659294 0.910034 0.406034
0.794719 0.913159 0.409159
0.930144 0.916284 0.412284
1.000000 0.919409 0.415409
0.000000 1.000000 0.400420
0.127606 1.000000 0.403546
0.263031 1.000000 0.406671
0.398456 1.000000 0.409796
0.533881 1.000000 0.412921
0.669307 1.000000 0.416047
0.804732 1.000000 0.419172
0.940157 1.000000 0.422297
1.000000 1.000000 0.425422
0.000000 0.000000 0.437168
0.048433 0.000000 0.440293
0.183858 0.000000 0.443418
0.319284 0.000000 0.446544
0.454709 0.000000 0.449669
0.590134 0.000000 0.452794
0.725559 0.000000 0.455919
0.860985 0.000000 0.459045
0.996410 0.000000 0.462170
0.000000 0.079261 0.447181
0.058446 0.082386 0.450306
0.193871 0.085511 0.453431
0.329296 0.088636 0.456556
0.464722 0.091762 0.459682
0.600147 0.094887 0.462807
0.735572 0.098012 0.465932
0.870997 0.101137 0.469057
1.000000 0.104263 0.472183
0.000000 0.215274 0.457194
0.068459 0.218399 0.460319
0.203884 0.221524 0.463444
0.339309 0.224649 0.466569
0.474734 0.227774 0.469694
0.610160 0.230900 0.472820
0.745585 0.234025 0.475945
0.881010 0.237150 0.479070
1.000000 0.240275 0.482195
0.000000 0.351286 0.467206
0.078472 0.354412 0.470332
0.213897 0.357537 0.473457
0.349322 0.360662 0.476582
0.484747 0.363787 0.479707
0.620173 0.366912 0.482832
0.755598 0.370038 0.485958
0.891023 0.373163 0.489083
1.000000 0.376288 0.492208
0.000000 0.487299 0.477219
0.088484 0.490424 0.480344
0.223910 0.493550 0.483470
0.359335 0.496675 0.486595
0.494760 0.499800 0.489720
0.630185 0.502925 0.492845
0.765611 0.506051 0.495971
0.901036 0.509176 0.499096
1.000000 0.512301 0.502221
0.000000 0.623312 0.487232
0.098497 0.626437 0.490357
0.233922 0.629562 0.493482
0.369348 0.632688 0.496608
0.504773 0.635813 0.499733
0.640198 0.638938 0.502858
0.775623 0.642063 0.505983
0.911049 0.645189 0.509109
1.000000 0.648314 0.512234
0.000000 0.759325 0.497245
0.108510 0.762450 0.500370
0.243935 0.765575 0.503495
0.379360 0.768700 0.506620
0.514786 0.771826 0.509746
0.650211 0.774951 0.512871
0.785636 0.778076 0.515996
0.921061 0.781201 0.519121
1.000000 0.784327 0.522247
0.000000 0.895338 0.507258
0.118523 0.898463 0.510383
0.253948 0.901588 0.513508
0.389373 0.904713 0.516633
0.524798 0.907838 0.519758
0.660224 0.910964 0.522884
0.795649 0.914089 0.526009
0.931074 0.917214 0.529134
1.000000 0.920339 0.532259
0.000000 1.000000 0.517270
0.128536 1.000000 0.520396
0.263961 1.000000 0.523521
0.399386 1.000000 0.526646
0.534811 1.000000 0.529771
0.670237 1.000000 0.532896
0.805662 1.000000 0.536022
0.941087 1.000000 0.539147
1.000000 1.000000 0.542272
0.000000 0.000000 0.554018
0.049363 0.000000 0.557143
0.184788 0.000000 0.560268
0.320214 0.000000 0.563394
0.455639 0.000000 0.566519
0.591064 0.000000 0.569644
0.726489 0.000000 0.572769
0.861914 0.000000 0.575894
0.997340 0.000000 0.579020
0.000000 0.080191 0.564031
0.059376 0.083316 0.567156
0.194801 0.086441 0.570281
0.330226 0.089566 0.573406
0.465652 0.092692 0.576532
0.601077 0.095817 0.579657
0.736502 0.098942 0.582782
0.871927 0.102067 0.585907
1.000000 0.105192 0.589032
0.000000 0.216204 0.574044
0.069389 0.219329 0.577169
0.204814 0.222454 0.580294
0.340239 0.225579 0.583419
0.475664 0.228704 0.586544
0.611090 0.231830 0.589670
0.746515 0.234955 0.592795
0.881940 0.238080 0.595920
1.000000 0.241205 0.599045
0.000000 0.352216 0.584056
0.079402 0.355342 0.587182
0.214827 0.358467 0.590307
0.350252 0.361592 0.593432
0.485677 0.364717 0.596557
0.621102 0.367842 0.599682
0.756528 0.370968 0.602808
0.891953 0.374093 0.605933
1.000000 0.377218 0.609058
0.000000 0.488229 0.594069
0.089414 0.491354 0.597194
0.224840 0.494480 0.600320
0.360265 0.497605 0.603445
0.495690 0.500730 0.606570
0.631115 0.503855 0.609695
0.766540 0.506980 0.612820
0.901966 0.510106 0.615946
1.000000 0.513231 0.619071
0.000000 0.624242 0.604082
0.099427 0.627367 0.607207
0.234852 0.630492 0.610332
0.370278 0.633618 0.613458
0.505703 0.636743 0.616583
0.641128 0.639868 0.619708
0.776553 0.642993 0.622833
0.911978 0.646118 0.625958
1.000000 0.649244 0.629084
0.000000 0.760255 0.614095
0.109440 0.763380 0.617220
0.244865 0.766505 0.620345
0.380290 0.769630 0.623470
0.515716 0.772756 0.626596
0.651141 0.775881 0.629721
0.786566 0.779006 0.632846
0.921991 0.782131 0.635971
1.000000 0.785256 0.639096
0.000000 0.896268 0.624108
0.119453 0.899393 0.627233
0.254878 0.902518 0.630358
0.390303 0.905643 0.633483
0.525728 0.908768 0.636608
0.661154 0.911894 0.639734
0.796579 0.915019 0.642859
0.932004 0.918144 0.645984
1.000000 0.921269 0.649109
0.000000 1.000000 0.634120
0.129466 1.000000 0.637246
0.264891 1.000000 0.640371
0.400316 1.000000 0.643496
0.535741 1.000000 0.646621
0.671166 1.000000 0.649746
0.806592 1.000000 0.652872
0.942017 1.000000 0.655997
1.000000 1.000000 0.659122
0.000000 0.000000 0.670868
0.050293 0.000000 0.673993
0.185718 0.000000 0.677118
0.321144 0.000000 0.680244
0.456569 0.000000 0.683369
0.591994 0.000000 0.686494
0.727419 0.000000 0.689619
0.862844 0.000000 0.692744
0.998270 0.000000 0.695870
0.000000 0.081121 0.680881
0.060306 0.084246 0.684006
0.195731 0.087371 0.687131
0.331156 0.090496 0.690256
0.466582 0.093622 0.693382
0.602007 0.096747 0.696507
0.737432 0.099872 0.699632
0.872857 0.102997 0.702757
1.000000 0.106122 0.705882
0.000000 0.217133 0.690893
0.070319 0.220259 0.694019
0.205744 0.223384 0.697144
0.341169 0.226509 0.700269
0.476594 0.229634 0.703394
0.612020 0.232760 0.706520
0.747445 0.235885 0.709645
0.882870 0.239010 0.712770
1.000000 0.242135 0.715895
0.000000 0.353146 0.700906
0.080331 0.356271 0.704031
0.215757 0.359397 0.707157
0.351182 0.362522 0.710282
0.486607 0.365647 0.713407
0.622032 0.368772 0.716532
0.757458 0.371898 0.719658
0.892883 0.375023 0.722783
1.000000 0.378148 0.725908
0.000000 0.489159 0.710919
0.090344 0.492284 0.714044
0.225770 0.495410 0.717170
0.361195 0.498535 0.720295
0.496620 0.501660 0.723420
0.632045 0.504785 0.726545
0.767470 0.507910 0.729670
0.902896 0.511036 0.732796
1.000000 0.514161 0.735921
0.000000 0.625172 0.720932
0.100357 0.628297 0.724057
0.235782 0.631422 0.727182
0.371208 0.634548 0.730308
0.506633 0.637673 0.733433
0.642058 0.640798 0.736558
0.777483 0.643923 0.739683
0.912908 0.647048 0.742808
1.000000 0.650174 0.745934
0.000000 0.761185 0.730945
0.110370 0.764310 0.734070
0.245795 0.767435 0.737195
0.381220 0.770560 0.740320
0.516646 0.773686 0.743446
0.652071 0.776811 0.746571
0.787496 0.779936 0.749696
0.922921 0.783061 0.752821
1.000000 0.786186 0.755946
0.000000 0.897197 0.740957
0.120383 0.900323 0.744083
0.255808 0.903448 0.747208
0.391233 0.906573 0.750333
0.526658 0.909698 0.753458
0.662084 0.912824 0.756584
0.797509 0.915949 0.759709
0.932934 0.919074 0.762834
1.000000 0.922199 0.765959
0.000000 1.000000 0.750970
0.130395 1.000000 0.754095
0.265821 1.000000 0.757221
0.401246 1.000000 0.760346
0.536671 1.000000 0.763471
0.672096 1.000000 0.766596
0.807522 1.000000 0.769722
0.942947 1.000000 0.772847
1.000000 1.000000 0.775972
0.000000 0.000000 0.787718
0.051223 0.000000 0.790843
0.186648 0.000000 0.793968
0.322073 0.000000 0.797093
0.457499 0.000000 0.800219
0.592924 0.000000 0.803344
0.728349 0.000000 0.806469
0.863774 0.000000 0.809594
0.999200 0.000000 0.812720
0.000000 0.082051 0.797731
0.061236 0.085176 0.800856
0.196661 0.088301 0.803981
0.332086 0.091426 0.807106
0.467511 0.094551 0.810231
0.602937 0.097677 0.813357
0.738362 0.100802 0.816482
0.873787 0.103927 0.819607
1.000000 0.107052 0.822732
0.000000 0.218063 0.807743
0.071249 0.221189 0.810869
0.206674 0.224314 0.813994
0.342099 0.227439 0.817119
0.477524 0.230564 0.820244
0.612950 0.233690 0.823370
0.748375 0.236815 0.826495
0.883800 0.239940 0.829620
1.000000 0.243065 0.832745
0.000000 0.354076 0.817756
0.081261 0.357201 0.820881
0.216687 0.360327 0.824007
0.352112 0.363452 0.827132
0.487537 0.366577 0.830257
0.622962 0.369702 0.833382
0.758388 0.372828 0.836508
0.893813 0.375953 0.839633
1.000000 0.379078 0.842758
0.000000 0.490089 0.827769
0.091274 0.493214 0.830894
0.226699 0.496339 0.834019
0.362125 0.499465 0.837145
0.497550 0.502590 0.840270
0.632975 0.505715 0.843395
0.768400 0.508840 0.846520
0.903826 0.511966 0.849646
1.000000 0.515091 0.852771
0.000000 0.626102 0.837782
0.101287 0.629227 0.840907
0.236712 0.632352 0.844032
0.372137 0.635477 0.847157
0.507563 0.638603 0.850283
0.642988 0.641728 0.853408
0.778413 0.644853 0.856533
0.913838 0.647978 0.859658
1.000000 0.651104 0.862784
0.000000 0.762115 0.847795
0.111300 0.765240 0.850920
0.246725 0.768365 0.854045
0.382150 0.771490 0.857170
0.517575 0.774615 0.860295
0.653001 0.777741 0.863421
0.788426 0.780866 0.866546
0.923851 0.783991 0.869671
1.000000 0.787116 0.872796
0.000000 0.898127 0.857807
0.121313 0.901253 0.860933
0.256738 0.904378 0.864058
0.392163 0.907503 0.867183
0.527588 0.910628 0.870308
0.663014 0.913754 0.873434
0.798439 0.916879 0.876559
0.933864 0.920004 0.879684
1.000000 0.923129 0.882809
0.000000 1.000000 0.867820
0.131325 1.000000 0.870945
0.266751 1.000000 0.874071
0.402176 1.000000 0.877196
0.537601 1.000000 0.880321
0.673026 1.000000 0.883446
0.808452 1.000000 0.886572
0.943877 1.000000 0.889697
1.000000 1.000000 0.892822
0.000000 0.000000 0.904568
0.052153 0.000000 0.907693
0.187578 0.000000 0.910818
0.323003 0.000000 0.913943
0.458429 0.000000 0.917069
0.593854 0.000000 0.920194
0.729279 0.000000 0.923319
0.864704 0.000000 0.926444
1.000000 0.000000 0.929570
0.000000 0.082981 0.914581
0.062166 0.086106 0.917706
0.197591 0.089231 0.920831
0.333016 0.092356 0.923956
0.468441 0.095481 0.927081
0.603867 0.098607 0.930207
0.739292 0.101732 0.933332
0.874717 0.104857 0.936457
1.000000 0.107982 0.939582
0.000000 0.218993 0.924593
0.072179 0.222119 0.927719
0.207604 0.225244 0.930844
0.343029 0.228369 0.933969
0.478454 0.231494 0.937094
0.613879 0.234619 0.940219
0.749305 0.237745 0.943345
0.884730 0.240870 0.946470
1.000000 0.243995 0.949595
0.000000 0.355006 0.934606
0.082191 0.358131 0.937731
0.217617 0.361257 0.940857
0.353042 0.364382 0.943982
0.488467 0.367507 0.947107
0.623892 0.370632 0.950232
0.759317 0.373757 0.953357
0.894743 0.376883 0.956483
1.000000 0.380008 0.959608
0.000000 0.491019 0.944619
0.092204 0.494144 0.947744
0.227629 0.497269 0.950869
0.363055 0.500395 0.953995
0.498480 0.503520 0.957120
0.633905 0.506645 0.960245
0.769330 0.509770 0.963370
0.904755 0.512895 0.966495
1.000000 0.516021 0.969621
0.000000 0.627032 0.954632
0.102217 0.630157 0.957757
0.237642 0.633282 0.960882
0.373067 0.636407 0.964007
0.508493 0.639533 0.967133
0.643918 0.642658 0.970258
0.779343 0.645783 0.973383
0.914768 0.648908 0.976508
1.000000 0.652034 0.979634
0.000000 0.763045 0.964645
0.112230 0.766170 0.967770
0.247655 0.769295 0.970895
0.383080 0.772420 0.974020
0.518505 0.775545 0.977145
0.653931 0.778671 0.980271
0.789356 0.781796 0.983396
0.924781 0.784921 0.986521
1.000000 0.788046 0.989646
0.000000 0.899057 0.974657
0.122243 0.902183 0.977783
0.257668 0.905308 0.980908
0.393093 0.908433 0.984033
0.528518 0.911558 0.987158
0.663943 0.914683 0.990283
0.799369 0.917809 0.993409
0.934794 0.920934 0.996534
1.000000 0.924059 0.999659
0.000000 1.000000 0.984670
0.132255 1.000000 0.987795
0.267681 1.000000 0.990921
0.403106 1.000000 0.994046
0.538531 1.000000 0.997171
0.673956 1.000000 1.000000
0.809381 1.000000 1.000000
0.944807 1.000000 1.000000
1.000000 1.000000 1.000000
