Data/Shaders/SimpleGraphicsSuite/LUTs/Dramatic Contrast.cube
LUT_3D_SIZE 9
0.000000 0.000000 0.000000
0.009496 0.000000 0.000000
0.135874 0.000000 0.000000
0.262252 0.000000 0.000000
0.388630 0.000000 0.000000
0.515008 0.000000 0.000000
0.641386 0.000000 0.000000
0.767764 0.000000 0.000000
0.894142 0.000000 0.000000
0.000000 0.029374 0.000000
0.030952 0.035752 0.000000
0.157330 0.042130 0.000000
0.283708 0.048508 0.000000
0.410086 0.054886 0.000000
0.536464 0.061264 0.000000
0.662842 0.067642 0.000000
0.789220 0.074020 0.000000
0.915598 0.080398 0.000000
0.000000 0.170830 0.000000
0.052408 0.177208 0.000000
0.178786 0.183586 0.000000
0.305164 0.189964 0.000000
0.431542 0.196342 0.000000
0.557920 0.202720 0.000000
0.684298 0.209098 0.000000
0.810676 0.215476 0.000000
0.937054 0.221854 0.000000
0.000000 0.312286 0.000000
0.073864 0.318664 0.000000
0.200242 0.325042 0.000000
0.326620 0.331420 0.000000
0.452998 0.337798 0.000000
0.579376 0.344176 0.000000
0.705754 0.350554 0.000154
0.832132 0.356932 0.006532
0.958510 0.363310 0.012910
0.000000 0.453742 0.000000
0.095320 0.460120 0.000000
0.221698 0.466498 0.000000
0.348076 0.472876 0.002476
0.474454 0.479254 0.008854
0.600832 0.485632 0.015232
0.727210 0.492010 0.021610
0.853588 0.498388 0.027988
0.979966 0.504766 0.034366
0.000000 0.595198 0.004798
0.116776 0.601576 0.011176
0.243154 0.607954 0.017554
0.369532 0.614332 0.023932
0.495910 0.620710 0.030310
0.622288 0.627088 0.036688
0.748666 0.633466 0.043066
0.875044 0.639844 0.049444
1.000000 0.646222 0.055822
0.011854 0.736654 0.026254
0.138232 0.743032 0.032632
0.264610 0.749410 0.039010
0.390988 0.755788 0.045388
0.517366 0.762166 0.051766
0.643744 0.768544 0.058144
0.770122 0.774922 0.064522
0.896500 0.781300 0.070900
1.000000 0.787678 0.077278
0.033310 0.878110 0.047710
0.159688 0.884488 0.054088
0.286066 0.890866 0.060466
0.412444 0.897244 0.066844
0.538822 0.903622 0.073222
0.665200 0.910000 0.079600
0.791578 0.916378 0.085978
0.917956 0.922756 0.092356
1.000000 0.929134 0.098734
0.054766 1.000000 0.069166
0.181144 1.000000 0.075544
0.307522 1.000000 0.081922
0.433900 1.000000 0.088300
0.560278 1.000000 0.094678
0.686656 1.000000 0.101056
0.813034 1.000000 0.107434
0.939412 1.000000 0.113812
1.000000 1.000000 0.120190
0.000000 0.000000 0.017241
0.011619 0.000000 0.023619
0.137997 0.000000 0.029997
0.264375 0.000000 0.036375
0.390753 0.000000 0.042753
0.517131 0.000000 0.049131
0.643509 0.000000 0.055509
0.769887 0.000000 0.061887
0.896265 0.000000 0.068265
0.000000 0.031497 0.038697
0.033075 0.037875 0.045075
0.159453 0.044253 0.051453
0.285831 0.050631 0.057831
0.412209 0.057009 0.064209
0.538587 0.063387 0.070587
0.664965 0.069765 0.076965
0.791343 0.076143 0.083343
0.917721 0.082521 0.089721
0.000000 0.172953 0.060153
0.054531 0.179331 0.066531
0.180909 0.185709 0.072909
0.307287 0.192087 0.079287
0.433665 0.198465 0.085665
0.560043 0.204843 0.092043
0.686421 0.211221 0.098421
0.812799 0.217599 0.104799
0.939177 0.223977 0.111177
0.000000 0.314409 0.081609
0.075987 0.320787 0.087987
0.202365 0.327165 0.094365
0.328743 0.333543 0.100743
0.455121 0.339921 0.107121
0.581499 0.346299 0.113499
0.707877 0.352677 0.119877
0.834255 0.359055 0.126255
0.960633 0.365433 0.132633
0.000000 0.455865 0.103065
0.097443 0.462243 0.109443
0.223821 0.468621 0.115821
0.350199 0.474999 0.122199
0.476577 0.481377 0.128577
0.602955 0.487755 0.134955
0.729333 0.494133 0.141333
0.855711 0.500511 0.147711
0.982089 0.506889 0.154089
0.000000 0.597321 0.124521
0.118899 0.603699 0.130899
0.245277 0.610077 0.137277
0.371655 0.616455 0.143655
0.498033 0.622833 0.150033
0.624411 0.629211 0.156411
0.750789 0.635589 0.162789
0.877167 0.641967 0.169167
1.000000 0.648345 0.175545
0.013977 0.738777 0.145977
0.140355 0.745155 0.152355
0.266733 0.751533 0.158733
0.393111 0.757911 0.165111
0.519489 0.764289 0.171489
0.645867 0.770667 0.177867
0.772245 0.777045 0.184245
0.898623 0.783423 0.190623
1.000000 0.789801 0.197001
0.035433 0.880233 0.167433
0.161811 0.886611 0.173811
0.288189 0.892989 0.180189
0.414567 0.899367 0.186567
0.540945 0.905745 0.192945
0.667323 0.912123 0.199323
0.793701 0.918501 0.205701
0.920079 0.924879 0.212079
1.000000 0.931257 0.218457
0.056889 1.000000 0.188889
0.183267 1.000000 0.195267
0.309645 1.000000 0.201645
0.436023 1.000000 0.208023
0.562401 1.000000 0.214401
0.688779 1.000000 0.220779
0.815157 1.000000 0.227157
0.941535 1.000000 0.233535
1.000000 1.000000 0.239913
0.000000 0.000000 0.136964
0.013742 0.000000 0.143342
0.140120 0.000000 0.149720
0.266498 0.000000 0.156098
0.392876 0.000000 0.162476
0.519254 0.000000 0.168854
0.645632 0.000000 0.175232
0.772010 0.000000 0.181610
0.898388 0.000000 0.187988
0.000000 0.033620 0.158420
0.035198 0.039998 0.164798
0.161576 0.046376 0.171176
0.287954 0.052754 0.177554
0.414332 0.059132 0.183932
0.540710 0.065510 0.190310
0.667088 0.071888 0.196688
0.793466 0.078266 0.203066
0.919844 0.084644 0.209444
0.000000 0.175076 0.179876
0.056654 0.181454 0.186254
0.183032 0.187832 0.192632
0.309410 0.194210 0.199010
0.435788 0.200588 0.205388
0.562166 0.206966 0.211766
0.688544 0.213344 0.218144
0.814922 0.219722 0.224522
0.941300 0.226100 0.230900
0.000000 0.316532 0.201332
0.078110 0.322910 0.207710
0.204488 0.329288 0.214088
0.330866 0.335666 0.220466
0.457244 0.342044 0.226844
0.583622 0.348422 0.233222
0.710000 0.354800 0.239600
0.836378 0.361178 0.245978
0.962756 0.367556 0.252356
0.000000 0.457988 0.222788
0.099566 0.464366 0.229166
0.225944 0.470744 0.235544
0.352322 0.477122 0.241922
0.478700 0.483500 0.248300
0.605078 0.489878 0.254678
0.731456 0.496256 0.261056
0.857834 0.502634 0.267434
0.984212 0.509012 0.273812
0.000000 0.599444 0.244244
0.121022 0.605822 0.250622
0.247400 0.612200 0.257000
0.373778 0.618578 0.263378
0.500156 0.624956 0.269756
0.626534 0.631334 0.276134
0.752912 0.637712 0.282512
0.879290 0.644090 0.288890
1.000000 0.650468 0.295268
0.016100 0.740900 0.265700
0.142478 0.747278 0.272078
0.268856 0.753656 0.278456
0.395234 0.760034 0.284834
0.521612 0.766412 0.291212
0.647990 0.772790 0.297590
0.774368 0.779168 0.303968
0.900746 0.785546 0.310346
1.000000 0.791924 0.316724
0.037556 0.882356 0.287156
0.163934 0.888734 0.293534
0.290312 0.895112 0.299912
0.416690 0.901490 0.306290
0.543068 0.907868 0.312668
0.669446 0.914246 0.319046
0.795824 0.920624 0.325424
0.922202 0.927002 0.331802
1.000000 0.933380 0.338180
0.059012 1.000000 0.308612
0.185390 1.000000 0.314990
0.311768 1.000000 0.321368
0.438146 1.000000 0.327746
0.564524 1.000000 0.334124
0.690902 1.000000 0.340502
0.817280 1.000000 0.346880
0.943658 1.000000 0.353258
1.000000 1.000000 0.359636
0.000000 0.000000 0.256686
0.015864 0.000000 0.263064
0.142242 0.000000 0.269442
0.268620 0.000000 0.275820
0.394998 0.000000 0.282198
0.521376 0.000000 0.288576
0.647754 0.000000 0.294954
0.774132 0.000000 0.301332
0.900510 0.000000 0.307710
0.000000 0.035742 0.278142
0.037320 0.042120 0.284520
0.163698 0.048498 0.290898
0.290076 0.054876 0.297276
0.416454 0.061254 0.303654
0.542832 0.067632 0.310032
0.669210 0.074010 0.316410
0.795588 0.080388 0.322788
0.921966 0.086766 0.329166
0.000000 0.177198 0.299598
0.058776 0.183576 0.305976
0.185154 0.189954 0.312354
0.311532 0.196332 0.318732
0.437910 0.202710 0.325110
0.564288 0.209088 0.331488
0.690666 0.215466 0.337866
0.817044 0.221844 0.344244
0.943422 0.228222 0.350622
0.000000 0.318654 0.321054
0.080232 0.325032 0.327432
0.206610 0.331410 0.333810
0.332988 0.337788 0.340188
0.459366 0.344166 0.346566
0.585744 0.350544 0.352944
0.712122 0.356922 0.359322
0.838500 0.363300 0.365700
0.964878 0.369678 0.372078
0.000000 0.460110 0.342510
0.101688 0.466488 0.348888
0.228066 0.472866 0.355266
0.354444 0.479244 0.361644
0.480822 0.485622 0.368022
0.607200 0.492000 0.374400
0.733578 0.498378 0.380778
0.859956 0.504756 0.387156
0.986334 0.511134 0.393534
0.000000 0.601566 0.363966
0.123144 0.607944 0.370344
0.249522 0.614322 0.376722
0.375900 0.620700 0.383100
0.502278 0.627078 0.389478
0.628656 0.633456 0.395856
0.755034 0.639834 0.402234
0.881412 0.646212 0.408612
1.000000 0.652590 0.414990
0.018222 0.743022 0.385422
0.144600 0.749400 0.391800
0.270978 0.755778 0.398178
0.397356 0.762156 0.404556
0.523734 0.768534 0.410934
0.650112 0.774912 0.417312
0.776490 0.781290 0.423690
0.902868 0.787668 0.430068
1.000000 0.794046 0.436446
0.039678 0.884478 0.406878
0.166056 0.890856 0.413256
0.292434 0.897234 0.419634
0.418812 0.903612 0.426012
0.545190 0.909990 0.432390
0.671568 0.916368 0.438768
0.797946 0.922746 0.445146
0.924324 0.929124 0.451524
1.000000 0.935502 0.457902
0.061134 1.000000 0.428334
0.187512 1.000000 0.434712
0.313890 1.000000 0.441090
0.440268 1.000000 0.447468
0.566646 1.000000 0.453846
0.693024 1.000000 0.460224
0.819402 1.000000 0.466602
0.945780 1.000000 0.472980
1.000000 1.000000 0.479358
0.000000 0.000000 0.376409
0.017987 0.000000 0.382787
0.144365 0.000000 0.389165
0.270743 0.000000 0.395543
0.397121 0.000000 0.401921
0.523499 0.000000 0.408299
0.649877 0.000000 0.414677
0.776255 0.000000 0.421055
0.902633 0.000000 0.427433
0.000000 0.037865 0.397865
0.039443 0.044243 0.404243
0.165821 0.050621 0.410621
0.292199 0.056999 0.416999
0.418577 0.063377 0.423377
0.544955 0.069755 0.429755
0.671333 0.076133 0.436133
0.797711 0.082511 0.442511
0.924089 0.088889 0.448889
0.000000 0.179321 0.419321
0.060899 0.185699 0.425699
0.187277 0.192077 0.432077
0.313655 0.198455 0.438455
0.440033 0.204833 0.444833
0.566411 0.211211 0.451211
0.692789 0.217589 0.457589
0.819167 0.223967 0.463967
0.945545 0.230345 0.470345
0.000000 0.320777 0.440777
0.082355 0.327155 0.447155
0.208733 0.333533 0.453533
0.335111 0.339911 0.459911
0.461489 0.346289 0.466289
0.587867 0.352667 0.472667
0.714245 0.359045 0.479045
0.840623 0.365423 0.485423
0.967001 0.371801 0.491801
0.000000 0.462233 0.462233
0.103811 0.468611 0.468611
0.230189 0.474989 0.474989
0.356567 0.481367 0.481367
0.482945 0.487745 0.487745
0.609323 0.494123 0.494123
0.735701 0.500501 0.500501
0.862079 0.506879 0.506879
0.988457 0.513257 0.513257
0.000000 0.603689 0.483689
0.125267 0.610067 0.490067
0.251645 0.616445 0.496445
0.378023 0.622823 0.502823
0.504401 0.629201 0.509201
0.630779 0.635579 0.515579
0.757157 0.641957 0.521957
0.883535 0.648335 0.528335
1.000000 0.654713 0.534713
0.020345 0.745145 0.505145
0.146723 0.751523 0.511523
0.273101 0.757901 0.517901
0.399479 0.764279 0.524279
0.525857 0.770657 0.530657
0.652235 0.777035 0.537035
0.778613 0.783413 0.543413
0.904991 0.789791 0.549791
1.000000 0.796169 0.556169
0.041801 0.886601 0.526601
0.168179 0.892979 0.532979
0.294557 0.899357 0.539357
0.420935 0.905735 0.545735
0.547313 0.912113 0.552113
0.673691 0.918491 0.558491
0.800069 0.924869 0.564869
0.926447 0.931247 0.571247
1.000000 0.937625 0.577625
0.063257 1.000000 0.548057
0.189635 1.000000 0.554435
0.316013 1.000000 0.560813
0.442391 1.000000 0.567191
0.568769 1.000000 0.573569
0.695147 1.000000 0.579947
0.821525 1.000000 0.586325
0.947903 1.000000 0.592703
1.000000 1.000000 0.599081
0.000000 0.000000 0.496132
0.020110 0.000000 0.502510
0.146488 0.000000 0.508888
0.272866 0.000000 0.515266
0.399244 0.000000 0.521644
0.525622 0.000000 0.528022
0.652000 0.000000 0.534400
0.778378 0.000000 0.540778
0.904756 0.000000 0.547156
0.000000 0.039988 0.517588
0.041566 0.046366 0.523966
0.167944 0.052744 0.530344
0.294322 0.059122 0.536722
0.420700 0.065500 0.543100
0.547078 0.071878 0.549478
0.673456 0.078256 0.555856
0.799834 0.084634 0.562234
0.926212 0.091012 0.568612
0.000000 0.181444 0.539044
0.063022 0.187822 0.545422
0.189400 0.194200 0.551800
0.315778 0.200578 0.558178
0.442156 0.206956 0.564556
0.568534 0.213334 0.570934
0.694912 0.219712 0.577312
0.821290 0.226090 0.583690
0.947668 0.232468 0.590068
0.000000 0.322900 0.560500
0.084478 0.329278 0.566878
0.210856 0.335656 0.573256
0.337234 0.342034 0.579634
0.463612 0.348412 0.586012
0.589990 0.354790 0.592390
0.716368 0.361168 0.598768
0.842746 0.367546 0.605146
0.969124 0.373924 0.611524
0.000000 0.464356 0.581956
0.105934 0.470734 0.588334
0.232312 0.477112 0.594712
0.358690 0.483490 0.601090
0.485068 0.489868 0.607468
0.611446 0.496246 0.613846
0.737824 0.502624 0.620224
0.864202 0.509002 0.626602
0.990580 0.515380 0.632980
0.001012 0.605812 0.603412
0.127390 0.612190 0.609790
0.253768 0.618568 0.616168
0.380146 0.624946 0.622546
0.506524 0.631324 0.628924
0.632902 0.637702 0.635302
0.759280 0.644080 0.641680
0.885658 0.650458 0.648058
1.000000 0.656836 0.654436
0.022468 0.747268 0.624868
0.148846 0.753646 0.631246
0.275224 0.760024 0.637624
0.401602 0.766402 0.644002
0.527980 0.772780 0.650380
0.654358 0.779158 0.656758
0.780736 0.785536 0.663136
0.907114 0.791914 0.669514
1.000000 0.798292 0.675892
0.043924 0.888724 0.646324
0.170302 0.895102 0.652702
0.296680 0.901480 0.659080
0.423058 0.907858 0.665458
0.549436 0.914236 0.671836
0.675814 0.920614 0.678214
0.802192 0.926992 0.684592
0.928570 0.933370 0.690970
1.000000 0.939748 0.697348
0.065380 1.000000 0.667780
0.191758 1.000000 0.674158
0.318136 1.000000 0.680536
0.444514 1.000000 0.686914
0.570892 1.000000 0.693292
0.697270 1.000000 0.699670
0.823648 1.000000 0.706048
0.950026 1.000000 0.712426
1.000000 1.000000 0.718804
0.000000 0.000000 0.615854
0.022232 0.000000 0.622232
0.148610 0.000000 0.628610
0.274988 0.000000 0.634988
0.401366 0.000000 0.641366
0.527744 0.000000 0.647744
0.654122 0.000000 0.654122
0.780500 0.000000 0.660500
0.906878 0.000000 0.666878
0.000000 0.042110 0.637310
0.043688 0.048488 0.643688
0.170066 0.054866 0.650066
0.296444 0.061244 0.656444
0.422822 0.067622 0.662822
0.549200 0.074000 0.669200
0.675578 0.080378 0.675578
0.801956 0.086756 0.681956
0.928334 0.093134 0.688334
0.000000 0.183566 0.658766
0.065144 0.189944 0.665144
0.191522 0.196322 0.671522
0.317900 0.202700 0.677900
0.444278 0.209078 0.684278
0.570656 0.215456 0.690656
0.697034 0.221834 0.697034
0.823412 0.228212 0.703412
0.949790 0.234590 0.709790
0.000000 0.325022 0.680222
0.086600 0.331400 0.686600
0.212978 0.337778 0.692978
0.339356 0.344156 0.699356
0.465734 0.350534 0.705734
0.592112 0.356912 0.712112
0.718490 0.363290 0.718490
0.844868 0.369668 0.724868
0.971246 0.376046 0.731246
0.000000 0.466478 0.701678
0.108056 0.472856 0.708056
0.234434 0.479234 0.714434
0.360812 0.485612 0.720812
0.487190 0.491990 0.727190
0.613568 0.498368 0.733568
0.739946 0.504746 0.739946
0.866324 0.511124 0.746324
0.992702 0.517502 0.752702
0.003134 0.607934 0.723134
0.129512 0.614312 0.729512
0.255890 0.620690 0.735890
0.382268 0.627068 0.742268
0.508646 0.633446 0.748646
0.635024 0.639824 0.755024
0.761402 0.646202 0.761402
0.887780 0.652580 0.767780
1.000000 0.658958 0.774158
0.024590 0.749390 0.744590
0.150968 0.755768 0.750968
0.277346 0.762146 0.757346
0.403724 0.768524 0.763724
0.530102 0.774902 0.770102
0.656480 0.781280 0.776480
0.782858 0.787658 0.782858
0.909236 0.794036 0.789236
1.000000 0.800414 0.795614
0.046046 0.890846 0.766046
0.172424 0.897224 0.772424
0.298802 0.903602 0.778802
0.425180 0.909980 0.785180
0.551558 0.916358 0.791558
0.677936 0.922736 0.797936
0.804314 0.929114 0.804314
0.930692 0.935492 0.810692
1.000000 0.941870 0.817070
0.067502 1.000000 0.787502
0.193880 1.000000 0.793880
0.320258 1.000000 0.800258
0.446636 1.000000 0.806636
0.573014 1.000000 0.813014
0.699392 1.000000 0.819392
0.825770 1.000000 0.825770
0.952148 1.000000 0.832148
1.000000 1.000000 0.838526
0.000000 0.000000 0.735577
0.024355 0.000000 0.741955
0.150733 0.000000 0.748333
0.277111 0.000000 0.754711
0.403489 0.000000 0.761089
0.529867 0.000000 0.767467
0.656245 0.000000 0.773845
0.782623 0.000000 0.780223
0.909001 0.000000 0.786601
0.000000 0.044233 0.757033
0.045811 0.050611 0.763411
0.172189 0.056989 0.769789
0.298567 0.063367 0.776167
0.424945 0.069745 0.782545
0.551323 0.076123 0.788923
0.677701 0.082501 0.795301
0.804079 0.088879 0.801679
0.930457 0.095257 0.808057
0.000000 0.185689 0.778489
0.067267 0.192067 0.784867
0.193645 0.198445 0.791245
0.320023 0.204823 0.797623
0.446401 0.211201 0.804001
0.572779 0.217579 0.810379
0.699157 0.223957 0.816757
0.825535 0.230335 0.823135
0.951913 0.236713 0.829513
0.000000 0.327145 0.799945
0.088723 0.333523 0.806323
0.215101 0.339901 0.812701
0.341479 0.346279 0.819079
0.467857 0.352657 0.825457
0.594235 0.359035 0.831835
0.720613 0.365413 0.838213
0.846991 0.371791 0.844591
0.973369 0.378169 0.850969
0.000000 0.468601 0.821401
0.110179 0.474979 0.827779
0.236557 0.481357 0.834157
0.362935 0.487735 0.840535
0.489313 0.494113 0.846913
0.615691 0.500491 0.853291
0.742069 0.506869 0.859669
0.868447 0.513247 0.866047
0.994825 0.519625 0.872425
0.005257 0.610057 0.842857
0.131635 0.616435 0.849235
0.258013 0.622813 0.855613
0.384391 0.629191 0.861991
0.510769 0.635569 0.868369
0.637147 0.641947 0.874747
0.763525 0.648325 0.881125
0.889903 0.654703 0.887503
1.000000 0.661081 0.893881
0.026713 0.751513 0.864313
0.153091 0.757891 0.870691
0.279469 0.764269 0.877069
0.405847 0.770647 0.883447
0.532225 0.777025 0.889825
0.658603 0.783403 0.896203
0.784981 0.789781 0.902581
0.911359 0.796159 0.908959
1.000000 0.802537 0.915337
0.048169 0.892969 0.885769
0.174547 0.899347 0.892147
0.300925 0.905725 0.898525
0.427303 0.912103 0.904903
0.553681 0.918481 0.911281
0.680059 0.924859 0.917659
0.806437 0.931237 0.924037
0.932815 0.937615 0.930415
1.000000 0.943993 0.936793
0.069625 1.000000 0.907225
0.196003 1.000000 0.913603
0.322381 1.000000 0.919981
0.448759 1.000000 0.926359
0.575137 1.000000 0.932737
0.701515 1.000000 0.939115
0.827893 1.000000 0.945493
0.954271 1.000000 0.951871
1.000000 1.000000 0.958249
0.000000 0.000000 0.855300
0.026478 0.000000 0.861678
0.152856 0.000000 0.868056
0.279234 0.000000 0.874434
0.405612 0.000000 0.880812
0.531990 0.000000 0.887190
0.658368 0.000000 0.893568
0.784746 0.000000 0.899946
0.911124 0.000000 0.906324
0.000000 0.046356 0.876756
0.047934 0.052734 0.883134
0.174312 0.059112 0.889512
0.300690 0.065490 0.895890
0.427068 0.071868 0.902268
0.553446 0.078246 0.908646
0.679824 0.084624 0.915024
0.806202 0.091002 0.921402
0.932580 0.097380 0.927780
0.000000 0.187812 0.898212
0.069390 0.194190 0.904590
0.195768 0.200568 0.910968
0.322146 0.206946 0.917346
0.448524 0.213324 0.923724
0.574902 0.219702 0.930102
0.701280 0.226080 0.936480
0.827658 0.232458 0.942858
0.954036 0.238836 0.949236
0.000000 0.329268 0.919668
0.090846 0.335646 0.926046
0.217224 0.342024 0.932424
0.343602 0.348402 0.938802
0.469980 0.354780 0.945180
0.596358 0.361158 0.951558
0.722736 0.367536 0.957936
0.849114 0.373914 0.964314
0.975492 0.380292 0.970692
0.000000 0.470724 0.941124
0.112302 0.477102 0.947502
0.238680 0.483480 0.953880
0.365058 0.489858 0.960258
0.491436 0.496236 0.966636
0.617814 0.502614 0.973014
0.744192 0.508992 0.979392
0.870570 0.515370 0.985770
0.996948 0.521748 0.992148
0.007380 0.612180 0.962580
0.133758 0.618558 0.968958
0.260136 0.624936 0.975336
0.386514 0.631314 0.981714
0.512892 0.637692 0.988092
0.639270 0.644070 0.994470
0.765648 0.650448 1.000000
0.892026 0.656826 1.000000
1.000000 0.663204 1.000000
0.028836 0.753636 0.984036
0.155214 0.760014 0.990414
0.281592 0.766392 0.996792
0.407970 0.772770 1.000000
0.534348 0.779148 1.000000
0.660726 0.785526 1.000000
0.787104 0.791904 1.000000
0.913482 0.798282 1.000000
1.000000 0.804660 1.000000
0.050292 0.895092 1.000000
0.176670 0.901470 1.000000
0.303048 0.907848 1.000000
0.429426 0.914226 1.000000
0.555804 0.920604 1.000000
0.682182 0.926982 1.000000
0.808560 0.933360 1.000000
0.934938 0.939738 1.000000
1.000000 0.946116 1.000000
0.071748 1.000000 1.000000
0.198126 1.000000 1.000000
0.324504 1.000000 1.000000
0.450882 1.000000 1.000000
0.577260 1.000000 1.000000
0.703638 1.000000 1.000000
0.830016 1.000000 1.000000
0.956394 1.000000 1.000000
1.000000 1.000000 1.000000
