Data/Shaders/SimpleGraphicsSuite/LUTs/Dramatic Contrast.cube
LUT_3D_SIZE 5
0.000000 0.000000 0.000000
0.135874 0.000000 0.000000
0.388630 0.000000 0.000000
0.641386 0.000000 0.000000
0.894142 0.000000 0.000000
0.000000 0.170830 0.000000
0.178786 0.183586 0.000000
0.431542 0.196342 0.000000
0.684298 0.209098 0.000000
0.937054 0.221854 0.000000
0.000000 0.453742 0.000000
0.221698 0.466498 0.000000
0.474454 0.479254 0.008854
0.727210 0.492010 0.021610
0.979966 0.504766 0.034366
0.011854 0.736654 0.026254
0.264610 0.749410 0.039010
0.517366 0.762166 0.051766
0.770122 0.774922 0.064522
1.000000 0.787678 0.077278
0.054766 1.000000 0.069166
0.307522 1.000000 0.081922
0.560278 1.000000 0.094678
0.813034 1.000000 0.107434
1.000000 1.000000 0.120190
0.000000 0.000000 0.136964
0.140120 0.000000 0.149720
0.392876 0.000000 0.162476
0.645632 0.000000 0.175232
0.898388 0.000000 0.187988
0.000000 0.175076 0.179876
0.183032 0.187832 0.192632
0.435788 0.200588 0.205388
0.688544 0.213344 0.218144
0.941300 0.226100 0.230900
0.000000 0.457988 0.222788
0.225944 0.470744 0.235544
0.478700 0.483500 0.248300
0.731456 0.496256 0.261056
0.984212 0.509012 0.273812
0.016100 0.740900 0.265700
0.268856 0.753656 0.278456
0.521612 0.766412 0.291212
0.774368 0.779168 0.303968
1.000000 0.791924 0.316724
0.059012 1.000000 0.308612
0.311768 1.000000 0.321368
0.564524 1.000000 0.334124
0.817280 1.000000 0.346880
1.000000 1.000000 0.359636
0.000000 0.000000 0.376409
0.144365 0.000000 0.389165
0.397121 0.000000 0.401921
0.649877 0.000000 0.414677
0.902633 0.000000 0.427433
0.000000 0.179321 0.419321
0.187277 0.192077 0.432077
0.440033 0.204833 0.444833
0.692789 0.217589 0.457589
0.945545 0.230345 0.470345
0.000000 0.462233 0.462233
0.230189 0.474989 0.474989
0.482945 0.487745 0.487745
0.735701 0.500501 0.500501
0.988457 0.513257 0.513257
0.020345 0.745145 0.505145
0.273101 0.757901 0.517901
0.525857 0.770657 0.530657
0.778613 0.783413 0.543413
1.000000 0.796169 0.556169
0.063257 1.000000 0.548057
0.316013 1.000000 0.560813
0.568769 1.000000 0.573569
0.821525 1.000000 0.586325
1.000000 1.000000 0.599081
0.000000 0.000000 0.615854
0.148610 0.000000 0.628610
0.401366 0.000000 0.641366
0.654122 0.000000 0.654122
0.906878 0.000000 0.666878
0.000000 0.183566 0.658766
0.191522 0.196322 0.671522
0.444278 0.209078 0.684278
0.697034 0.221834 0.697034
0.949790 0.234590 0.709790
0.000000 0.466478 0.701678
0.234434 0.479234 0.714434
0.487190 0.491990 0.727190
0.739946 0.504746 0.739946
0.992702 0.517502 0.752702
0.024590 0.749390 0.744590
0.277346 0.762146 0.757346
0.530102 0.774902 0.770102
0.782858 0.787658 0.782858
1.000000 0.800414 0.795614
0.067502 1.000000 0.787502
0.320258 1.000000 0.800258
0.573014 1.000000 0.813014
0.825770 1.000000 0.825770
1.000000 1.000000 0.838526
0.000000 0.000000 0.855300
0.152856 0.000000 0.868056
0.405612 0.000000 0.880812
0.658368 0.000000 0.893568
0.911124 0.000000 0.906324
0.000000 0.187812 0.898212
0.195768 0.200568 0.910968
0.448524 0.213324 0.923724
0.701280 0.226080 0.936480
0.954036 0.238836 0.949236
0.000000 0.470724 0.941124
0.238680 0.483480 0.953880
0.491436 0.496236 0.966636
0.744192 0.508992 0.979392
0.996948 0.521748 0.992148
0.028836 0.753636 0.984036
0.281592 0.766392 0.996792
0.534348 0.779148 1.000000
0.787104 0.791904 1.000000
1.000000 0.804660 1.000000
0.071748 1.000000 1.000000
0.324504 1.000000 1.000000
0.577260 1.000000 1.000000
0.830016 1.000000 1.000000
1.000000 1.000000 1.000000
