Data/Shaders/SimpleGraphicsSuite/LUTs/Dramatic Contrast.cube
LUT_3D_SIZE 17
0.000000 0.000000 0.000000
0.000000 0.000000 0.000000
0.009496 0.000000 0.000000
0.072685 0.000000 0.000000
0.135874 0.000000 0.000000
0.199063 0.000000 0.000000
0.262252 0.000000 0.000000
0.325441 0.000000 0.000000
0.388630 0.000000 0.000000
0.451819 0.000000 0.000000
0.515008 0.000000 0.000000
0.578197 0.000000 0.000000
0.641386 0.000000 0.000000
0.704575 0.000000 0.000000
0.767764 0.000000 0.000000
0.830953 0.000000 0.000000
0.894142 0.000000 0.000000
0.000000 0.000000 0.000000
0.000000 0.000000 0.000000
0.020224 0.000000 0.000000
0.083413 0.000000 0.000000
0.146602 0.000000 0.000000
0.209791 0.000000 0.000000
0.272980 0.000000 0.000000
0.336169 0.000000 0.000000
0.399358 0.000000 0.000000
0.462547 0.000000 0.000000
0.525736 0.000000 0.000000
0.588925 0.000000 0.000000
0.652114 0.000000 0.000000
0.715303 0.000103 0.000000
0.778492 0.003292 0.000000
0.841681 0.006481 0.000000
0.904870 0.009670 0.000000
0.000000 0.029374 0.000000
0.000000 0.032563 0.000000
0.030952 0.035752 0.000000
0.094141 0.038941 0.000000
0.157330 0.042130 0.000000
0.220519 0.045319 0.000000
0.283708 0.048508 0.000000
0.346897 0.051697 0.000000
0.410086 0.054886 0.000000
0.473275 0.058075 0.000000
0.536464 0.061264 0.000000
0.599653 0.064453 0.000000
0.662842 0.067642 0.000000
0.726031 0.070831 0.000000
0.789220 0.074020 0.000000
0.852409 0.077209 0.000000
0.915598 0.080398 0.000000
0.000000 0.100102 0.000000
0.000000 0.103291 0.000000
0.041680 0.106480 0.000000
0.104869 0.109669 0.000000
0.168058 0.112858 0.000000
0.231247 0.116047 0.000000
0.294436 0.119236 0.000000
0.357625 0.122425 0.000000
0.420814 0.125614 0.000000
0.484003 0.128803 0.000000
0.547192 0.131992 0.000000
0.610381 0.135181 0.000000
0.673570 0.138370 0.000000
0.736759 0.141559 0.000000
0.799948 0.144748 0.000000
0.863137 0.147937 0.000000
0.926326 0.151126 0.000000
0.000000 0.170830 0.000000
0.000000 0.174019 0.000000
0.052408 0.177208 0.000000
0.115597 0.180397 0.000000
0.178786 0.183586 0.000000
0.241975 0.186775 0.000000
0.305164 0.189964 0.000000
0.368353 0.193153 0.000000
0.431542 0.196342 0.000000
0.494731 0.199531 0.000000
0.557920 0.202720 0.000000
0.621109 0.205909 0.000000
0.684298 0.209098 0.000000
0.747487 0.212287 0.000000
0.810676 0.215476 0.000000
0.873865 0.218665 0.000000
0.937054 0.221854 0.000000
0.000000 0.241558 0.000000
0.000000 0.244747 0.000000
0.063136 0.247936 0.000000
0.126325 0.251125 0.000000
0.189514 0.254314 0.000000
0.252703 0.257503 0.000000
0.315892 0.260692 0.000000
0.379081 0.263881 0.000000
0.442270 0.267070 0.000000
0.505459 0.270259 0.000000
0.568648 0.273448 0.000000
0.631837 0.276637 0.000000
0.695026 0.279826 0.000000
0.758215 0.283015 0.000000
0.821404 0.286204 0.000000
0.884593 0.289393 0.000000
0.947782 0.292582 0.002182
0.000000 0.312286 0.000000
0.010675 0.315475 0.000000
0.073864 0.318664 0.000000
0.137053 0.321853 0.000000
0.200242 0.325042 0.000000
0.263431 0.328231 0.000000
0.326620 0.331420 0.000000
0.389809 0.334609 0.000000
0.452998 0.337798 0.000000
0.516187 0.340987 0.000000
0.579376 0.344176 0.000000
0.642565 0.347365 0.000000
0.705754 0.350554 0.000154
0.768943 0.353743 0.003343
0.832132 0.356932 0.006532
0.895321 0.360121 0.009721
0.958510 0.363310 0.012910
0.000000 0.383014 0.000000
0.021403 0.386203 0.000000
0.084592 0.389392 0.000000
0.147781 0.392581 0.000000
0.210970 0.395770 0.000000
0.274159 0.398959 0.000000
0.337348 0.402148 0.000000
0.400537 0.405337 0.000000
0.463726 0.408526 0.000000
0.526915 0.411715 0.001315
0.590104 0.414904 0.004504
0.653293 0.418093 0.007693
0.716482 0.421282 0.010882
0.779671 0.424471 0.014071
0.842860 0.427660 0.017260
0.906049 0.430849 0.020449
0.969238 0.434038 0.023638
0.000000 0.453742 0.000000
0.032131 0.456931 0.000000
0.095320 0.460120 0.000000
0.158509 0.463309 0.000000
0.221698 0.466498 0.000000
0.284887 0.469687 0.000000
0.348076 0.472876 0.002476
0.411265 0.476065 0.005665
0.474454 0.479254 0.008854
0.537643 0.482443 0.012043
0.600832 0.485632 0.015232
0.664021 0.488821 0.018421
0.727210 0.492010 0.021610
0.790399 0.495199 0.024799
0.853588 0.498388 0.027988
0.916777 0.501577 0.031177
0.979966 0.504766 0.034366
0.000000 0.524470 0.000000
0.042859 0.527659 0.000000
0.106048 0.530848 0.000448
0.169237 0.534037 0.003637
0.232426 0.537226 0.006826
0.295615 0.540415 0.010015
0.358804 0.543604 0.013204
0.421993 0.546793 0.016393
0.485182 0.549982 0.019582
0.548371 0.553171 0.022771
0.611560 0.556360 0.025960
0.674749 0.559549 0.029149
0.737938 0.562738 0.032338
0.801127 0.565927 0.035527
0.864316 0.569116 0.038716
0.927505 0.572305 0.041905
0.990694 0.575494 0.045094
0.000000 0.595198 0.004798
0.053587 0.598387 0.007987
0.116776 0.601576 0.011176
0.179965 0.604765 0.014365
0.243154 0.607954 0.017554
0.306343 0.611143 0.020743
0.369532 0.614332 0.023932
0.432721 0.617521 0.027121
0.495910 0.620710 0.030310
0.559099 0.623899 0.033499
0.622288 0.627088 0.036688
0.685477 0.630277 0.039877
0.748666 0.633466 0.043066
0.811855 0.636655 0.046255
0.875044 0.639844 0.049444
0.938233 0.643033 0.052633
1.000000 0.646222 0.055822
0.001126 0.665926 0.015526
0.064315 0.669115 0.018715
0.127504 0.672304 0.021904
0.190693 0.675493 0.025093
0.253882 0.678682 0.028282
0.317071 0.681871 0.031471
0.380260 0.685060 0.034660
0.443449 0.688249 0.037849
0.506638 0.691438 0.041038
0.569827 0.694627 0.044227
0.633016 0.697816 0.047416
0.696205 0.701005 0.050605
0.759394 0.704194 0.053794
0.822583 0.707383 0.056983
0.885772 0.710572 0.060172
0.948961 0.713761 0.063361
1.000000 0.716950 0.066550
0.011854 0.736654 0.026254
0.075043 0.739843 0.029443
0.138232 0.743032 0.032632
0.201421 0.746221 0.035821
0.264610 0.749410 0.039010
0.327799 0.752599 0.042199
0.390988 0.755788 0.045388
0.454177 0.758977 0.048577
0.517366 0.762166 0.051766
0.580555 0.765355 0.054955
0.643744 0.768544 0.058144
0.706933 0.771733 0.061333
0.770122 0.774922 0.064522
0.833311 0.778111 0.067711
0.896500 0.781300 0.070900
0.959689 0.784489 0.074089
1.000000 0.787678 0.077278
0.022582 0.807382 0.036982
0.085771 0.810571 0.040171
0.148960 0.813760 0.043360
0.212149 0.816949 0.046549
0.275338 0.820138 0.049738
0.338527 0.823327 0.052927
0.401716 0.826516 0.056116
0.464905 0.829705 0.059305
0.528094 0.832894 0.062494
0.591283 0.836083 0.065683
0.654472 0.839272 0.068872
0.717661 0.842461 0.072061
0.780850 0.845650 0.075250
0.844039 0.848839 0.078439
0.907228 0.852028 0.081628
0.970417 0.855217 0.084817
1.000000 0.858406 0.088006
0.033310 0.878110 0.047710
0.096499 0.881299 0.050899
0.159688 0.884488 0.054088
0.222877 0.887677 0.057277
0.286066 0.890866 0.060466
0.349255 0.894055 0.063655
0.412444 0.897244 0.066844
0.475633 0.900433 0.070033
0.538822 0.903622 0.073222
0.602011 0.906811 0.076411
0.665200 0.910000 0.079600
0.728389 0.913189 0.082789
0.791578 0.916378 0.085978
0.854767 0.919567 0.089167
0.917956 0.922756 0.092356
0.981145 0.925945 0.095545
1.000000 0.929134 0.098734
0.044038 0.948838 0.058438
0.107227 0.952027 0.061627
0.170416 0.955216 0.064816
0.233605 0.958405 0.068005
0.296794 0.961594 0.071194
0.359983 0.964783 0.074383
0.423172 0.967972 0.077572
0.486361 0.971161 0.080761
0.549550 0.974350 0.083950
0.612739 0.977539 0.087139
0.675928 0.980728 0.090328
0.739117 0.983917 0.093517
0.802306 0.987106 0.096706
0.865495 0.990295 0.099895
0.928684 0.993484 0.103084
0.991873 0.996673 0.106273
1.000000 0.999862 0.109462
0.054766 1.000000 0.069166
0.117955 1.000000 0.072355
0.181144 1.000000 0.075544
0.244333 1.000000 0.078733
0.307522 1.000000 0.081922
0.370711 1.000000 0.085111
0.433900 1.000000 0.088300
0.497089 1.000000 0.091489
0.560278 1.000000 0.094678
0.623467 1.000000 0.097867
0.686656 1.000000 0.101056
0.749845 1.000000 0.104245
0.813034 1.000000 0.107434
0.876223 1.000000 0.110623
0.939412 1.000000 0.113812
1.000000 1.000000 0.117001
1.000000 1.000000 0.120190
0.000000 0.000000 0.000000
0.000000 0.000000 0.000000
0.010558 0.000000 0.000000
0.073746 0.000000 0.000000
0.136935 0.000000 0.000000
0.200125 0.000000 0.000000
0.263313 0.000000 0.000000
0.326502 0.000000 0.000000
0.389691 0.000000 0.000000
0.452880 0.000000 0.000000
0.516069 0.000000 0.000000
0.579258 0.000000 0.000000
0.642448 0.000000 0.000000
0.705636 0.000000 0.000000
0.768825 0.000000 0.002026
0.832015 0.000000 0.005215
0.895203 0.000000 0.008404
0.000000 0.000000 0.000000
0.000000 0.000000 0.000000
0.021286 0.000000 0.000000
0.084474 0.000000 0.000000
0.147664 0.000000 0.000000
0.210852 0.000000 0.000000
0.274041 0.000000 0.000000
0.337230 0.000000 0.000000
0.400419 0.000000 0.000000
0.463608 0.000000 0.000000
0.526798 0.000000 0.000000
0.589986 0.000000 0.003187
0.653176 0.000000 0.006376
0.716364 0.001164 0.009565
0.779553 0.004353 0.012754
0.842743 0.007542 0.015943
0.905931 0.010731 0.019132
0.000000 0.030436 0.000000
0.000000 0.033625 0.000000
0.032014 0.036814 0.000000
0.095202 0.040003 0.000000
0.158391 0.043192 0.000000
0.221581 0.046381 0.000000
0.284769 0.049570 0.000000
0.347958 0.052759 0.001159
0.411147 0.055948 0.004348
0.474336 0.059137 0.007537
0.537525 0.062326 0.010726
0.600714 0.065515 0.013915
0.663903 0.068704 0.017104
0.727092 0.071893 0.020293
0.790281 0.075082 0.023482
0.853471 0.078271 0.026671
0.916659 0.081460 0.029860
0.000000 0.101163 0.000000
0.000000 0.104352 0.000000
0.042742 0.107541 0.000000
0.105930 0.110730 0.000000
0.169120 0.113919 0.002320
0.232309 0.117108 0.005509
0.295497 0.120297 0.008698
0.358686 0.123486 0.011887
0.421875 0.126675 0.015076
0.485064 0.129864 0.018265
0.548253 0.133053 0.021454
0.611442 0.136242 0.024643
0.674632 0.139431 0.027832
0.737820 0.142620 0.031021
0.801009 0.145809 0.034210
0.864199 0.148998 0.037399
0.927387 0.152187 0.040588
0.000000 0.171892 0.000292
0.000000 0.175081 0.003481
0.053470 0.178269 0.006670
0.116658 0.181458 0.009859
0.179847 0.184647 0.013048
0.243036 0.187836 0.016237
0.306225 0.191025 0.019426
0.369414 0.194214 0.022615
0.432603 0.197404 0.025804
0.495792 0.200593 0.028993
0.558982 0.203782 0.032182
0.622170 0.206971 0.035371
0.685360 0.210159 0.038560
0.748548 0.213348 0.041749
0.811738 0.216537 0.044938
0.874927 0.219726 0.048127
0.938115 0.222915 0.051316
0.000000 0.242620 0.011020
0.001008 0.245809 0.014209
0.064198 0.248998 0.017398
0.127386 0.252186 0.020587
0.190576 0.255376 0.023776
0.253765 0.258565 0.026965
0.316953 0.261754 0.030154
0.380142 0.264943 0.033343
0.443331 0.268132 0.036532
0.506520 0.271321 0.039721
0.569709 0.274510 0.042910
0.632898 0.277699 0.046099
0.696087 0.280888 0.049288
0.759277 0.284077 0.052477
0.822465 0.287266 0.055666
0.885655 0.290455 0.058855
0.948843 0.293644 0.062044
0.000000 0.313347 0.021748
0.011736 0.316536 0.024937
0.074926 0.319725 0.028126
0.138114 0.322914 0.031315
0.201303 0.326103 0.034504
0.264493 0.329292 0.037693
0.327681 0.332481 0.040882
0.390870 0.335670 0.044071
0.454060 0.338859 0.047260
0.517248 0.342048 0.050449
0.580438 0.345237 0.053638
0.643626 0.348426 0.056827
0.706816 0.351615 0.060016
0.770004 0.354804 0.063205
0.833193 0.357993 0.066394
0.896383 0.361182 0.069583
0.959571 0.364371 0.072772
0.000000 0.384075 0.032476
0.022464 0.387264 0.035665
0.085654 0.390453 0.038854
0.148842 0.393642 0.042043
0.212031 0.396831 0.045232
0.275220 0.400021 0.048421
0.338409 0.403209 0.051610
0.401598 0.406398 0.054799
0.464787 0.409587 0.057988
0.527976 0.412776 0.061177
0.591166 0.415965 0.064366
0.654354 0.419154 0.067555
0.717544 0.422343 0.070744
0.780732 0.425532 0.073933
0.843921 0.428721 0.077122
0.907111 0.431910 0.080311
0.970299 0.435099 0.083500
0.000000 0.454803 0.043204
0.033192 0.457992 0.046393
0.096382 0.461181 0.049582
0.159570 0.464370 0.052771
0.222759 0.467559 0.055960
0.285948 0.470749 0.059149
0.349137 0.473938 0.062338
0.412326 0.477127 0.065527
0.475515 0.480316 0.068716
0.538704 0.483505 0.071905
0.601893 0.486694 0.075094
0.665083 0.489882 0.078283
0.728272 0.493071 0.081472
0.791461 0.496260 0.084661
0.854649 0.499449 0.087850
0.917839 0.502638 0.091039
0.981027 0.505827 0.094228
0.000000 0.525531 0.053932
0.043920 0.528720 0.057121
0.107110 0.531909 0.060310
0.170298 0.535098 0.063499
0.233487 0.538287 0.066688
0.296677 0.541476 0.069877
0.359865 0.544665 0.073066
0.423054 0.547854 0.076255
0.486243 0.551043 0.079444
0.549432 0.554232 0.082633
0.612622 0.557421 0.085822
0.675810 0.560610 0.089011
0.739000 0.563799 0.092200
0.802188 0.566988 0.095389
0.865377 0.570177 0.098578
0.928567 0.573367 0.101767
0.991755 0.576555 0.104956
0.000000 0.596259 0.064660
0.054648 0.599449 0.067849
0.117838 0.602638 0.071038
0.181026 0.605827 0.074227
0.244215 0.609016 0.077416
0.307404 0.612205 0.080605
0.370593 0.615394 0.083794
0.433782 0.618583 0.086983
0.496972 0.621772 0.090172
0.560160 0.624961 0.093361
0.623350 0.628150 0.096550
0.686538 0.631339 0.099739
0.749727 0.634528 0.102928
0.812916 0.637717 0.106117
0.876105 0.640906 0.109306
0.939295 0.644095 0.112495
1.000000 0.647284 0.115684
0.002187 0.666987 0.075388
0.065376 0.670176 0.078577
0.128566 0.673365 0.081766
0.191754 0.676554 0.084955
0.254943 0.679743 0.088144
0.318132 0.682932 0.091333
0.381321 0.686121 0.094522
0.444510 0.689310 0.097711
0.507699 0.692499 0.100900
0.570888 0.695688 0.104089
0.634077 0.698877 0.107278
0.697267 0.702066 0.110467
0.760456 0.705255 0.113656
0.823645 0.708444 0.116845
0.886833 0.711633 0.120034
0.950023 0.714823 0.123223
1.000000 0.718012 0.126412
0.012916 0.737716 0.086116
0.076104 0.740905 0.089305
0.139294 0.744094 0.092494
0.202483 0.747283 0.095683
0.265672 0.750472 0.098872
0.328861 0.753661 0.102061
0.392049 0.756850 0.105250
0.455238 0.760039 0.108439
0.518428 0.763228 0.111628
0.581616 0.766417 0.114817
0.644806 0.769606 0.118006
0.707994 0.772795 0.121195
0.771184 0.775984 0.124384
0.834372 0.779173 0.127573
0.897561 0.782362 0.130762
0.960751 0.785551 0.133951
1.000000 0.788740 0.137140
0.023644 0.808443 0.096844
0.086832 0.811632 0.100033
0.150022 0.814821 0.103222
0.213210 0.818010 0.106411
0.276399 0.821199 0.109600
0.339588 0.824388 0.112789
0.402777 0.827577 0.115978
0.465966 0.830766 0.119167
0.529156 0.833955 0.122356
0.592344 0.837144 0.125545
0.655533 0.840333 0.128734
0.718722 0.843522 0.131923
0.781911 0.846711 0.135112
0.845100 0.849900 0.138301
0.908289 0.853089 0.141490
0.971479 0.856278 0.144679
1.000000 0.859467 0.147868
0.034371 0.879171 0.107572
0.097560 0.882360 0.110761
0.160750 0.885549 0.113950
0.223938 0.888738 0.117139
0.287127 0.891927 0.120328
0.350316 0.895116 0.123517
0.413505 0.898305 0.126706
0.476694 0.901494 0.129895
0.539883 0.904683 0.133084
0.603072 0.907872 0.136273
0.666261 0.911061 0.139462
0.729451 0.914250 0.142651
0.792640 0.917439 0.145840
0.855828 0.920628 0.149029
0.919017 0.923817 0.152218
0.982207 0.927006 0.155407
1.000000 0.930195 0.158596
0.045099 0.949899 0.118300
0.108288 0.953088 0.121488
0.171478 0.956277 0.124677
0.234666 0.959466 0.127866
0.297855 0.962655 0.131055
0.361044 0.965844 0.134244
0.424233 0.969033 0.137433
0.487422 0.972222 0.140623
0.550611 0.975411 0.143812
0.613800 0.978600 0.147001
0.676990 0.981789 0.150190
0.740178 0.984978 0.153379
0.803368 0.988167 0.156567
0.866556 0.991356 0.159756
0.929745 0.994545 0.162945
0.992935 0.997734 0.166135
1.000000 1.000000 0.169324
0.055828 1.000000 0.129028
0.119016 1.000000 0.132217
0.182206 1.000000 0.135406
0.245394 1.000000 0.138595
0.308584 1.000000 0.141784
0.371773 1.000000 0.144973
0.434961 1.000000 0.148162
0.498150 1.000000 0.151351
0.561339 1.000000 0.154540
0.624528 1.000000 0.157729
0.687717 1.000000 0.160918
0.750906 1.000000 0.164107
0.814095 1.000000 0.167296
0.877285 1.000000 0.170485
0.940473 1.000000 0.173674
1.000000 1.000000 0.176863
1.000000 1.000000 0.180052
0.000000 0.000000 0.017241
0.000000 0.000000 0.020430
0.011619 0.000000 0.023619
0.074808 0.000000 0.026808
0.137997 0.000000 0.029997
0.201186 0.000000 0.033186
0.264375 0.000000 0.036375
0.327564 0.000000 0.039564
0.390753 0.000000 0.042753
0.453942 0.000000 0.045942
0.517131 0.000000 0.049131
0.580320 0.000000 0.052320
0.643509 0.000000 0.055509
0.706698 0.000000 0.058698
0.769887 0.000000 0.061887
0.833076 0.000000 0.065076
0.896265 0.000000 0.068265
0.000000 0.000000 0.027969
0.000000 0.000000 0.031158
0.022347 0.000000 0.034347
0.085536 0.000000 0.037536
0.148725 0.000000 0.040725
0.211914 0.000000 0.043914
0.275103 0.000000 0.047103
0.338292 0.000000 0.050292
0.401481 0.000000 0.053481
0.464670 0.000000 0.056670
0.527859 0.000000 0.059859
0.591048 0.000000 0.063048
0.654237 0.000000 0.066237
0.717426 0.002226 0.069426
0.780615 0.005415 0.072615
0.843804 0.008604 0.075804
0.906993 0.011793 0.078993
0.000000 0.031497 0.038697
0.000000 0.034686 0.041886
0.033075 0.037875 0.045075
0.096264 0.041064 0.048264
0.159453 0.044253 0.051453
0.222642 0.047442 0.054642
0.285831 0.050631 0.057831
0.349020 0.053820 0.061020
0.412209 0.057009 0.064209
0.475398 0.060198 0.067398
0.538587 0.063387 0.070587
0.601776 0.066576 0.073776
0.664965 0.069765 0.076965
0.728154 0.072954 0.080154
0.791343 0.076143 0.083343
0.854532 0.079332 0.086532
0.917721 0.082521 0.089721
0.000000 0.102225 0.049425
0.000000 0.105414 0.052614
0.043803 0.108603 0.055803
0.106992 0.111792 0.058992
0.170181 0.114981 0.062181
0.233370 0.118170 0.065370
0.296559 0.121359 0.068559
0.359748 0.124548 0.071748
0.422937 0.127737 0.074937
0.486126 0.130926 0.078126
0.549315 0.134115 0.081315
0.612504 0.137304 0.084504
0.675693 0.140493 0.087693
0.738882 0.143682 0.090882
0.802071 0.146871 0.094071
0.865260 0.150060 0.097260
0.928449 0.153249 0.100449
0.000000 0.172953 0.060153
0.000000 0.176142 0.063342
0.054531 0.179331 0.066531
0.117720 0.182520 0.069720
0.180909 0.185709 0.072909
0.244098 0.188898 0.076098
0.307287 0.192087 0.079287
0.370476 0.195276 0.082476
0.433665 0.198465 0.085665
0.496854 0.201654 0.088854
0.560043 0.204843 0.092043
0.623232 0.208032 0.095232
0.686421 0.211221 0.098421
0.749610 0.214410 0.101610
0.812799 0.217599 0.104799
0.875988 0.220788 0.107988
0.939177 0.223977 0.111177
0.000000 0.243681 0.070881
0.002070 0.246870 0.074070
0.065259 0.250059 0.077259
0.128448 0.253248 0.080448
0.191637 0.256437 0.083637
0.254826 0.259626 0.086826
0.318015 0.262815 0.090015
0.381204 0.266004 0.093204
0.444393 0.269193 0.096393
0.507582 0.272382 0.099582
0.570771 0.275571 0.102771
0.633960 0.278760 0.105960
0.697149 0.281949 0.109149
0.760338 0.285138 0.112338
0.823527 0.288327 0.115527
0.886716 0.291516 0.118716
0.949905 0.294705 0.121905
0.000000 0.314409 0.081609
0.012798 0.317598 0.084798
0.075987 0.320787 0.087987
0.139176 0.323976 0.091176
0.202365 0.327165 0.094365
0.265554 0.330354 0.097554
0.328743 0.333543 0.100743
0.391932 0.336732 0.103932
0.455121 0.339921 0.107121
0.518310 0.343110 0.110310
0.581499 0.346299 0.113499
0.644688 0.349488 0.116688
0.707877 0.352677 0.119877
0.771066 0.355866 0.123066
0.834255 0.359055 0.126255
0.897444 0.362244 0.129444
0.960633 0.365433 0.132633
0.000000 0.385137 0.092337
0.023526 0.388326 0.095526
0.086715 0.391515 0.098715
0.149904 0.394704 0.101904
0.213093 0.397893 0.105093
0.276282 0.401082 0.108282
0.339471 0.404271 0.111471
0.402660 0.407460 0.114660
0.465849 0.410649 0.117849
0.529038 0.413838 0.121038
0.592227 0.417027 0.124227
0.655416 0.420216 0.127416
0.718605 0.423405 0.130605
0.781794 0.426594 0.133794
0.844983 0.429783 0.136983
0.908172 0.432972 0.140172
0.971361 0.436161 0.143361
0.000000 0.455865 0.103065
0.034254 0.459054 0.106254
0.097443 0.462243 0.109443
0.160632 0.465432 0.112632
0.223821 0.468621 0.115821
0.287010 0.471810 0.119010
0.350199 0.474999 0.122199
0.413388 0.478188 0.125388
0.476577 0.481377 0.128577
0.539766 0.484566 0.131766
0.602955 0.487755 0.134955
0.666144 0.490944 0.138144
0.729333 0.494133 0.141333
0.792522 0.497322 0.144522
0.855711 0.500511 0.147711
0.918900 0.503700 0.150900
0.982089 0.506889 0.154089
0.000000 0.526593 0.113793
0.044982 0.529782 0.116982
0.108171 0.532971 0.120171
0.171360 0.536160 0.123360
0.234549 0.539349 0.126549
0.297738 0.542538 0.129738
0.360927 0.545727 0.132927
0.424116 0.548916 0.136116
0.487305 0.552105 0.139305
0.550494 0.555294 0.142494
0.613683 0.558483 0.145683
0.676872 0.561672 0.148872
0.740061 0.564861 0.152061
0.803250 0.568050 0.155250
0.866439 0.571239 0.158439
0.929628 0.574428 0.161628
0.992817 0.577617 0.164817
0.000000 0.597321 0.124521
0.055710 0.600510 0.127710
0.118899 0.603699 0.130899
0.182088 0.606888 0.134088
0.245277 0.610077 0.137277
0.308466 0.613266 0.140466
0.371655 0.616455 0.143655
0.434844 0.619644 0.146844
0.498033 0.622833 0.150033
0.561222 0.626022 0.153222
0.624411 0.629211 0.156411
0.687600 0.632400 0.159600
0.750789 0.635589 0.162789
0.813978 0.638778 0.165978
0.877167 0.641967 0.169167
0.940356 0.645156 0.172356
1.000000 0.648345 0.175545
0.003249 0.668049 0.135249
0.066438 0.671238 0.138438
0.129627 0.674427 0.141627
0.192816 0.677616 0.144816
0.256005 0.680805 0.148005
0.319194 0.683994 0.151194
0.382383 0.687183 0.154383
0.445572 0.690372 0.157572
0.508761 0.693561 0.160761
0.571950 0.696750 0.163950
0.635139 0.699939 0.167139
0.698328 0.703128 0.170328
0.761517 0.706317 0.173517
0.824706 0.709506 0.176706
0.887895 0.712695 0.179895
0.951084 0.715884 0.183084
1.000000 0.719073 0.186273
0.013977 0.738777 0.145977
0.077166 0.741966 0.149166
0.140355 0.745155 0.152355
0.203544 0.748344 0.155544
0.266733 0.751533 0.158733
0.329922 0.754722 0.161922
0.393111 0.757911 0.165111
0.456300 0.761100 0.168300
0.519489 0.764289 0.171489
0.582678 0.767478 0.174678
0.645867 0.770667 0.177867
0.709056 0.773856 0.181056
0.772245 0.777045 0.184245
0.835434 0.780234 0.187434
0.898623 0.783423 0.190623
0.961812 0.786612 0.193812
1.000000 0.789801 0.197001
0.024705 0.809505 0.156705
0.087894 0.812694 0.159894
0.151083 0.815883 0.163083
0.214272 0.819072 0.166272
0.277461 0.822261 0.169461
0.340650 0.825450 0.172650
0.403839 0.828639 0.175839
0.467028 0.831828 0.179028
0.530217 0.835017 0.182217
0.593406 0.838206 0.185406
0.656595 0.841395 0.188595
0.719784 0.844584 0.191784
0.782973 0.847773 0.194973
0.846162 0.850962 0.198162
0.909351 0.854151 0.201351
0.972540 0.857340 0.204540
1.000000 0.860529 0.207729
0.035433 0.880233 0.167433
0.098622 0.883422 0.170622
0.161811 0.886611 0.173811
0.225000 0.889800 0.177000
0.288189 0.892989 0.180189
0.351378 0.896178 0.183378
0.414567 0.899367 0.186567
0.477756 0.902556 0.189756
0.540945 0.905745 0.192945
0.604134 0.908934 0.196134
0.667323 0.912123 0.199323
0.730512 0.915312 0.202512
0.793701 0.918501 0.205701
0.856890 0.921690 0.208890
0.920079 0.924879 0.212079
0.983268 0.928068 0.215268
1.000000 0.931257 0.218457
0.046161 0.950961 0.178161
0.109350 0.954150 0.181350
0.172539 0.957339 0.184539
0.235728 0.960528 0.187728
0.298917 0.963717 0.190917
0.362106 0.966906 0.194106
0.425295 0.970095 0.197295
0.488484 0.973284 0.200484
0.551673 0.976473 0.203673
0.614862 0.979662 0.206862
0.678051 0.982851 0.210051
0.741240 0.986040 0.213240
0.804429 0.989229 0.216429
0.867618 0.992418 0.219618
0.930807 0.995607 0.222807
0.993996 0.998796 0.225996
1.000000 1.000000 0.229185
0.056889 1.000000 0.188889
0.120078 1.000000 0.192078
0.183267 1.000000 0.195267
0.246456 1.000000 0.198456
0.309645 1.000000 0.201645
0.372834 1.000000 0.204834
0.436023 1.000000 0.208023
0.499212 1.000000 0.211212
0.562401 1.000000 0.214401
0.625590 1.000000 0.217590
0.688779 1.000000 0.220779
0.751968 1.000000 0.223968
0.815157 1.000000 0.227157
0.878346 1.000000 0.230346
0.941535 1.000000 0.233535
1.000000 1.000000 0.236724
1.000000 1.000000 0.239913
0.000000 0.000000 0.077102
0.000000 0.000000 0.080291
0.012680 0.000000 0.083480
0.075869 0.000000 0.086669
0.139058 0.000000 0.089858
0.202247 0.000000 0.093047
0.265436 0.000000 0.096236
0.328625 0.000000 0.099425
0.391814 0.000000 0.102614
0.455003 0.000000 0.105803
0.518192 0.000000 0.108992
0.581381 0.000000 0.112181
0.644570 0.000000 0.115370
0.707759 0.000000 0.118559
0.770948 0.000000 0.121748
0.834137 0.000000 0.124937
0.897326 0.000000 0.128126
0.000000 0.000000 0.087830
0.000000 0.000000 0.091019
0.023408 0.000000 0.094208
0.086597 0.000000 0.097397
