Data/Shaders/SimpleGraphicsSuite/LUTs/Golden Hour.cube
LUT_3D_SIZE 17
0.053500 0.039250 0.006000
0.122610 0.039250 0.006000
0.187233 0.039250 0.006000
0.250263 0.039250 0.006000
0.312282 0.039250 0.006000
0.373558 0.039250 0.006000
0.434249 0.039250 0.006000
0.494459 0.039250 0.006000
0.554259 0.039250 0.006000
0.613703 0.039250 0.006000
0.672832 0.039250 0.006000
0.731681 0.039250 0.006000
0.790274 0.039250 0.006000
0.848636 0.039250 0.006000
0.906784 0.039250 0.006000
0.964734 0.039250 0.006000
1.000000 0.039250 0.006000
0.053500 0.098625 0.006000
0.122610 0.098625 0.006000
0.187233 0.098625 0.006000
0.250263 0.098625 0.006000
0.312282 0.098625 0.006000
0.373558 0.098625 0.006000
0.434249 0.098625 0.006000
0.494459 0.098625 0.006000
0.554259 0.098625 0.006000
0.613703 0.098625 0.006000
0.672832 0.098625 0.006000
0.731681 0.098625 0.006000
0.790274 0.098625 0.006000
0.848636 0.098625 0.006000
0.906784 0.098625 0.006000
0.964734 0.098625 0.006000
1.000000 0.098625 0.006000
0.053500 0.158000 0.006000
0.122610 0.158000 0.006000
0.187233 0.158000 0.006000
0.250263 0.158000 0.006000
0.312282 0.158000 0.006000
0.373558 0.158000 0.006000
0.434249 0.158000 0.006000
0.494459 0.158000 0.006000
0.554259 0.158000 0.006000
0.613703 0.158000 0.006000
0.672832 0.158000 0.006000
0.731681 0.158000 0.006000
0.790274 0.158000 0.006000
0.848636 0.158000 0.006000
0.906784 0.158000 0.006000
0.964734 0.158000 0.006000
1.000000 0.158000 0.006000
0.053500 0.217375 0.006000
0.122610 0.217375 0.006000
0.187233 0.217375 0.006000
0.250263 0.217375 0.006000
0.312282 0.217375 0.006000
0.373558 0.217375 0.006000
0.434249 0.217375 0.006000
0.494459 0.217375 0.006000
0.554259 0.217375 0.006000
0.613703 0.217375 0.006000
0.672832 0.217375 0.006000
0.731681 0.217375 0.006000
0.790274 0.217375 0.006000
0.848636 0.217375 0.006000
0.906784 0.217375 0.006000
0.964734 0.217375 0.006000
1.000000 0.217375 0.006000
0.053500 0.276750 0.006000
0.122610 0.276750 0.006000
0.187233 0.276750 0.006000
0.250263 0.276750 0.006000
0.312282 0.276750 0.006000
0.373558 0.276750 0.006000
0.434249 0.276750 0.006000
0.494459 0.276750 0.006000
0.554259 0.276750 0.006000
0.613703 0.276750 0.006000
0.672832 0.276750 0.006000
0.731681 0.276750 0.006000
0.790274 0.276750 0.006000
0.848636 0.276750 0.006000
0.906784 0.276750 0.006000
0.964734 0.276750 0.006000
1.000000 0.276750 0.006000
0.053500 0.336125 0.006000
0.122610 0.336125 0.006000
0.187233 0.336125 0.006000
0.250263 0.336125 0.006000
0.312282 0.336125 0.006000
0.373558 0.336125 0.006000
0.434249 0.336125 0.006000
0.494459 0.336125 0.006000
0.554259 0.336125 0.006000
0.613703 0.336125 0.006000
0.672832 0.336125 0.006000
0.731681 0.336125 0.006000
0.790274 0.336125 0.006000
0.848636 0.336125 0.006000
0.906784 0.336125 0.006000
0.964734 0.336125 0.006000
1.000000 0.336125 0.006000
0.053500 0.395500 0.006000
0.122610 0.395500 0.006000
0.187233 0.395500 0.006000
0.250263 0.395500 0.006000
0.312282 0.395500 0.006000
0.373558 0.395500 0.006000
0.434249 0.395500 0.006000
0.494459 0.395500 0.006000
0.554259 0.395500 0.006000
0.613703 0.395500 0.006000
0.672832 0.395500 0.006000
0.731681 0.395500 0.006000
0.790274 0.395500 0.006000
0.848636 0.395500 0.006000
0.906784 0.395500 0.006000
0.964734 0.395500 0.006000
1.000000 0.395500 0.006000
0.053500 0.454875 0.006000
0.122610 0.454875 0.006000
0.187233 0.454875 0.006000
0.250263 0.454875 0.006000
0.312282 0.454875 0.006000
0.373558 0.454875 0.006000
0.434249 0.454875 0.006000
0.494459 0.454875 0.006000
0.554259 0.454875 0.006000
0.613703 0.454875 0.006000
0.672832 0.454875 0.006000
0.731681 0.454875 0.006000
0.790274 0.454875 0.006000
0.848636 0.454875 0.006000
0.906784 0.454875 0.006000
0.964734 0.454875 0.006000
1.000000 0.454875 0.006000
0.053500 0.514250 0.006000
0.122610 0.514250 0.006000
0.187233 0.514250 0.006000
0.250263 0.514250 0.006000
0.312282 0.514250 0.006000
0.373558 0.514250 0.006000
0.434249 0.514250 0.006000
0.494459 0.514250 0.006000
0.554259 0.514250 0.006000
0.613703 0.514250 0.006000
0.672832 0.514250 0.006000
0.731681 0.514250 0.006000
0.790274 0.514250 0.006000
0.848636 0.514250 0.006000
0.906784 0.514250 0.006000
0.964734 0.514250 0.006000
1.000000 0.514250 0.006000
0.053500 0.573625 0.006000
0.122610 0.573625 0.006000
0.187233 0.573625 0.006000
0.250263 0.573625 0.006000
0.312282 0.573625 0.006000
0.373558 0.573625 0.006000
0.434249 0.573625 0.006000
0.494459 0.573625 0.006000
0.554259 0.573625 0.006000
0.613703 0.573625 0.006000
0.672832 0.573625 0.006000
0.731681 0.573625 0.006000
0.790274 0.573625 0.006000
0.848636 0.573625 0.006000
0.906784 0.573625 0.006000
0.964734 0.573625 0.006000
1.000000 0.573625 0.006000
0.053500 0.633000 0.006000
0.122610 0.633000 0.006000
0.187233 0.633000 0.006000
0.250263 0.633000 0.006000
0.312282 0.633000 0.006000
0.373558 0.633000 0.006000
0.434249 0.633000 0.006000
0.494459 0.633000 0.006000
0.554259 0.633000 0.006000
0.613703 0.633000 0.006000
0.672832 0.633000 0.006000
0.731681 0.633000 0.006000
0.790274 0.633000 0.006000
0.848636 0.633000 0.006000
0.906784 0.633000 0.006000
0.964734 0.633000 0.006000
1.000000 0.633000 0.006000
0.053500 0.692375 0.006000
0.122610 0.692375 0.006000
0.187233 0.692375 0.006000
0.250263 0.692375 0.006000
0.312282 0.692375 0.006000
0.373558 0.692375 0.006000
0.434249 0.692375 0.006000
0.494459 0.692375 0.006000
0.554259 0.692375 0.006000
0.613703 0.692375 0.006000
0.672832 0.692375 0.006000
0.731681 0.692375 0.006000
0.790274 0.692375 0.006000
0.848636 0.692375 0.006000
0.906784 0.692375 0.006000
0.964734 0.692375 0.006000
1.000000 0.692375 0.006000
0.053500 0.751750 0.006000
0.122610 0.751750 0.006000
0.187233 0.751750 0.006000
0.250263 0.751750 0.006000
0.312282 0.751750 0.006000
0.373558 0.751750 0.006000
0.434249 0.751750 0.006000
0.494459 0.751750 0.006000
0.554259 0.751750 0.006000
0.613703 0.751750 0.006000
0.672832 0.751750 0.006000
0.731681 0.751750 0.006000
0.790274 0.751750 0.006000
0.848636 0.751750 0.006000
0.906784 0.751750 0.006000
0.964734 0.751750 0.006000
1.000000 0.751750 0.006000
0.053500 0.811125 0.006000
0.122610 0.811125 0.006000
0.187233 0.811125 0.006000
0.250263 0.811125 0.006000
0.312282 0.811125 0.006000
0.373558 0.811125 0.006000
0.434249 0.811125 0.006000
0.494459 0.811125 0.006000
0.554259 0.811125 0.006000
0.613703 0.811125 0.006000
0.672832 0.811125 0.006000
0.731681 0.811125 0.006000
0.790274 0.811125 0.006000
0.848636 0.811125 0.006000
0.906784 0.811125 0.006000
0.964734 0.811125 0.006000
1.000000 0.811125 0.006000
0.053500 0.870500 0.006000
0.122610 0.870500 0.006000
0.187233 0.870500 0.006000
0.250263 0.870500 0.006000
0.312282 0.870500 0.006000
0.373558 0.870500 0.006000
0.434249 0.870500 0.006000
0.494459 0.870500 0.006000
0.554259 0.870500 0.006000
0.613703 0.870500 0.006000
0.672832 0.870500 0.006000
0.731681 0.870500 0.006000
0.790274 0.870500 0.006000
0.848636 0.870500 0.006000
0.906784 0.870500 0.006000
0.964734 0.870500 0.006000
1.000000 0.870500 0.006000
0.053500 0.929875 0.006000
0.122610 0.929875 0.006000
0.187233 0.929875 0.006000
0.250263 0.929875 0.006000
0.312282 0.929875 0.006000
0.373558 0.929875 0.006000
0.434249 0.929875 0.006000
0.494459 0.929875 0.006000
0.554259 0.929875 0.006000
0.613703 0.929875 0.006000
0.672832 0.929875 0.006000
0.731681 0.929875 0.006000
0.790274 0.929875 0.006000
0.848636 0.929875 0.006000
0.906784 0.929875 0.006000
0.964734 0.929875 0.006000
1.000000 0.929875 0.006000
0.053500 0.989250 0.006000
0.122610 0.989250 0.006000
0.187233 0.989250 0.006000
0.250263 0.989250 0.006000
0.312282 0.989250 0.006000
0.373558 0.989250 0.006000
0.434249 0.989250 0.006000
0.494459 0.989250 0.006000
0.554259 0.989250 0.006000
0.613703 0.989250 0.006000
0.672832 0.989250 0.006000
0.731681 0.989250 0.006000
0.790274 0.989250 0.006000
0.848636 0.989250 0.006000
0.906784 0.989250 0.006000
0.964734 0.989250 0.006000
1.000000 0.989250 0.006000
0.053500 0.039250 0.051782
0.122610 0.039250 0.051782
0.187233 0.039250 0.051782
0.250263 0.039250 0.051782
0.312282 0.039250 0.051782
0.373558 0.039250 0.051782
0.434249 0.039250 0.051782
0.494459 0.039250 0.051782
0.554259 0.039250 0.051782
0.613703 0.039250 0.051782
0.672832 0.039250 0.051782
0.731681 0.039250 0.051782
0.790274 0.039250 0.051782
0.848636 0.039250 0.051782
0.906784 0.039250 0.051782
0.964734 0.039250 0.051782
1.000000 0.039250 0.051782
0.053500 0.098625 0.051782
0.122610 0.098625 0.051782
0.187233 0.098625 0.051782
0.250263 0.098625 0.051782
0.312282 0.098625 0.051782
0.373558 0.098625 0.051782
0.434249 0.098625 0.051782
0.494459 0.098625 0.051782
0.554259 0.098625 0.051782
0.613703 0.098625 0.051782
0.672832 0.098625 0.051782
0.731681 0.098625 0.051782
0.790274 0.098625 0.051782
0.848636 0.098625 0.051782
0.906784 0.098625 0.051782
0.964734 0.098625 0.051782
1.000000 0.098625 0.051782
0.053500 0.158000 0.051782
0.122610 0.158000 0.051782
0.187233 0.158000 0.051782
0.250263 0.158000 0.051782
0.312282 0.158000 0.051782
0.373558 0.158000 0.051782
0.434249 0.158000 0.051782
0.494459 0.158000 0.051782
0.554259 0.158000 0.051782
0.613703 0.158000 0.051782
0.672832 0.158000 0.051782
0.731681 0.158000 0.051782
0.790274 0.158000 0.051782
0.848636 0.158000 0.051782
0.906784 0.158000 0.051782
0.964734 0.158000 0.051782
1.000000 0.158000 0.051782
0.053500 0.217375 0.051782
0.122610 0.217375 0.051782
0.187233 0.217375 0.051782
0.250263 0.217375 0.051782
0.312282 0.217375 0.051782
0.373558 0.217375 0.051782
0.434249 0.217375 0.051782
0.494459 0.217375 0.051782
0.554259 0.217375 0.051782
0.613703 0.217375 0.051782
0.672832 0.217375 0.051782
0.731681 0.217375 0.051782
0.790274 0.217375 0.051782
0.848636 0.217375 0.051782
0.906784 0.217375 0.051782
0.964734 0.217375 0.051782
1.000000 0.217375 0.051782
0.053500 0.276750 0.051782
0.122610 0.276750 0.051782
0.187233 0.276750 0.051782
0.250263 0.276750 0.051782
0.312282 0.276750 0.051782
0.373558 0.276750 0.051782
0.434249 0.276750 0.051782
0.494459 0.276750 0.051782
0.554259 0.276750 0.051782
0.613703 0.276750 0.051782
0.672832 0.276750 0.051782
0.731681 0.276750 0.051782
0.790274 0.276750 0.051782
0.848636 0.276750 0.051782
0.906784 0.276750 0.051782
0.964734 0.276750 0.051782
1.000000 0.276750 0.051782
0.053500 0.336125 0.051782
0.122610 0.336125 0.051782
0.187233 0.336125 0.051782
0.250263 0.336125 0.051782
0.312282 0.336125 0.051782
0.373558 0.336125 0.051782
0.434249 0.336125 0.051782
0.494459 0.336125 0.051782
0.554259 0.336125 0.051782
0.613703 0.336125 0.051782
0.672832 0.336125 0.051782
0.731681 0.336125 0.051782
0.790274 0.336125 0.051782
0.848636 0.336125 0.051782
0.906784 0.336125 0.051782
0.964734 0.336125 0.051782
1.000000 0.336125 0.051782
0.053500 0.395500 0.051782
0.122610 0.395500 0.051782
0.187233 0.395500 0.051782
0.250263 0.395500 0.051782
0.312282 0.395500 0.051782
0.373558 0.395500 0.051782
0.434249 0.395500 0.051782
0.494459 0.395500 0.051782
0.554259 0.395500 0.051782
0.613703 0.395500 0.051782
0.672832 0.395500 0.051782
0.731681 0.395500 0.051782
0.790274 0.395500 0.051782
0.848636 0.395500 0.051782
0.906784 0.395500 0.051782
0.964734 0.395500 0.051782
1.000000 0.395500 0.051782
0.053500 0.454875 0.051782
0.122610 0.454875 0.051782
0.187233 0.454875 0.051782
0.250263 0.454875 0.051782
0.312282 0.454875 0.051782
0.373558 0.454875 0.051782
0.434249 0.454875 0.051782
0.494459 0.454875 0.051782
0.554259 0.454875 0.051782
0.613703 0.454875 0.051782
0.672832 0.454875 0.051782
0.731681 0.454875 0.051782
0.790274 0.454875 0.051782
0.848636 0.454875 0.051782
0.906784 0.454875 0.051782
0.964734 0.454875 0.051782
1.000000 0.454875 0.051782
0.053500 0.514250 0.051782
0.122610 0.514250 0.051782
0.187233 0.514250 0.051782
0.250263 0.514250 0.051782
0.312282 0.514250 0.051782
0.373558 0.514250 0.051782
0.434249 0.514250 0.051782
0.494459 0.514250 0.051782
0.554259 0.514250 0.051782
0.613703 0.514250 0.051782
0.672832 0.514250 0.051782
0.731681 0.514250 0.051782
0.790274 0.514250 0.051782
0.848636 0.514250 0.051782
0.906784 0.514250 0.051782
0.964734 0.514250 0.051782
1.000000 0.514250 0.051782
0.053500 0.573625 0.051782
0.122610 0.573625 0.051782
0.187233 0.573625 0.051782
0.250263 0.573625 0.051782
0.312282 0.573625 0.051782
0.373558 0.573625 0.051782
0.434249 0.573625 0.051782
0.494459 0.573625 0.051782
0.554259 0.573625 0.051782
0.613703 0.573625 0.051782
0.672832 0.573625 0.051782
0.731681 0.573625 0.051782
0.790274 0.573625 0.051782
0.848636 0.573625 0.051782
0.906784 0.573625 0.051782
0.964734 0.573625 0.051782
1.000000 0.573625 0.051782
0.053500 0.633000 0.051782
0.122610 0.633000 0.051782
0.187233 0.633000 0.051782
0.250263 0.633000 0.051782
0.312282 0.633000 0.051782
0.373558 0.633000 0.051782
0.434249 0.633000 0.051782
0.494459 0.633000 0.051782
0.554259 0.633000 0.051782
0.613703 0.633000 0.051782
0.672832 0.633000 0.051782
0.731681 0.633000 0.051782
0.790274 0.633000 0.051782
0.848636 0.633000 0.051782
0.906784 0.633000 0.051782
0.964734 0.633000 0.051782
1.000000 0.633000 0.051782
0.053500 0.692375 0.051782
0.122610 0.692375 0.051782
0.187233 0.692375 0.051782
0.250263 0.692375 0.051782
0.312282 0.692375 0.051782
0.373558 0.692375 0.051782
0.434249 0.692375 0.051782
0.494459 0.692375 0.051782
0.554259 0.692375 0.051782
0.613703 0.692375 0.051782
0.672832 0.692375 0.051782
0.731681 0.692375 0.051782
0.790274 0.692375 0.051782
0.848636 0.692375 0.051782
0.906784 0.692375 0.051782
0.964734 0.692375 0.051782
1.000000 0.692375 0.051782
0.053500 0.751750 0.051782
0.122610 0.751750 0.051782
0.187233 0.751750 0.051782
0.250263 0.751750 0.051782
0.312282 0.751750 0.051782
0.373558 0.751750 0.051782
0.434249 0.751750 0.051782
0.494459 0.751750 0.051782
0.554259 0.751750 0.051782
0.613703 0.751750 0.051782
0.672832 0.751750 0.051782
0.731681 0.751750 0.051782
0.790274 0.751750 0.051782
0.848636 0.751750 0.051782
0.906784 0.751750 0.051782
0.964734 0.751750 0.051782
1.000000 0.751750 0.051782
0.053500 0.811125 0.051782
0.122610 0.811125 0.051782
0.187233 0.811125 0.051782
0.250263 0.811125 0.051782
0.312282 0.811125 0.051782
0.373558 0.811125 0.051782
0.434249 0.811125 0.051782
0.494459 0.811125 0.051782
0.554259 0.811125 0.051782
0.613703 0.811125 0.051782
0.672832 0.811125 0.051782
0.731681 0.811125 0.051782
0.790274 0.811125 0.051782
0.848636 0.811125 0.051782
0.906784 0.811125 0.051782
0.964734 0.811125 0.051782
1.000000 0.811125 0.051782
0.053500 0.870500 0.051782
0.122610 0.870500 0.051782
0.187233 0.870500 0.051782
0.250263 0.870500 0.051782
0.312282 0.870500 0.051782
0.373558 0.870500 0.051782
0.434249 0.870500 0.051782
0.494459 0.870500 0.051782
0.554259 0.870500 0.051782
0.613703 0.870500 0.051782
0.672832 0.870500 0.051782
0.731681 0.870500 0.051782
0.790274 0.870500 0.051782
0.848636 0.870500 0.051782
0.906784 0.870500 0.051782
0.964734 0.870500 0.051782
1.000000 0.870500 0.051782
0.053500 0.929875 0.051782
0.122610 0.929875 0.051782
0.187233 0.929875 0.051782
0.250263 0.929875 0.051782
0.312282 0.929875 0.051782
0.373558 0.929875 0.051782
0.434249 0.929875 0.051782
0.494459 0.929875 0.051782
0.554259 0.929875 0.051782
0.613703 0.929875 0.051782
0.672832 0.929875 0.051782
0.731681 0.929875 0.051782
0.790274 0.929875 0.051782
0.848636 0.929875 0.051782
0.906784 0.929875 0.051782
0.964734 0.929875 0.051782
1.000000 0.929875 0.051782
0.053500 0.989250 0.051782
0.122610 0.989250 0.051782
0.187233 0.989250 0.051782
0.250263 0.989250 0.051782
0.312282 0.989250 0.051782
0.373558 0.989250 0.051782
0.434249 0.989250 0.051782
0.494459 0.989250 0.051782
0.554259 0.989250 0.051782
0.613703 0.989250 0.051782
0.672832 0.989250 0.051782
0.731681 0.989250 0.051782
0.790274 0.989250 0.051782
0.848636 0.989250 0.051782
0.906784 0.989250 0.051782
0.964734 0.989250 0.051782
1.000000 0.989250 0.051782
0.053500 0.039250 0.102468
0.122610 0.039250 0.102468
0.187233 0.039250 0.102468
0.250263 0.039250 0.102468
0.312282 0.039250 0.102468
0.373558 0.039250 0.102468
0.434249 0.039250 0.102468
0.494459 0.039250 0.102468
0.554259 0.039250 0.102468
0.613703 0.039250 0.102468
0.672832 0.039250 0.102468
0.731681 0.039250 0.102468
0.790274 0.039250 0.102468
0.848636 0.039250 0.102468
0.906784 0.039250 0.102468
0.964734 0.039250 0.102468
1.000000 0.039250 0.102468
0.053500 0.098625 0.102468
0.122610 0.098625 0.102468
0.187233 0.098625 0.102468
0.250263 0.098625 0.102468
0.312282 0.098625 0.102468
0.373558 0.098625 0.102468
0.434249 0.098625 0.102468
0.494459 0.098625 0.102468
0.554259 0.098625 0.102468
0.613703 0.098625 0.102468
0.672832 0.098625 0.102468
0.731681 0.098625 0.102468
0.790274 0.098625 0.102468
0.848636 0.098625 0.102468
0.906784 0.098625 0.102468
0.964734 0.098625 0.102468
1.000000 0.098625 0.102468
0.053500 0.158000 0.102468
0.122610 0.158000 0.102468
0.187233 0.158000 0.102468
0.250263 0.158000 0.102468
0.312282 0.158000 0.102468
0.373558 0.158000 0.102468
0.434249 0.158000 0.102468
0.494459 0.158000 0.102468
0.554259 0.158000 0.102468
0.613703 0.158000 0.102468
0.672832 0.158000 0.102468
0.731681 0.158000 0.102468
0.790274 0.158000 0.102468
0.848636 0.158000 0.102468
0.906784 0.158000 0.102468
0.964734 0.158000 0.102468
1.000000 0.158000 0.102468
0.053500 0.217375 0.102468
0.122610 0.217375 0.102468
0.187233 0.217375 0.102468
0.250263 0.217375 0.102468
0.312282 0.217375 0.102468
0.373558 0.217375 0.102468
0.434249 0.217375 0.102468
0.494459 0.217375 0.102468
0.554259 0.217375 0.102468
0.613703 0.217375 0.102468
0.672832 0.217375 0.102468
0.731681 0.217375 0.102468
0.790274 0.217375 0.102468
0.848636 0.217375 0.102468
0.906784 0.217375 0.102468
0.964734 0.217375 0.102468
1.000000 0.217375 0.102468
0.053500 0.276750 0.102468
0.122610 0.276750 0.102468
0.187233 0.276750 0.102468
0.250263 0.276750 0.102468
0.312282 0.276750 0.102468
0.373558 0.276750 0.102468
0.434249 0.276750 0.102468
0.494459 0.276750 0.102468
0.554259 0.276750 0.102468
0.613703 0.276750 0.102468
0.672832 0.276750 0.102468
0.731681 0.276750 0.102468
0.790274 0.276750 0.102468
0.848636 0.276750 0.102468
0.906784 0.276750 0.102468
0.964734 0.276750 0.102468
1.000000 0.276750 0.102468
0.053500 0.336125 0.102468
0.122610 0.336125 0.102468
0.187233 0.336125 0.102468
0.250263 0.336125 0.102468
0.312282 0.336125 0.102468
0.373558 0.336125 0.102468
0.434249 0.336125 0.102468
0.494459 0.336125 0.102468
0.554259 0.336125 0.102468
0.613703 0.336125 0.102468
0.672832 0.336125 0.102468
0.731681 0.336125 0.102468
0.790274 0.336125 0.102468
0.848636 0.336125 0.102468
0.906784 0.336125 0.102468
0.964734 0.336125 0.102468
1.000000 0.336125 0.102468
0.053500 0.395500 0.102468
0.122610 0.395500 0.102468
0.187233 0.395500 0.102468
0.250263 0.395500 0.102468
0.312282 0.395500 0.102468
0.373558 0.395500 0.102468
0.434249 0.395500 0.102468
0.494459 0.395500 0.102468
0.554259 0.395500 0.102468
0.613703 0.395500 0.102468
0.672832 0.395500 0.102468
0.731681 0.395500 0.102468
0.790274 0.395500 0.102468
0.848636 0.395500 0.102468
0.906784 0.395500 0.102468
0.964734 0.395500 0.102468
1.000000 0.395500 0.102468
0.053500 0.454875 0.102468
0.122610 0.454875 0.102468
0.187233 0.454875 0.102468
0.250263 0.454875 0.102468
0.312282 0.454875 0.102468
0.373558 0.454875 0.102468
0.434249 0.454875 0.102468
0.494459 0.454875 0.102468
0.554259 0.454875 0.102468
0.613703 0.454875 0.102468
0.672832 0.454875 0.102468
0.731681 0.454875 0.102468
0.790274 0.454875 0.102468
0.848636 0.454875 0.102468
0.906784 0.454875 0.102468
0.964734 0.454875 0.102468
1.000000 0.454875 0.102468
0.053500 0.514250 0.102468
0.122610 0.514250 0.102468
0.187233 0.514250 0.102468
0.250263 0.514250 0.102468
0.312282 0.514250 0.102468
0.373558 0.514250 0.102468
0.434249 0.514250 0.102468
0.494459 0.514250 0.102468
0.554259 0.514250 0.102468
0.613703 0.514250 0.102468
0.672832 0.514250 0.102468
0.731681 0.514250 0.102468
0.790274 0.514250 0.102468
0.848636 0.514250 0.102468
0.906784 0.514250 0.102468
0.964734 0.514250 0.102468
1.000000 0.514250 0.102468
0.053500 0.573625 0.102468
0.122610 0.573625 0.102468
0.187233 0.573625 0.102468
0.250263 0.573625 0.102468
0.312282 0.573625 0.102468
0.373558 0.573625 0.102468
0.434249 0.573625 0.102468
0.494459 0.573625 0.102468
0.554259 0.573625 0.102468
0.613703 0.573625 0.102468
0.672832 0.573625 0.102468
0.731681 0.573625 0.102468
0.790274 0.573625 0.102468
0.848636 0.573625 0.102468
0.906784 0.573625 0.102468
0.964734 0.573625 0.102468
1.000000 0.573625 0.102468
0.053500 0.633000 0.102468
0.122610 0.633000 0.102468
0.187233 0.633000 0.102468
0.250263 0.633000 0.102468
0.312282 0.633000 0.102468
0.373558 0.633000 0.102468
0.434249 0.633000 0.102468
0.494459 0.633000 0.102468
0.554259 0.633000 0.102468
0.613703 0.633000 0.102468
0.672832 0.633000 0.102468
0.731681 0.633000 0.102468
0.790274 0.633000 0.102468
0.848636 0.633000 0.102468
0.906784 0.633000 0.102468
0.964734 0.633000 0.102468
1.000000 0.633000 0.102468
0.053500 0.692375 0.102468
0.122610 0.692375 0.102468
0.187233 0.692375 0.102468
0.250263 0.692375 0.102468
0.312282 0.692375 0.102468
0.373558 0.692375 0.102468
0.434249 0.692375 0.102468
0.494459 0.692375 0.102468
0.554259 0.692375 0.102468
0.613703 0.692375 0.102468
0.672832 0.692375 0.102468
0.731681 0.692375 0.102468
0.790274 0.692375 0.102468
0.848636 0.692375 0.102468
0.906784 0.692375 0.102468
0.964734 0.692375 0.102468
1.000000 0.692375 0.102468
0.053500 0.751750 0.102468
0.122610 0.751750 0.102468
0.187233 0.751750 0.102468
0.250263 0.751750 0.102468
0.312282 0.751750 0.102468
0.373558 0.751750 0.102468
0.434249 0.751750 0.102468
0.494459 0.751750 0.102468
0.554259 0.751750 0.102468
0.613703 0.751750 0.102468
0.672832 0.751750 0.102468
0.731681 0.751750 0.102468
0.790274 0.751750 0.102468
0.848636 0.751750 0.102468
0.906784 0.751750 0.102468
0.964734 0.751750 0.102468
1.000000 0.751750 0.102468
0.053500 0.811125 0.102468
0.122610 0.811125 0.102468
0.187233 0.811125 0.102468
0.250263 0.811125 0.102468
0.312282 0.811125 0.102468
0.373558 0.811125 0.102468
0.434249 0.811125 0.102468
0.494459 0.811125 0.102468
0.554259 0.811125 0.102468
0.613703 0.811125 0.102468
0.672832 0.811125 0.102468
0.731681 0.811125 0.102468
0.790274 0.811125 0.102468
0.848636 0.811125 0.102468
0.906784 0.811125 0.102468
0.964734 0.811125 0.102468
1.000000 0.811125 0.102468
0.053500 0.870500 0.102468
0.122610 0.870500 0.102468
0.187233 0.870500 0.102468
0.250263 0.870500 0.102468
0.312282 0.870500 0.102468
0.373558 0.870500 0.102468
0.434249 0.870500 0.102468
0.494459 0.870500 0.102468
0.554259 0.870500 0.102468
0.613703 0.870500 0.102468
0.672832 0.870500 0.102468
0.731681 0.870500 0.102468
0.790274 0.870500 0.102468
0.848636 0.870500 0.102468
0.906784 0.870500 0.102468
0.964734 0.870500 0.102468
1.000000 0.870500 0.102468
0.053500 0.929875 0.102468
0.122610 0.929875 0.102468
0.187233 0.929875 0.102468
0.250263 0.929875 0.102468
0.312282 0.929875 0.102468
0.373558 0.929875 0.102468
0.434249 0.929875 0.102468
0.494459 0.929875 0.102468
0.554259 0.929875 0.102468
0.613703 0.929875 0.102468
0.672832 0.929875 0.102468
0.731681 0.929875 0.102468
0.790274 0.929875 0.102468
0.848636 0.929875 0.102468
0.906784 0.929875 0.102468
0.964734 0.929875 0.102468
1.000000 0.929875 0.102468
0.053500 0.989250 0.102468
0.122610 0.989250 0.102468
0.187233 0.989250 0.102468
0.250263 0.989250 0.102468
0.312282 0.989250 0.102468
0.373558 0.989250 0.102468
0.434249 0.989250 0.102468
0.494459 0.989250 0.102468
0.554259 0.989250 0.102468
0.613703 0.989250 0.102468
0.672832 0.989250 0.102468
0.731681 0.989250 0.102468
0.790274 0.989250 0.102468
0.848636 0.989250 0.102468
0.906784 0.989250 0.102468
0.964734 0.989250 0.102468
1.000000 0.989250 0.102468
0.053500 0.039250 0.155186
0.122610 0.039250 0.155186
0.187233 0.039250 0.155186
0.250263 0.039250 0.155186
0.312282 0.039250 0.155186
0.373558 0.039250 0.155186
0.434249 0.039250 0.155186
0.494459 0.039250 0.155186
0.554259 0.039250 0.155186
0.613703 0.039250 0.155186
0.672832 0.039250 0.155186
0.731681 0.039250 0.155186
0.790274 0.039250 0.155186
0.848636 0.039250 0.155186
0.906784 0.039250 0.155186
0.964734 0.039250 0.155186
1.000000 0.039250 0.155186
0.053500 0.098625 0.155186
0.122610 0.098625 0.155186
0.187233 0.098625 0.155186
0.250263 0.098625 0.155186
