Data/Shaders/SimpleGraphicsSuite/LUTs/Golden Hour.cube
LUT_3D_SIZE 5
0.053500 0.039250 0.006000
0.312282 0.039250 0.006000
0.554259 0.039250 0.006000
0.790274 0.039250 0.006000
1.000000 0.039250 0.006000
0.053500 0.276750 0.006000
0.312282 0.276750 0.006000
0.554259 0.276750 0.006000
0.790274 0.276750 0.006000
1.000000 0.276750 0.006000
0.053500 0.514250 0.006000
0.312282 0.514250 0.006000
0.554259 0.514250 0.006000
0.790274 0.514250 0.006000
1.000000 0.514250 0.006000
0.053500 0.751750 0.006000
0.312282 0.751750 0.006000
0.554259 0.751750 0.006000
0.790274 0.751750 0.006000
1.000000 0.751750 0.006000
0.053500 0.989250 0.006000
0.312282 0.989250 0.006000
0.554259 0.989250 0.006000
0.790274 0.989250 0.006000
1.000000 0.989250 0.006000
0.053500 0.039250 0.209269
0.312282 0.039250 0.209269
0.554259 0.039250 0.209269
0.790274 0.039250 0.209269
1.000000 0.039250 0.209269
0.053500 0.276750 0.209269
0.312282 0.276750 0.209269
0.554259 0.276750 0.209269
0.790274 0.276750 0.209269
1.000000 0.276750 0.209269
0.053500 0.514250 0.209269
0.312282 0.514250 0.209269
0.554259 0.514250 0.209269
0.790274 0.514250 0.209269
1.000000 0.514250 0.209269
0.053500 0.751750 0.209269
0.312282 0.751750 0.209269
0.554259 0.751750 0.209269
0.790274 0.751750 0.209269
1.000000 0.751750 0.209269
0.053500 0.989250 0.209269
0.312282 0.989250 0.209269
0.554259 0.989250 0.209269
0.790274 0.989250 0.209269
1.000000 0.989250 0.209269
0.053500 0.039250 0.434311
0.312282 0.039250 0.434311
0.554259 0.039250 0.434311
0.790274 0.039250 0.434311
1.000000 0.039250 0.434311
0.053500 0.276750 0.434311
0.312282 0.276750 0.434311
0.554259 0.276750 0.434311
0.790274 0.276750 0.434311
1.000000 0.276750 0.434311
0.053500 0.514250 0.434311
0.312282 0.514250 0.434311
0.554259 0.514250 0.434311
0.790274 0.514250 0.434311
1.000000 0.514250 0.434311
0.053500 0.751750 0.434311
0.312282 0.751750 0.434311
0.554259 0.751750 0.434311
0.790274 0.751750 0.434311
1.000000 0.751750 0.434311
0.053500 0.989250 0.434311
0.312282 0.989250 0.434311
0.554259 0.989250 0.434311
0.790274 0.989250 0.434311
1.000000 0.989250 0.434311
0.053500 0.039250 0.668376
0.312282 0.039250 0.668376
0.554259 0.039250 0.668376
0.790274 0.039250 0.668376
1.000000 0.039250 0.668376
0.053500 0.276750 0.668376
0.312282 0.276750 0.668376
0.554259 0.276750 0.668376
0.790274 0.276750 0.668376
1.000000 0.276750 0.668376
0.053500 0.514250 0.668376
0.312282 0.514250 0.668376
0.554259 0.514250 0.668376
0.790274 0.514250 0.668376
1.000000 0.514250 0.668376
0.053500 0.751750 0.668376
0.312282 0.751750 0.668376
0.554259 0.751750 0.668376
0.790274 0.751750 0.668376
1.000000 0.751750 0.668376
0.053500 0.989250 0.668376
0.312282 0.989250 0.668376
0.554259 0.989250 0.668376
0.790274 0.989250 0.668376
1.000000 0.989250 0.668376
0.053500 0.039250 0.908500
0.312282 0.039250 0.908500
0.554259 0.039250 0.908500
0.790274 0.039250 0.908500
1.000000 0.039250 0.908500
0.053500 0.276750 0.908500
0.312282 0.276750 0.908500
0.554259 0.276750 0.908500
0.790274 0.276750 0.908500
1.000000 0.276750 0.908500
0.053500 0.514250 0.908500
0.312282 0.514250 0.908500
0.554259 0.514250 0.908500
0.790274 0.514250 0.908500
1.000000 0.514250 0.908500
0.053500 0.751750 0.908500
0.312282 0.751750 0.908500
0.554259 0.751750 0.908500
0.790274 0.751750 0.908500
1.000000 0.751750 0.908500
0.053500 0.989250 0.908500
0.312282 0.989250 0.908500
0.554259 0.989250 0.908500
0.790274 0.989250 0.908500
1.000000 0.989250 0.908500
