Data/Shaders/SimpleGraphicsSuite/LUTs/Golden Hour.cube
LUT_3D_SIZE 9
0.053500 0.039250 0.006000
0.187233 0.039250 0.006000
0.312282 0.039250 0.006000
0.434249 0.039250 0.006000
0.554259 0.039250 0.006000
0.672832 0.039250 0.006000
0.790274 0.039250 0.006000
0.906784 0.039250 0.006000
1.000000 0.039250 0.006000
0.053500 0.158000 0.006000
0.187233 0.158000 0.006000
0.312282 0.158000 0.006000
0.434249 0.158000 0.006000
0.554259 0.158000 0.006000
0.672832 0.158000 0.006000
0.790274 0.158000 0.006000
0.906784 0.158000 0.006000
1.000000 0.158000 0.006000
0.053500 0.276750 0.006000
0.187233 0.276750 0.006000
0.312282 0.276750 0.006000
0.434249 0.276750 0.006000
0.554259 0.276750 0.006000
0.672832 0.276750 0.006000
0.790274 0.276750 0.006000
0.906784 0.276750 0.006000
1.000000 0.276750 0.006000
0.053500 0.395500 0.006000
0.187233 0.395500 0.006000
0.312282 0.395500 0.006000
0.434249 0.395500 0.006000
0.554259 0.395500 0.006000
0.672832 0.395500 0.006000
0.790274 0.395500 0.006000
0.906784 0.395500 0.006000
1.000000 0.395500 0.006000
0.053500 0.514250 0.006000
0.187233 0.514250 0.006000
0.312282 0.514250 0.006000
0.434249 0.514250 0.006000
0.554259 0.514250 0.006000
0.672832 0.514250 0.006000
0.790274 0.514250 0.006000
0.906784 0.514250 0.006000
1.000000 0.514250 0.006000
0.053500 0.633000 0.006000
0.187233 0.633000 0.006000
0.312282 0.633000 0.006000
0.434249 0.633000 0.006000
0.554259 0.633000 0.006000
0.672832 0.633000 0.006000
0.790274 0.633000 0.006000
0.906784 0.633000 0.006000
1.000000 0.633000 0.006000
0.053500 0.751750 0.006000
0.187233 0.751750 0.006000
0.312282 0.751750 0.006000
0.434249 0.751750 0.006000
0.554259 0.751750 0.006000
0.672832 0.751750 0.006000
0.790274 0.751750 0.006000
0.906784 0.751750 0.006000
1.000000 0.751750 0.006000
0.053500 0.870500 0.006000
0.187233 0.870500 0.006000
0.312282 0.870500 0.006000
0.434249 0.870500 0.006000
0.554259 0.870500 0.006000
0.672832 0.870500 0.006000
0.790274 0.870500 0.006000
0.906784 0.870500 0.006000
1.000000 0.870500 0.006000
0.053500 0.989250 0.006000
0.187233 0.989250 0.006000
0.312282 0.989250 0.006000
0.434249 0.989250 0.006000
0.554259 0.989250 0.006000
0.672832 0.989250 0.006000
0.790274 0.989250 0.006000
0.906784 0.989250 0.006000
1.000000 0.989250 0.006000
0.053500 0.039250 0.102468
0.187233 0.039250 0.102468
0.312282 0.039250 0.102468
0.434249 0.039250 0.102468
0.554259 0.039250 0.102468
0.672832 0.039250 0.102468
0.790274 0.039250 0.102468
0.906784 0.039250 0.102468
1.000000 0.039250 0.102468
0.053500 0.158000 0.102468
0.187233 0.158000 0.102468
0.312282 0.158000 0.102468
0.434249 0.158000 0.102468
0.554259 0.158000 0.102468
0.672832 0.158000 0.102468
0.790274 0.158000 0.102468
0.906784 0.158000 0.102468
1.000000 0.158000 0.102468
0.053500 0.276750 0.102468
0.187233 0.276750 0.102468
0.312282 0.276750 0.102468
0.434249 0.276750 0.102468
0.554259 0.276750 0.102468
0.672832 0.276750 0.102468
0.790274 0.276750 0.102468
0.906784 0.276750 0.102468
1.000000 0.276750 0.102468
0.053500 0.395500 0.102468
0.187233 0.395500 0.102468
0.312282 0.395500 0.102468
0.434249 0.395500 0.102468
0.554259 0.395500 0.102468
0.672832 0.395500 0.102468
0.790274 0.395500 0.102468
0.906784 0.395500 0.102468
1.000000 0.395500 0.102468
0.053500 0.514250 0.102468
0.187233 0.514250 0.102468
0.312282 0.514250 0.102468
0.434249 0.514250 0.102468
0.554259 0.514250 0.102468
0.672832 0.514250 0.102468
0.790274 0.514250 0.102468
0.906784 0.514250 0.102468
1.000000 0.514250 0.102468
0.053500 0.633000 0.102468
0.187233 0.633000 0.102468
0.312282 0.633000 0.102468
0.434249 0.633000 0.102468
0.554259 0.633000 0.102468
0.672832 0.633000 0.102468
0.790274 0.633000 0.102468
0.906784 0.633000 0.102468
1.000000 0.633000 0.102468
0.053500 0.751750 0.102468
0.187233 0.751750 0.102468
0.312282 0.751750 0.102468
0.434249 0.751750 0.102468
0.554259 0.751750 0.102468
0.672832 0.751750 0.102468
0.790274 0.751750 0.102468
0.906784 0.751750 0.102468
1.000000 0.751750 0.102468
0.053500 0.870500 0.102468
0.187233 0.870500 0.102468
0.312282 0.870500 0.102468
0.434249 0.870500 0.102468
0.554259 0.870500 0.102468
0.672832 0.870500 0.102468
0.790274 0.870500 0.102468
0.906784 0.870500 0.102468
1.000000 0.870500 0.102468
0.053500 0.989250 0.102468
0.187233 0.989250 0.102468
0.312282 0.989250 0.102468
0.434249 0.989250 0.102468
0.554259 0.989250 0.102468
0.672832 0.989250 0.102468
0.790274 0.989250 0.102468
0.906784 0.989250 0.102468
1.000000 0.989250 0.102468
0.053500 0.039250 0.209269
0.187233 0.039250 0.209269
0.312282 0.039250 0.209269
0.434249 0.039250 0.209269
0.554259 0.039250 0.209269
0.672832 0.039250 0.209269
0.790274 0.039250 0.209269
0.906784 0.039250 0.209269
1.000000 0.039250 0.209269
0.053500 0.158000 0.209269
0.187233 0.158000 0.209269
0.312282 0.158000 0.209269
0.434249 0.158000 0.209269
0.554259 0.158000 0.209269
0.672832 0.158000 0.209269
0.790274 0.158000 0.209269
0.906784 0.158000 0.209269
1.000000 0.158000 0.209269
0.053500 0.276750 0.209269
0.187233 0.276750 0.209269
0.312282 0.276750 0.209269
0.434249 0.276750 0.209269
0.554259 0.276750 0.209269
0.672832 0.276750 0.209269
0.790274 0.276750 0.209269
0.906784 0.276750 0.209269
1.000000 0.276750 0.209269
0.053500 0.395500 0.209269
0.187233 0.395500 0.209269
0.312282 0.395500 0.209269
0.434249 0.395500 0.209269
0.554259 0.395500 0.209269
0.672832 0.395500 0.209269
0.790274 0.395500 0.209269
0.906784 0.395500 0.209269
1.000000 0.395500 0.209269
0.053500 0.514250 0.209269
0.187233 0.514250 0.209269
0.312282 0.514250 0.209269
0.434249 0.514250 0.209269
0.554259 0.514250 0.209269
0.672832 0.514250 0.209269
0.790274 0.514250 0.209269
0.906784 0.514250 0.209269
1.000000 0.514250 0.209269
0.053500 0.633000 0.209269
0.187233 0.633000 0.209269
0.312282 0.633000 0.209269
0.434249 0.633000 0.209269
0.554259 0.633000 0.209269
0.672832 0.633000 0.209269
0.790274 0.633000 0.209269
0.906784 0.633000 0.209269
1.000000 0.633000 0.209269
0.053500 0.751750 0.209269
0.187233 0.751750 0.209269
0.312282 0.751750 0.209269
0.434249 0.751750 0.209269
0.554259 0.751750 0.209269
0.672832 0.751750 0.209269
0.790274 0.751750 0.209269
0.906784 0.751750 0.209269
1.000000 0.751750 0.209269
0.053500 0.870500 0.209269
0.187233 0.870500 0.209269
0.312282 0.870500 0.209269
0.434249 0.870500 0.209269
0.554259 0.870500 0.209269
0.672832 0.870500 0.209269
0.790274 0.870500 0.209269
0.906784 0.870500 0.209269
1.000000 0.870500 0.209269
0.053500 0.989250 0.209269
0.187233 0.989250 0.209269
0.312282 0.989250 0.209269
0.434249 0.989250 0.209269
0.554259 0.989250 0.209269
0.672832 0.989250 0.209269
0.790274 0.989250 0.209269
0.906784 0.989250 0.209269
1.000000 0.989250 0.209269
0.053500 0.039250 0.320352
0.187233 0.039250 0.320352
0.312282 0.039250 0.320352
0.434249 0.039250 0.320352
0.554259 0.039250 0.320352
0.672832 0.039250 0.320352
0.790274 0.039250 0.320352
0.906784 0.039250 0.320352
1.000000 0.039250 0.320352
0.053500 0.158000 0.320352
0.187233 0.158000 0.320352
0.312282 0.158000 0.320352
0.434249 0.158000 0.320352
0.554259 0.158000 0.320352
0.672832 0.158000 0.320352
0.790274 0.158000 0.320352
0.906784 0.158000 0.320352
1.000000 0.158000 0.320352
0.053500 0.276750 0.320352
0.187233 0.276750 0.320352
0.312282 0.276750 0.320352
0.434249 0.276750 0.320352
0.554259 0.276750 0.320352
0.672832 0.276750 0.320352
0.790274 0.276750 0.320352
0.906784 0.276750 0.320352
1.000000 0.276750 0.320352
0.053500 0.395500 0.320352
0.187233 0.395500 0.320352
0.312282 0.395500 0.320352
0.434249 0.395500 0.320352
0.554259 0.395500 0.320352
0.672832 0.395500 0.320352
0.790274 0.395500 0.320352
0.906784 0.395500 0.320352
1.000000 0.395500 0.320352
0.053500 0.514250 0.320352
0.187233 0.514250 0.320352
0.312282 0.514250 0.320352
0.434249 0.514250 0.320352
0.554259 0.514250 0.320352
0.672832 0.514250 0.320352
0.790274 0.514250 0.320352
0.906784 0.514250 0.320352
1.000000 0.514250 0.320352
0.053500 0.633000 0.320352
0.187233 0.633000 0.320352
0.312282 0.633000 0.320352
0.434249 0.633000 0.320352
0.554259 0.633000 0.320352
0.672832 0.633000 0.320352
0.790274 0.633000 0.320352
0.906784 0.633000 0.320352
1.000000 0.633000 0.320352
0.053500 0.751750 0.320352
0.187233 0.751750 0.320352
0.312282 0.751750 0.320352
0.434249 0.751750 0.320352
0.554259 0.751750 0.320352
0.672832 0.751750 0.320352
0.790274 0.751750 0.320352
0.906784 0.751750 0.320352
1.000000 0.751750 0.320352
0.053500 0.870500 0.320352
0.187233 0.870500 0.320352
0.312282 0.870500 0.320352
0.434249 0.870500 0.320352
0.554259 0.870500 0.320352
0.672832 0.870500 0.320352
0.790274 0.870500 0.320352
0.906784 0.870500 0.320352
1.000000 0.870500 0.320352
0.053500 0.989250 0.320352
0.187233 0.989250 0.320352
0.312282 0.989250 0.320352
0.434249 0.989250 0.320352
0.554259 0.989250 0.320352
0.672832 0.989250 0.320352
0.790274 0.989250 0.320352
0.906784 0.989250 0.320352
1.000000 0.989250 0.320352
0.053500 0.039250 0.434311
0.187233 0.039250 0.434311
0.312282 0.039250 0.434311
0.434249 0.039250 0.434311
0.554259 0.039250 0.434311
0.672832 0.039250 0.434311
0.790274 0.039250 0.434311
0.906784 0.039250 0.434311
1.000000 0.039250 0.434311
0.053500 0.158000 0.434311
0.187233 0.158000 0.434311
0.312282 0.158000 0.434311
0.434249 0.158000 0.434311
0.554259 0.158000 0.434311
0.672832 0.158000 0.434311
0.790274 0.158000 0.434311
0.906784 0.158000 0.434311
1.000000 0.158000 0.434311
0.053500 0.276750 0.434311
0.187233 0.276750 0.434311
0.312282 0.276750 0.434311
0.434249 0.276750 0.434311
0.554259 0.276750 0.434311
0.672832 0.276750 0.434311
0.790274 0.276750 0.434311
0.906784 0.276750 0.434311
1.000000 0.276750 0.434311
0.053500 0.395500 0.434311
0.187233 0.395500 0.434311
0.312282 0.395500 0.434311
0.434249 0.395500 0.434311
0.554259 0.395500 0.434311
0.672832 0.395500 0.434311
0.790274 0.395500 0.434311
0.906784 0.395500 0.434311
1.000000 0.395500 0.434311
0.053500 0.514250 0.434311
0.187233 0.514250 0.434311
0.312282 0.514250 0.434311
0.434249 0.514250 0.434311
0.554259 0.514250 0.434311
0.672832 0.514250 0.434311
0.790274 0.514250 0.434311
0.906784 0.514250 0.434311
1.000000 0.514250 0.434311
0.053500 0.633000 0.434311
0.187233 0.633000 0.434311
0.312282 0.633000 0.434311
0.434249 0.633000 0.434311
0.554259 0.633000 0.434311
0.672832 0.633000 0.434311
0.790274 0.633000 0.434311
0.906784 0.633000 0.434311
1.000000 0.633000 0.434311
0.053500 0.751750 0.434311
0.187233 0.751750 0.434311
0.312282 0.751750 0.434311
0.434249 0.751750 0.434311
0.554259 0.751750 0.434311
0.672832 0.751750 0.434311
0.790274 0.751750 0.434311
0.906784 0.751750 0.434311
1.000000 0.751750 0.434311
0.053500 0.870500 0.434311
0.187233 0.870500 0.434311
0.312282 0.870500 0.434311
0.434249 0.870500 0.434311
0.554259 0.870500 0.434311
0.672832 0.870500 0.434311
0.790274 0.870500 0.434311
0.906784 0.870500 0.434311
1.000000 0.870500 0.434311
0.053500 0.989250 0.434311
0.187233 0.989250 0.434311
0.312282 0.989250 0.434311
0.434249 0.989250 0.434311
0.554259 0.989250 0.434311
0.672832 0.989250 0.434311
0.790274 0.989250 0.434311
0.906784 0.989250 0.434311
1.000000 0.989250 0.434311
0.053500 0.039250 0.550457
0.187233 0.039250 0.550457
0.312282 0.039250 0.550457
0.434249 0.039250 0.550457
0.554259 0.039250 0.550457
0.672832 0.039250 0.550457
0.790274 0.039250 0.550457
0.906784 0.039250 0.550457
1.000000 0.039250 0.550457
0.053500 0.158000 0.550457
0.187233 0.158000 0.550457
0.312282 0.158000 0.550457
0.434249 0.158000 0.550457
0.554259 0.158000 0.550457
0.672832 0.158000 0.550457
0.790274 0.158000 0.550457
0.906784 0.158000 0.550457
1.000000 0.158000 0.550457
0.053500 0.276750 0.550457
0.187233 0.276750 0.550457
0.312282 0.276750 0.550457
0.434249 0.276750 0.550457
0.554259 0.276750 0.550457
0.672832 0.276750 0.550457
0.790274 0.276750 0.550457
0.906784 0.276750 0.550457
1.000000 0.276750 0.550457
0.053500 0.395500 0.550457
0.187233 0.395500 0.550457
0.312282 0.395500 0.550457
0.434249 0.395500 0.550457
0.554259 0.395500 0.550457
0.672832 0.395500 0.550457
0.790274 0.395500 0.550457
0.906784 0.395500 0.550457
1.000000 0.395500 0.550457
0.053500 0.514250 0.550457
0.187233 0.514250 0.550457
0.312282 0.514250 0.550457
0.434249 0.514250 0.550457
0.554259 0.514250 0.550457
0.672832 0.514250 0.550457
0.790274 0.514250 0.550457
0.906784 0.514250 0.550457
1.000000 0.514250 0.550457
0.053500 0.633000 0.550457
0.187233 0.633000 0.550457
0.312282 0.633000 0.550457
0.434249 0.633000 0.550457
0.554259 0.633000 0.550457
0.672832 0.633000 0.550457
0.790274 0.633000 0.550457
0.906784 0.633000 0.550457
1.000000 0.633000 0.550457
0.053500 0.751750 0.550457
0.187233 0.751750 0.550457
0.312282 0.751750 0.550457
0.434249 0.751750 0.550457
0.554259 0.751750 0.550457
0.672832 0.751750 0.550457
0.790274 0.751750 0.550457
0.906784 0.751750 0.550457
1.000000 0.751750 0.550457
0.053500 0.870500 0.550457
0.187233 0.870500 0.550457
0.312282 0.870500 0.550457
0.434249 0.870500 0.550457
0.554259 0.870500 0.550457
0.672832 0.870500 0.550457
0.790274 0.870500 0.550457
0.906784 0.870500 0.550457
1.000000 0.870500 0.550457
0.053500 0.989250 0.550457
0.187233 0.989250 0.550457
0.312282 0.989250 0.550457
0.434249 0.989250 0.550457
0.554259 0.989250 0.550457
0.672832 0.989250 0.550457
0.790274 0.989250 0.550457
0.906784 0.989250 0.550457
1.000000 0.989250 0.550457
0.053500 0.039250 0.668376
0.187233 0.039250 0.668376
0.312282 0.039250 0.668376
0.434249 0.039250 0.668376
0.554259 0.039250 0.668376
0.672832 0.039250 0.668376
0.790274 0.039250 0.668376
0.906784 0.039250 0.668376
1.000000 0.039250 0.668376
0.053500 0.158000 0.668376
0.187233 0.158000 0.668376
0.312282 0.158000 0.668376
0.434249 0.158000 0.668376
0.554259 0.158000 0.668376
0.672832 0.158000 0.668376
0.790274 0.158000 0.668376
0.906784 0.158000 0.668376
1.000000 0.158000 0.668376
0.053500 0.276750 0.668376
0.187233 0.276750 0.668376
0.312282 0.276750 0.668376
0.434249 0.276750 0.668376
0.554259 0.276750 0.668376
0.672832 0.276750 0.668376
0.790274 0.276750 0.668376
0.906784 0.276750 0.668376
1.000000 0.276750 0.668376
0.053500 0.395500 0.668376
0.187233 0.395500 0.668376
0.312282 0.395500 0.668376
0.434249 0.395500 0.668376
0.554259 0.395500 0.668376
0.672832 0.395500 0.668376
0.790274 0.395500 0.668376
0.906784 0.395500 0.668376
1.000000 0.395500 0.668376
0.053500 0.514250 0.668376
0.187233 0.514250 0.668376
0.312282 0.514250 0.668376
0.434249 0.514250 0.668376
0.554259 0.514250 0.668376
0.672832 0.514250 0.668376
0.790274 0.514250 0.668376
0.906784 0.514250 0.668376
1.000000 0.514250 0.668376
0.053500 0.633000 0.668376
0.187233 0.633000 0.668376
0.312282 0.633000 0.668376
0.434249 0.633000 0.668376
0.554259 0.633000 0.668376
0.672832 0.633000 0.668376
0.790274 0.633000 0.668376
0.906784 0.633000 0.668376
1.000000 0.633000 0.668376
0.053500 0.751750 0.668376
0.187233 0.751750 0.668376
0.312282 0.751750 0.668376
0.434249 0.751750 0.668376
0.554259 0.751750 0.668376
0.672832 0.751750 0.668376
0.790274 0.751750 0.668376
0.906784 0.751750 0.668376
1.000000 0.751750 0.668376
0.053500 0.870500 0.668376
0.187233 0.870500 0.668376
0.312282 0.870500 0.668376
0.434249 0.870500 0.668376
0.554259 0.870500 0.668376
0.672832 0.870500 0.668376
0.790274 0.870500 0.668376
0.906784 0.870500 0.668376
1.000000 0.870500 0.668376
0.053500 0.989250 0.668376
0.187233 0.989250 0.668376
0.312282 0.989250 0.668376
0.434249 0.989250 0.668376
0.554259 0.989250 0.668376
0.672832 0.989250 0.668376
0.790274 0.989250 0.668376
0.906784 0.989250 0.668376
1.000000 0.989250 0.668376
0.053500 0.039250 0.787790
0.187233 0.039250 0.787790
0.312282 0.039250 0.787790
0.434249 0.039250 0.787790
0.554259 0.039250 0.787790
0.672832 0.039250 0.787790
0.790274 0.039250 0.787790
0.906784 0.039250 0.787790
1.000000 0.039250 0.787790
0.053500 0.158000 0.787790
0.187233 0.158000 0.787790
0.312282 0.158000 0.787790
0.434249 0.158000 0.787790
0.554259 0.158000 0.787790
0.672832 0.158000 0.787790
0.790274 0.158000 0.787790
0.906784 0.158000 0.787790
1.000000 0.158000 0.787790
0.053500 0.276750 0.787790
0.187233 0.276750 0.787790
0.312282 0.276750 0.787790
0.434249 0.276750 0.787790
0.554259 0.276750 0.787790
0.672832 0.276750 0.787790
0.790274 0.276750 0.787790
0.906784 0.276750 0.787790
1.000000 0.276750 0.787790
0.053500 0.395500 0.787790
0.187233 0.395500 0.787790
0.312282 0.395500 0.787790
0.434249 0.395500 0.787790
0.554259 0.395500 0.787790
0.672832 0.395500 0.787790
0.790274 0.395500 0.787790
0.906784 0.395500 0.787790
1.000000 0.395500 0.787790
0.053500 0.514250 0.787790
0.187233 0.514250 0.787790
0.312282 0.514250 0.787790
0.434249 0.514250 0.787790
0.554259 0.514250 0.787790
0.672832 0.514250 0.787790
0.790274 0.514250 0.787790
0.906784 0.514250 0.787790
1.000000 0.514250 0.787790
0.053500 0.633000 0.787790
0.187233 0.633000 0.787790
0.312282 0.633000 0.787790
0.434249 0.633000 0.787790
0.554259 0.633000 0.787790
0.672832 0.633000 0.787790
0.790274 0.633000 0.787790
0.906784 0.633000 0.787790
1.000000 0.633000 0.787790
0.053500 0.751750 0.787790
0.187233 0.751750 0.787790
0.312282 0.751750 0.787790
0.434249 0.751750 0.787790
0.554259 0.751750 0.787790
0.672832 0.751750 0.787790
0.790274 0.751750 0.787790
0.906784 0.751750 0.787790
1.000000 0.751750 0.787790
0.053500 0.870500 0.787790
0.187233 0.870500 0.787790
0.312282 0.870500 0.787790
0.434249 0.870500 0.787790
0.554259 0.870500 0.787790
0.672832 0.870500 0.787790
0.790274 0.870500 0.787790
0.906784 0.870500 0.787790
1.000000 0.870500 0.787790
0.053500 0.989250 0.787790
0.187233 0.989250 0.787790
0.312282 0.989250 0.787790
0.434249 0.989250 0.787790
0.554259 0.989250 0.787790
0.672832 0.989250 0.787790
0.790274 0.989250 0.787790
0.906784 0.989250 0.787790
1.000000 0.989250 0.787790
0.053500 0.039250 0.908500
0.187233 0.039250 0.908500
0.312282 0.039250 0.908500
0.434249 0.039250 0.908500
0.554259 0.039250 0.908500
0.672832 0.039250 0.908500
0.790274 0.039250 0.908500
0.906784 0.039250 0.908500
1.000000 0.039250 0.908500
0.053500 0.158000 0.908500
0.187233 0.158000 0.908500
0.312282 0.158000 0.908500
0.434249 0.158000 0.908500
0.554259 0.158000 0.908500
0.672832 0.158000 0.908500
0.790274 0.158000 0.908500
0.906784 0.158000 0.908500
1.000000 0.158000 0.908500
0.053500 0.276750 0.908500
0.187233 0.276750 0.908500
0.312282 0.276750 0.908500
0.434249 0.276750 0.908500
0.554259 0.276750 0.908500
0.672832 0.276750 0.908500
0.790274 0.276750 0.908500
0.906784 0.276750 0.908500
1.000000 0.276750 0.908500
0.053500 0.395500 0.908500
0.187233 0.395500 0.908500
0.312282 0.395500 0.908500
0.434249 0.395500 0.908500
0.554259 0.395500 0.908500
0.672832 0.395500 0.908500
0.790274 0.395500 0.908500
0.906784 0.395500 0.908500
1.000000 0.395500 0.908500
0.053500 0.514250 0.908500
0.187233 0.514250 0.908500
0.312282 0.514250 0.908500
0.434249 0.514250 0.908500
0.554259 0.514250 0.908500
0.672832 0.514250 0.908500
0.790274 0.514250 0.908500
0.906784 0.514250 0.908500
1.000000 0.514250 0.908500
0.053500 0.633000 0.908500
0.187233 0.633000 0.908500
0.312282 0.633000 0.908500
0.434249 0.633000 0.908500
0.554259 0.633000 0.908500
0.672832 0.633000 0.908500
0.790274 0.633000 0.908500
0.906784 0.633000 0.908500
1.000000 0.633000 0.908500
0.053500 0.751750 0.908500
0.187233 0.751750 0.908500
0.312282 0.751750 0.908500
0.434249 0.751750 0.908500
0.554259 0.751750 0.908500
0.672832 0.751750 0.908500
0.790274 0.751750 0.908500
0.906784 0.751750 0.908500
1.000000 0.751750 0.908500
0.053500 0.870500 0.908500
0.187233 0.870500 0.908500
0.312282 0.870500 0.908500
0.434249 0.870500 0.908500
0.554259 0.870500 0.908500
0.672832 0.870500 0.908500
0.790274 0.870500 0.908500
0.906784 0.870500 0.908500
1.000000 0.870500 0.908500
0.053500 0.989250 0.908500
0.187233 0.989250 0.908500
0.312282 0.989250 0.908500
0.434249 0.989250 0.908500
0.554259 0.989250 0.908500
0.672832 0.989250 0.908500
0.790274 0.989250 0.908500
0.906784 0.989250 0.908500
1.000000 0.989250 0.908500
