Data/Shaders/SimpleGraphicsSuite/LUTs/Misty Forest.cube
LUT_3D_SIZE 17
0.053846 0.072546 0.076286
0.098307 0.074154 0.077894
0.144034 0.075807 0.079547
0.190252 0.077479 0.081219
0.236792 0.079162 0.082902
0.283572 0.080853 0.084593
0.330545 0.082552 0.086292
0.377678 0.084256 0.087996
0.424950 0.085966 0.089706
0.472343 0.087679 0.091419
0.519843 0.089397 0.093137
0.567441 0.091118 0.094858
0.615127 0.092843 0.096583
0.662895 0.094570 0.098310
0.710737 0.096300 0.100040
0.758650 0.098032 0.101772
0.806627 0.099767 0.103507
0.060076 0.128138 0.082516
0.104537 0.129746 0.084124
0.150264 0.131399 0.085777
0.196482 0.133071 0.087449
0.243022 0.134754 0.089132
0.289802 0.136445 0.090823
0.336775 0.138144 0.092522
0.383908 0.139848 0.094226
0.431180 0.141557 0.095936
0.478573 0.143271 0.097649
0.526073 0.144989 0.099367
0.573671 0.146710 0.101088
0.621357 0.148434 0.102813
0.669125 0.150162 0.104540
0.716967 0.151892 0.106270
0.764880 0.153624 0.108003
0.812857 0.155359 0.109737
0.066138 0.182229 0.088578
0.110599 0.183837 0.090186
0.156326 0.185490 0.091839
0.202544 0.187162 0.093511
0.249084 0.188845 0.095193
0.295864 0.190536 0.096885
0.342837 0.192235 0.098584
0.389970 0.193939 0.100288
0.437242 0.195649 0.101997
0.484634 0.197362 0.103711
0.532135 0.199080 0.105429
0.579733 0.200801 0.107150
0.627419 0.202526 0.108874
0.675186 0.204253 0.110602
0.723029 0.205983 0.112332
0.770942 0.207715 0.114064
0.818919 0.209450 0.115799
0.072138 0.235768 0.094578
0.116598 0.237375 0.096186
0.162326 0.239029 0.097839
0.208544 0.240700 0.099510
0.255083 0.242383 0.101193
0.301864 0.244075 0.102885
0.348836 0.245773 0.104584
0.395970 0.247478 0.106288
0.443242 0.249187 0.107997
0.490634 0.250901 0.109711
0.538135 0.252619 0.111429
0.585733 0.254340 0.113150
0.633419 0.256064 0.114874
0.681186 0.257792 0.116602
0.729029 0.259522 0.118332
0.776941 0.261254 0.120064
0.824919 0.262989 0.121799
0.078098 0.288951 0.100538
0.122559 0.290559 0.102146
0.168286 0.292212 0.103799
0.214504 0.293883 0.105471
0.261044 0.295566 0.107154
0.307824 0.297258 0.108845
0.354797 0.298956 0.110544
0.401930 0.300661 0.112248
0.449202 0.302370 0.113957
0.496594 0.304084 0.115671
0.544095 0.305802 0.117389
0.591693 0.307523 0.119110
0.639379 0.309247 0.120834
0.687146 0.310975 0.122562
0.734989 0.312705 0.124292
0.782902 0.314437 0.126024
0.830879 0.316172 0.127759
0.084029 0.341871 0.106469
0.128489 0.343479 0.108076
0.174217 0.345132 0.109730
0.220435 0.346804 0.111401
0.266974 0.348487 0.113084
0.313754 0.350178 0.114776
0.360727 0.351877 0.116474
0.407861 0.353581 0.118179
0.455132 0.355290 0.119888
0.502525 0.357004 0.121602
0.550026 0.358722 0.123320
0.597623 0.360443 0.125041
0.645310 0.362167 0.126765
0.693077 0.363895 0.128492
0.740920 0.365625 0.130222
0.788832 0.367357 0.131955
0.836810 0.369092 0.133690
0.089936 0.394583 0.112376
0.134396 0.396190 0.113984
0.180124 0.397844 0.115637
0.226342 0.399515 0.117308
0.272881 0.401198 0.118991
0.319662 0.402890 0.120683
0.366634 0.404588 0.122382
0.413768 0.406293 0.124086
0.461040 0.408002 0.125795
0.508432 0.409716 0.127509
0.555933 0.411434 0.129227
0.603531 0.413155 0.130948
0.651217 0.414879 0.132672
0.698984 0.416606 0.134400
0.746827 0.418337 0.136130
0.794739 0.420069 0.137862
0.842717 0.421804 0.139597
0.095824 0.447122 0.118264
0.140284 0.448729 0.119872
0.186012 0.450383 0.121525
0.232230 0.452054 0.123196
0.278769 0.453737 0.124879
0.325550 0.455429 0.126571
0.372522 0.457127 0.128270
0.419656 0.458832 0.129974
0.466928 0.460541 0.131683
0.514320 0.462255 0.133397
0.561821 0.463972 0.135115
0.609419 0.465694 0.136836
0.657105 0.467418 0.138560
0.704872 0.469145 0.140288
0.752715 0.470875 0.142018
0.800627 0.472608 0.143750
0.848605 0.474343 0.145485
0.101695 0.499513 0.124135
0.146156 0.501121 0.125743
0.191883 0.502774 0.127396
0.238101 0.504446 0.129068
0.284641 0.506128 0.130751
0.331421 0.507820 0.132442
0.378394 0.509519 0.134141
0.425527 0.511223 0.135845
0.472799 0.512932 0.137555
0.520192 0.514646 0.139268
0.567692 0.516364 0.140986
0.615290 0.518085 0.142707
0.662976 0.519809 0.144432
0.710744 0.521537 0.146159
0.758586 0.523267 0.147889
0.806499 0.524999 0.149622
0.854476 0.526734 0.151356
0.107552 0.551776 0.129992
0.152013 0.553384 0.131600
0.197740 0.555037 0.133253
0.243958 0.556708 0.134925
0.290498 0.558391 0.136608
0.337278 0.560083 0.138299
0.384251 0.561781 0.139998
0.431384 0.563486 0.141702
0.478656 0.565195 0.143412
0.526049 0.566909 0.145125
0.573549 0.568627 0.146843
0.621147 0.570348 0.148564
0.668833 0.572072 0.150289
0.716601 0.573800 0.152016
0.764443 0.575530 0.153746
0.812356 0.577262 0.155479
0.860333 0.578997 0.157213
0.113396 0.603925 0.135836
0.157857 0.605532 0.137444
0.203584 0.607186 0.139098
0.249802 0.608857 0.140769
0.296342 0.610540 0.142452
0.343122 0.612232 0.144143
0.390095 0.613930 0.145842
0.437228 0.615635 0.147546
0.484500 0.617344 0.149256
0.531893 0.619058 0.150970
0.579393 0.620776 0.152687
0.626991 0.622497 0.154408
0.674677 0.624221 0.156133
0.722445 0.625948 0.157860
0.770287 0.627678 0.159590
0.818200 0.629411 0.161323
0.866178 0.631146 0.163058
0.119229 0.655971 0.141669
0.163690 0.657579 0.143277
0.209417 0.659232 0.144930
0.255635 0.660904 0.146602
0.302175 0.662587 0.148285
0.348955 0.664278 0.149976
0.395928 0.665977 0.151675
0.443061 0.667681 0.153379
0.490333 0.669391 0.155089
0.537726 0.671104 0.156802
0.585226 0.672822 0.158520
0.632824 0.674543 0.160241
0.680510 0.676268 0.161966
0.728278 0.677995 0.163693
0.776120 0.679725 0.165423
0.824033 0.681458 0.167155
0.872010 0.683192 0.168890
0.125051 0.707925 0.147491
0.169512 0.709533 0.149099
0.215239 0.711186 0.150753
0.261457 0.712857 0.152424
0.307997 0.714540 0.154107
0.354777 0.716232 0.155799
0.401750 0.717931 0.157497
0.448884 0.719635 0.159201
0.496155 0.721344 0.160911
0.543548 0.723058 0.162625
0.591048 0.724776 0.164342
0.638646 0.726497 0.166063
0.686332 0.728221 0.167788
0.734100 0.729949 0.169515
0.781942 0.731679 0.171245
0.829855 0.733411 0.172978
0.877833 0.735146 0.174713
0.130864 0.759794 0.153304
0.175325 0.761401 0.154912
0.221052 0.763055 0.156565
0.267270 0.764726 0.158237
0.313810 0.766409 0.159920
0.360590 0.768101 0.161611
0.407563 0.769799 0.163310
0.454696 0.771504 0.165014
0.501968 0.773213 0.166724
0.549361 0.774927 0.168437
0.596861 0.776645 0.170155
0.644459 0.778366 0.171876
0.692145 0.780090 0.173601
0.739913 0.781817 0.175328
0.787755 0.783547 0.177058
0.835668 0.785280 0.178791
0.883646 0.787015 0.180526
0.136668 0.811584 0.159108
0.181129 0.813192 0.160716
0.226856 0.814845 0.162370
0.273074 0.816517 0.164041
0.319614 0.818200 0.165724
0.366394 0.819891 0.167415
0.413367 0.821590 0.169114
0.460500 0.823294 0.170818
0.507772 0.825004 0.172528
0.555165 0.826717 0.174241
0.602665 0.828435 0.175959
0.650263 0.830156 0.177680
0.697949 0.831881 0.179405
0.745717 0.833608 0.181132
0.793559 0.835338 0.182862
0.841472 0.837071 0.184595
0.889450 0.838805 0.186330
0.142464 0.863302 0.164904
0.186925 0.864910 0.166512
0.232652 0.866563 0.168165
0.278870 0.868235 0.169837
0.325410 0.869918 0.171520
0.372190 0.871609 0.173211
0.419163 0.873308 0.174910
0.466296 0.875012 0.176614
0.513568 0.876722 0.178324
0.560961 0.878435 0.180037
0.608461 0.880153 0.181755
0.656059 0.881874 0.183476
0.703745 0.883599 0.185201
0.751513 0.885326 0.186928
0.799355 0.887056 0.188658
0.847268 0.888788 0.190391
0.895245 0.890523 0.192125
0.148252 0.914952 0.170692
0.192713 0.916560 0.172300
0.238440 0.918214 0.173954
0.284658 0.919885 0.175625
0.331198 0.921568 0.177308
0.377978 0.923260 0.179000
0.424951 0.924958 0.180698
0.472085 0.926663 0.182403
0.519356 0.928372 0.184112
0.566749 0.930086 0.185826
0.614249 0.931803 0.187543
0.661847 0.933525 0.189265
0.709533 0.935249 0.190989
0.757301 0.936976 0.192716
0.805144 0.938706 0.194446
0.853056 0.940439 0.196179
0.901034 0.942174 0.197914
0.054442 0.073142 0.123632
0.098902 0.074749 0.125239
0.144630 0.076403 0.126893
0.190848 0.078074 0.128564
0.237387 0.079757 0.130247
0.284167 0.081449 0.131939
0.331140 0.083147 0.133637
0.378274 0.084852 0.135342
0.425545 0.086561 0.137051
0.472938 0.088275 0.138765
0.520439 0.089993 0.140483
0.568036 0.091714 0.142204
0.615723 0.093438 0.143928
0.663490 0.095166 0.145656
0.711333 0.096896 0.147386
0.759245 0.098628 0.149118
0.807223 0.100363 0.150853
0.060672 0.128734 0.129862
0.105132 0.130341 0.131470
0.150860 0.131995 0.133123
0.197078 0.133666 0.134794
0.243617 0.135349 0.136477
0.290398 0.137041 0.138169
0.337370 0.138739 0.139867
0.384504 0.140444 0.141572
0.431776 0.142153 0.143281
0.479168 0.143867 0.144995
0.526669 0.145585 0.146713
0.574267 0.147306 0.148434
0.621953 0.149030 0.150158
0.669720 0.150757 0.151886
0.717563 0.152487 0.153616
0.765475 0.154220 0.155348
0.813453 0.155955 0.157083
0.066734 0.182825 0.135924
0.111194 0.184432 0.137531
0.156922 0.186086 0.139185
0.203140 0.187757 0.140856
0.249679 0.189440 0.142539
0.296459 0.191132 0.144231
0.343432 0.192830 0.145929
0.390566 0.194535 0.147634
0.437837 0.196244 0.149343
0.485230 0.197958 0.151057
0.532731 0.199676 0.152775
0.580328 0.201397 0.154496
0.628015 0.203121 0.156220
0.675782 0.204849 0.157947
0.723625 0.206579 0.159677
0.771537 0.208311 0.161410
0.819515 0.210046 0.163145
0.072734 0.236363 0.141924
0.117194 0.237971 0.143531
0.162922 0.239625 0.145185
0.209140 0.241296 0.146856
0.255679 0.242979 0.148539
0.302459 0.244670 0.150231
0.349432 0.246369 0.151929
0.396566 0.248073 0.153634
0.443837 0.249783 0.155343
0.491230 0.251497 0.157057
0.538731 0.253214 0.158774
0.586328 0.254935 0.160496
0.634015 0.256660 0.162220
0.681782 0.258387 0.163947
0.729625 0.260117 0.165677
0.777537 0.261850 0.167410
0.825515 0.263585 0.169145
0.078694 0.289546 0.147884
0.123154 0.291154 0.149491
0.168882 0.292808 0.151145
0.215100 0.294479 0.152816
0.261639 0.296162 0.154499
0.308419 0.297854 0.156191
0.355392 0.299552 0.157889
0.402526 0.301257 0.159594
0.449797 0.302966 0.161303
0.497190 0.304680 0.163017
0.544691 0.306397 0.164735
0.592288 0.308119 0.166456
0.639975 0.309843 0.168180
0.687742 0.311570 0.169907
0.735585 0.313300 0.171637
0.783497 0.315033 0.173370
0.831475 0.316768 0.175105
0.084624 0.342467 0.153814
0.129085 0.344074 0.155422
0.174812 0.345728 0.157076
0.221030 0.347399 0.158747
0.267570 0.349082 0.160430
0.314350 0.350774 0.162121
0.361323 0.352472 0.163820
0.408456 0.354177 0.165524
0.455728 0.355886 0.167234
0.503121 0.357600 0.168948
0.550621 0.359318 0.170665
0.598219 0.361039 0.172386
0.645905 0.362763 0.174111
0.693673 0.364490 0.175838
0.741515 0.366220 0.177568
0.789428 0.367953 0.179301
0.837406 0.369688 0.181036
0.090532 0.395178 0.159722
0.134992 0.396786 0.161329
0.180720 0.398440 0.162983
0.226938 0.400111 0.164654
0.273477 0.401794 0.166337
0.320257 0.403485 0.168029
0.367230 0.405184 0.169727
0.414364 0.406888 0.171432
0.461635 0.408598 0.173141
0.509028 0.410312 0.174855
0.556529 0.412029 0.176572
0.604126 0.413750 0.178294
0.651813 0.415475 0.180018
0.699580 0.417202 0.181745
0.747423 0.418932 0.183475
0.795335 0.420665 0.185208
0.843313 0.422400 0.186943
0.096419 0.447717 0.165609
0.140880 0.449325 0.167217
0.186607 0.450978 0.168871
0.232825 0.452650 0.170542
0.279365 0.454333 0.172225
0.326145 0.456024 0.173917
0.373118 0.457723 0.175615
0.420252 0.459427 0.177320
0.467523 0.461137 0.179029
0.514916 0.462850 0.180743
0.562416 0.464568 0.182460
0.610014 0.466289 0.184182
0.657700 0.468014 0.185906
0.705468 0.469741 0.187633
0.753311 0.471471 0.189363
0.801223 0.473204 0.191096
0.849201 0.474939 0.192831
0.102291 0.500109 0.171481
0.146751 0.501716 0.173089
0.192479 0.503370 0.174742
0.238697 0.505041 0.176413
0.285236 0.506724 0.178096
0.332017 0.508416 0.179788
0.378989 0.510114 0.181487
0.426123 0.511819 0.183191
0.473395 0.513528 0.184900
0.520787 0.515242 0.186614
0.568288 0.516960 0.188332
0.615886 0.518681 0.190053
0.663572 0.520405 0.191777
0.711339 0.522132 0.193505
0.759182 0.523862 0.195235
0.807094 0.525595 0.196967
0.855072 0.527330 0.198702
0.108148 0.552371 0.177338
0.152608 0.553979 0.178946
0.198336 0.555633 0.180599
0.244554 0.557304 0.182270
0.291093 0.558987 0.183953
0.337874 0.560679 0.185645
0.384846 0.562377 0.187343
0.431980 0.564082 0.189048
0.479252 0.565791 0.190757
0.526644 0.567505 0.192471
0.574145 0.569222 0.194189
0.621743 0.570944 0.195910
0.669429 0.572668 0.197634
0.717196 0.574395 0.199362
0.765039 0.576125 0.201092
0.812951 0.577858 0.202824
0.860929 0.579593 0.204559
0.113992 0.604520 0.183182
0.158453 0.606128 0.184790
0.204180 0.607782 0.186443
0.250398 0.609453 0.188115
0.296938 0.611136 0.189797
0.343718 0.612827 0.191489
0.390691 0.614526 0.193188
0.437824 0.616230 0.194892
0.485096 0.617940 0.196601
0.532488 0.619654 0.198315
0.579989 0.621371 0.200033
0.627587 0.623092 0.201754
0.675273 0.624817 0.203478
0.723040 0.626544 0.205206
0.770883 0.628274 0.206936
0.818796 0.630007 0.208668
0.866773 0.631742 0.210403
0.119825 0.656567 0.189015
0.164285 0.658175 0.190622
0.210013 0.659828 0.192276
0.256231 0.661499 0.193947
0.302770 0.663182 0.195630
0.349550 0.664874 0.197322
0.396523 0.666572 0.199020
0.443657 0.668277 0.200725
0.490928 0.669986 0.202434
0.538321 0.671700 0.204148
0.585822 0.673418 0.205866
0.633419 0.675139 0.207587
0.681106 0.676863 0.209311
0.728873 0.678591 0.211039
0.776716 0.680321 0.212769
0.824628 0.682053 0.214501
0.872606 0.683788 0.216236
0.125647 0.708520 0.194837
0.170108 0.710128 0.196445
0.215835 0.711782 0.198098
0.262053 0.713453 0.199770
0.308593 0.715136 0.201453
0.355373 0.716828 0.203144
0.402346 0.718526 0.204843
0.449479 0.720231 0.206547
0.496751 0.721940 0.208257
0.544144 0.723654 0.209970
0.591644 0.725371 0.211688
0.639242 0.727093 0.213409
0.686928 0.728817 0.215134
0.734696 0.730544 0.216861
0.782538 0.732274 0.218591
0.830451 0.734007 0.220323
0.878428 0.735742 0.222058
0.131460 0.760389 0.200650
0.175920 0.761997 0.202258
0.221648 0.763651 0.203911
0.267866 0.765322 0.205582
0.314405 0.767005 0.207265
0.361186 0.768696 0.208957
0.408158 0.770395 0.210656
0.455292 0.772099 0.212360
0.502564 0.773809 0.214069
0.549956 0.775523 0.215783
0.597457 0.777240 0.217501
0.645055 0.778961 0.219222
0.692741 0.780686 0.220946
0.740508 0.782413 0.222674
0.788351 0.784143 0.224404
0.836263 0.785876 0.226136
0.884241 0.787611 0.227871
0.137264 0.812180 0.206454
0.181724 0.813788 0.208062
0.227452 0.815441 0.209715
0.273670 0.817112 0.211386
0.320209 0.818795 0.213069
0.366990 0.820487 0.214761
0.413962 0.822185 0.216460
0.461096 0.823890 0.218164
0.508368 0.825599 0.219873
0.555760 0.827313 0.221587
0.603261 0.829031 0.223305
0.650859 0.830752 0.225026
0.698545 0.832476 0.226750
0.746312 0.834204 0.228478
0.794155 0.835934 0.230208
0.842067 0.837666 0.231940
0.890045 0.839401 0.233675
0.143060 0.863898 0.212250
0.187520 0.865505 0.213858
0.233248 0.867159 0.215511
0.279466 0.868830 0.217182
0.326005 0.870513 0.218865
0.372786 0.872205 0.220557
0.419758 0.873903 0.222255
0.466892 0.875608 0.223960
0.514164 0.877317 0.225669
0.561556 0.879031 0.227383
0.609057 0.880749 0.229101
0.656655 0.882470 0.230822
0.704341 0.884194 0.232546
0.752108 0.885922 0.234274
0.799951 0.887652 0.236004
0.847863 0.889384 0.237736
0.895841 0.891119 0.239471
0.148848 0.915548 0.218038
0.193309 0.917156 0.219646
0.239036 0.918809 0.221299
0.285254 0.920481 0.222971
0.331794 0.922164 0.224654
0.378574 0.923855 0.226345
0.425547 0.925554 0.228044
0.472680 0.927258 0.229748
0.519952 0.928968 0.231458
0.567345 0.930681 0.233171
0.614845 0.932399 0.234889
0.662443 0.934120 0.236610
0.710129 0.935845 0.238335
0.757897 0.937572 0.240062
0.805739 0.939302 0.241792
0.853652 0.941035 0.243525
0.901629 0.942769 0.245259
0.055037 0.073737 0.170977
0.099498 0.075345 0.172585
0.145225 0.076999 0.174239
0.191443 0.078670 0.175910
0.237983 0.080353 0.177593
0.284763 0.082044 0.179284
0.331736 0.083743 0.180983
0.378869 0.085447 0.182687
0.426141 0.087157 0.184397
0.473534 0.088871 0.186111
0.521034 0.090588 0.187828
0.568632 0.092309 0.189549
0.616318 0.094034 0.191274
0.664086 0.095761 0.193001
0.711928 0.097491 0.194731
0.759841 0.099224 0.196464
0.807819 0.100959 0.198199
0.061267 0.129329 0.177207
0.105728 0.130937 0.178815
0.151455 0.132591 0.180469
0.197673 0.134262 0.182140
0.244213 0.135945 0.183823
0.290993 0.137636 0.185515
0.337966 0.139335 0.187213
0.385100 0.141039 0.188918
0.432371 0.142749 0.190627
0.479764 0.144463 0.192341
0.527264 0.146180 0.194058
0.574862 0.147901 0.195780
0.622548 0.149626 0.197504
0.670316 0.151353 0.199231
0.718159 0.153083 0.200961
0.766071 0.154816 0.202694
0.814049 0.156551 0.204429
0.067329 0.183420 0.183269
0.111790 0.185028 0.184877
0.157517 0.186682 0.186531
0.203735 0.188353 0.188202
0.250275 0.190036 0.189885
0.297055 0.191727 0.191576
0.344028 0.193426 0.193275
0.391161 0.195130 0.194979
0.438433 0.196840 0.196689
0.485826 0.198554 0.198403
0.533326 0.200271 0.200120
0.580924 0.201992 0.201841
0.628610 0.203717 0.203566
0.676378 0.205444 0.205293
0.724220 0.207174 0.207023
0.772133 0.208907 0.208756
0.820111 0.210642 0.210491
0.073329 0.236959 0.189269
0.117790 0.238567 0.190877
0.163517 0.240220 0.192531
0.209735 0.241892 0.194202
0.256275 0.243575 0.195885
0.303055 0.245266 0.197576
0.350028 0.246965 0.199275
0.397161 0.248669 0.200979
0.444433 0.250379 0.202689
0.491826 0.252092 0.204402
0.539326 0.253810 0.206120
0.586924 0.255531 0.207841
0.634610 0.257256 0.209566
0.682378 0.258983 0.211293
0.730220 0.260713 0.213023
0.778133 0.262445 0.214756
0.826111 0.264180 0.216491
0.079289 0.290142 0.195229
0.123750 0.291750 0.196837
0.169477 0.293403 0.198491
0.215695 0.295075 0.200162
0.262235 0.296758 0.201845
0.309015 0.298449 0.203536
0.355988 0.300148 0.205235
0.403121 0.301852 0.206939
0.450393 0.303562 0.208649
0.497786 0.305275 0.210363
0.545286 0.306993 0.212080
0.592884 0.308714 0.213801
0.640570 0.310439 0.215526
0.688338 0.312166 0.217253
0.736180 0.313896 0.218983
0.784093 0.315628 0.220716
0.832071 0.317363 0.222451
0.085220 0.343062 0.201160
0.129681 0.344670 0.202768
0.175408 0.346324 0.204421
0.221626 0.347995 0.206093
0.268166 0.349678 0.207775
0.314946 0.351369 0.209467
0.361918 0.353068 0.211166
0.409052 0.354772 0.212870
0.456324 0.356482 0.214579
0.503716 0.358196 0.216293
0.551217 0.359913 0.218011
0.598815 0.361634 0.219732
0.646501 0.363359 0.221456
0.694268 0.365086 0.223184
0.742111 0.366816 0.224914
0.790024 0.368549 0.226646
0.838001 0.370284 0.228381
0.091127 0.395774 0.207067
0.135588 0.397382 0.208675
0.181315 0.399035 0.210329
0.227533 0.400707 0.212000
0.274073 0.402389 0.213683
0.320853 0.404081 0.215374
0.367826 0.405780 0.217073
0.414959 0.407484 0.218777
0.462231 0.409193 0.220487
0.509624 0.410907 0.222200
0.557124 0.412625 0.223918
0.604722 0.414346 0.225639
0.652408 0.416070 0.227364
0.700176 0.417798 0.229091
0.748018 0.419528 0.230821
0.795931 0.421260 0.232554
0.843909 0.422995 0.234289
0.097015 0.448313 0.212955
0.141476 0.449921 0.214563
0.187203 0.451574 0.216216
0.233421 0.453245 0.217888
0.279961 0.454928 0.219571
0.326741 0.456620 0.221262
0.373714 0.458319 0.222961
0.420847 0.460023 0.224665
0.468119 0.461732 0.226375
0.515512 0.463446 0.228088
0.563012 0.465164 0.229806
0.610610 0.466885 0.231527
0.658296 0.468609 0.233252
0.706064 0.470337 0.234979
0.753906 0.472067 0.236709
0.801819 0.473799 0.238442
0.849796 0.475534 0.240176
0.102886 0.500704 0.218826
0.147347 0.502312 0.220434
0.193074 0.503966 0.222088
0.239292 0.505637 0.223759
0.285832 0.507320 0.225442
0.332612 0.509011 0.227134
0.379585 0.510710 0.228832
0.426719 0.512414 0.230537
0.473990 0.514124 0.232246
0.521383 0.515838 0.233960
0.568884 0.517555 0.235677
0.616481 0.519276 0.237399
0.664167 0.521001 0.239123
0.711935 0.522728 0.240850
0.759778 0.524458 0.242580
0.807690 0.526191 0.244313
0.855668 0.527926 0.246048
0.108743 0.552967 0.224683
0.153204 0.554575 0.226291
0.198931 0.556228 0.227945
0.245149 0.557900 0.229616
0.291689 0.559583 0.231299
0.338469 0.561274 0.232991
0.385442 0.562973 0.234689
0.432576 0.564677 0.236394
0.479847 0.566387 0.238103
0.527240 0.568100 0.239817
0.574740 0.569818 0.241534
0.622338 0.571539 0.243256
0.670024 0.573264 0.244980
0.717792 0.574991 0.246707
0.765635 0.576721 0.248437
0.813547 0.578453 0.250170
0.861525 0.580188 0.251905
0.114588 0.605116 0.230528
0.159048 0.606724 0.232135
0.204776 0.608377 0.233789
0.250994 0.610049 0.235460
0.297533 0.611731 0.237143
0.344313 0.613423 0.238835
0.391286 0.615122 0.240533
0.438420 0.616826 0.242238
0.485691 0.618535 0.243947
0.533084 0.620249 0.245661
0.580585 0.621967 0.247379
0.628182 0.623688 0.249100
0.675869 0.625412 0.250824
0.723636 0.627140 0.252551
0.771479 0.628870 0.254281
0.819391 0.630602 0.256014
0.867369 0.632337 0.257749
0.120420 0.657162 0.236360
0.164881 0.658770 0.237968
0.210608 0.660424 0.239622
0.256826 0.662095 0.241293
0.303366 0.663778 0.242976
0.350146 0.665470 0.244667
0.397119 0.667168 0.246366
0.444252 0.668873 0.248070
0.491524 0.670582 0.249780
0.538917 0.672296 0.251494
0.586417 0.674013 0.253211
0.634015 0.675735 0.254932
0.681701 0.677459 0.256657
0.729469 0.679186 0.258384
0.777311 0.680916 0.260114
0.825224 0.682649 0.261847
0.873202 0.684384 0.263582
0.126243 0.709116 0.242183
0.170703 0.710724 0.243790
0.216431 0.712377 0.245444
0.262649 0.714049 0.247115
0.309188 0.715732 0.248798
0.355968 0.717423 0.250490
0.402941 0.719122 0.252188
0.450075 0.720826 0.253893
0.497346 0.722536 0.255602
0.544739 0.724249 0.257316
0.592240 0.725967 0.259034
0.639837 0.727688 0.260755
0.687524 0.729413 0.262479
0.735291 0.731140 0.264206
0.783134 0.732870 0.265937
0.831046 0.734603 0.267669
0.879024 0.736337 0.269404
0.132056 0.760985 0.247996
0.176516 0.762593 0.249603
0.222243 0.764246 0.251257
0.268461 0.765917 0.252928
0.315001 0.767600 0.254611
0.361781 0.769292 0.256303
0.408754 0.770991 0.258001
0.455888 0.772695 0.259706
0.503159 0.774404 0.261415
0.550552 0.776118 0.263129
0.598053 0.777836 0.264846
0.645650 0.779557 0.266568
0.693336 0.781281 0.268292
0.741104 0.783009 0.270019
0.788947 0.784739 0.271749
0.836859 0.786471 0.273482
0.884837 0.788206 0.275217
0.137860 0.812775 0.253800
0.182320 0.814383 0.255407
0.228047 0.816037 0.257061
0.274266 0.817708 0.258732
0.320805 0.819391 0.260415
0.367585 0.821083 0.262107
0.414558 0.822781 0.263805
0.461692 0.824486 0.265510
0.508963 0.826195 0.267219
0.556356 0.827909 0.268933
0.603857 0.829626 0.270650
0.651454 0.831348 0.272372
0.699141 0.833072 0.274096
0.746908 0.834799 0.275823
0.794751 0.836529 0.277553
0.842663 0.838262 0.279286
0.890641 0.839997 0.281021
0.143655 0.864493 0.259595
0.188116 0.866101 0.261203
0.233843 0.867755 0.262857
0.280061 0.869426 0.264528
0.326601 0.871109 0.266211
0.373381 0.872801 0.267903
0.420354 0.874499 0.269601
0.467488 0.876203 0.271306
0.514759 0.877913 0.273015
0.562152 0.879627 0.274729
0.609652 0.881344 0.276446
0.657250 0.883065 0.278168
0.704936 0.884790 0.279892
0.752704 0.886517 0.281619
0.800547 0.888247 0.283349
0.848459 0.889980 0.285082
0.896437 0.891715 0.286817
0.149444 0.916144 0.265384
0.193904 0.917752 0.266992
0.239632 0.919405 0.268645
0.285850 0.921076 0.270316
0.332389 0.922759 0.271999
0.379170 0.924451 0.273691
0.426142 0.926149 0.275389
0.473276 0.927854 0.277094
0.520548 0.929563 0.278803
0.567940 0.931277 0.280517
0.615441 0.932995 0.282235
0.663039 0.934716 0.283956
0.710725 0.936440 0.285680
0.758492 0.938168 0.287408
0.806335 0.939898 0.289138
0.854247 0.941630 0.290870
0.902225 0.943365 0.292605
0.055633 0.074333 0.218323
0.100094 0.075941 0.219931
0.145821 0.077594 0.221584
0.192039 0.079266 0.223256
0.238579 0.080949 0.224939
0.285359 0.082640 0.226630
0.332332 0.084339 0.228329
0.379465 0.086043 0.230033
0.426737 0.087752 0.231742
0.474130 0.089466 0.233456
0.521630 0.091184 0.235174
0.569228 0.092905 0.236895
0.616914 0.094629 0.238619
0.664681 0.096357 0.240347
0.712524 0.098087 0.242077
0.760437 0.099819 0.243809
0.808414 0.101554 0.245544
0.061863 0.129925 0.224553
0.106324 0.131533 0.226161
0.152051 0.133186 0.227814
0.198269 0.134858 0.229486
