Data/Shaders/SimpleGraphicsSuite/LUTs/Misty Forest.cube
LUT_3D_SIZE 9
0.053846 0.072546 0.076286
0.144034 0.075807 0.079547
0.236792 0.079162 0.082902
0.330545 0.082552 0.086292
0.424950 0.085966 0.089706
0.519843 0.089397 0.093137
0.615127 0.092843 0.096583
0.710737 0.096300 0.100040
0.806627 0.099767 0.103507
0.066138 0.182229 0.088578
0.156326 0.185490 0.091839
0.249084 0.188845 0.095193
0.342837 0.192235 0.098584
0.437242 0.195649 0.101997
0.532135 0.199080 0.105429
0.627419 0.202526 0.108874
0.723029 0.205983 0.112332
0.818919 0.209450 0.115799
0.078098 0.288951 0.100538
0.168286 0.292212 0.103799
0.261044 0.295566 0.107154
0.354797 0.298956 0.110544
0.449202 0.302370 0.113957
0.544095 0.305802 0.117389
0.639379 0.309247 0.120834
0.734989 0.312705 0.124292
0.830879 0.316172 0.127759
0.089936 0.394583 0.112376
0.180124 0.397844 0.115637
0.272881 0.401198 0.118991
0.366634 0.404588 0.122382
0.461040 0.408002 0.125795
0.555933 0.411434 0.129227
0.651217 0.414879 0.132672
0.746827 0.418337 0.136130
0.842717 0.421804 0.139597
0.101695 0.499513 0.124135
0.191883 0.502774 0.127396
0.284641 0.506128 0.130751
0.378394 0.509519 0.134141
0.472799 0.512932 0.137555
0.567692 0.516364 0.140986
0.662976 0.519809 0.144432
0.758586 0.523267 0.147889
0.854476 0.526734 0.151356
0.113396 0.603925 0.135836
0.203584 0.607186 0.139098
0.296342 0.610540 0.142452
0.390095 0.613930 0.145842
0.484500 0.617344 0.149256
0.579393 0.620776 0.152687
0.674677 0.624221 0.156133
0.770287 0.627678 0.159590
0.866178 0.631146 0.163058
0.125051 0.707925 0.147491
0.215239 0.711186 0.150753
0.307997 0.714540 0.154107
0.401750 0.717931 0.157497
0.496155 0.721344 0.160911
0.591048 0.724776 0.164342
0.686332 0.728221 0.167788
0.781942 0.731679 0.171245
0.877833 0.735146 0.174713
0.136668 0.811584 0.159108
0.226856 0.814845 0.162370
0.319614 0.818200 0.165724
0.413367 0.821590 0.169114
0.507772 0.825004 0.172528
0.602665 0.828435 0.175959
0.697949 0.831881 0.179405
0.793559 0.835338 0.182862
0.889450 0.838805 0.186330
0.148252 0.914952 0.170692
0.238440 0.918214 0.173954
0.331198 0.921568 0.177308
0.424951 0.924958 0.180698
0.519356 0.928372 0.184112
0.614249 0.931803 0.187543
0.709533 0.935249 0.190989
0.805144 0.938706 0.194446
0.901034 0.942174 0.197914
0.055037 0.073737 0.170977
0.145225 0.076999 0.174239
0.237983 0.080353 0.177593
0.331736 0.083743 0.180983
0.426141 0.087157 0.184397
0.521034 0.090588 0.187828
0.616318 0.094034 0.191274
0.711928 0.097491 0.194731
0.807819 0.100959 0.198199
0.067329 0.183420 0.183269
0.157517 0.186682 0.186531
0.250275 0.190036 0.189885
0.344028 0.193426 0.193275
0.438433 0.196840 0.196689
0.533326 0.200271 0.200120
0.628610 0.203717 0.203566
0.724220 0.207174 0.207023
0.820111 0.210642 0.210491
0.079289 0.290142 0.195229
0.169477 0.293403 0.198491
0.262235 0.296758 0.201845
0.355988 0.300148 0.205235
0.450393 0.303562 0.208649
0.545286 0.306993 0.212080
0.640570 0.310439 0.215526
0.736180 0.313896 0.218983
0.832071 0.317363 0.222451
0.091127 0.395774 0.207067
0.181315 0.399035 0.210329
0.274073 0.402389 0.213683
0.367826 0.405780 0.217073
0.462231 0.409193 0.220487
0.557124 0.412625 0.223918
0.652408 0.416070 0.227364
0.748018 0.419528 0.230821
0.843909 0.422995 0.234289
0.102886 0.500704 0.218826
0.193074 0.503966 0.222088
0.285832 0.507320 0.225442
0.379585 0.510710 0.228832
0.473990 0.514124 0.232246
0.568884 0.517555 0.235677
0.664167 0.521001 0.239123
0.759778 0.524458 0.242580
0.855668 0.527926 0.246048
0.114588 0.605116 0.230528
0.204776 0.608377 0.233789
0.297533 0.611731 0.237143
0.391286 0.615122 0.240533
0.485691 0.618535 0.243947
0.580585 0.621967 0.247379
0.675869 0.625412 0.250824
0.771479 0.628870 0.254281
0.867369 0.632337 0.257749
0.126243 0.709116 0.242183
0.216431 0.712377 0.245444
0.309188 0.715732 0.248798
0.402941 0.719122 0.252188
0.497346 0.722536 0.255602
0.592240 0.725967 0.259034
0.687524 0.729413 0.262479
0.783134 0.732870 0.265937
0.879024 0.736337 0.269404
0.137860 0.812775 0.253800
0.228047 0.816037 0.257061
0.320805 0.819391 0.260415
0.414558 0.822781 0.263805
0.508963 0.826195 0.267219
0.603857 0.829626 0.270650
0.699141 0.833072 0.274096
0.794751 0.836529 0.277553
0.890641 0.839997 0.281021
0.149444 0.916144 0.265384
0.239632 0.919405 0.268645
0.332389 0.922759 0.271999
0.426142 0.926149 0.275389
0.520548 0.929563 0.278803
0.615441 0.932995 0.282235
0.710725 0.936440 0.285680
0.806335 0.939898 0.289138
0.902225 0.943365 0.292605
0.056229 0.074929 0.265669
0.146417 0.078190 0.268930
0.239174 0.081544 0.272284
0.332927 0.084934 0.275674
0.427332 0.088348 0.279088
0.522226 0.091780 0.282520
0.617510 0.095225 0.285965
0.713120 0.098682 0.289422
0.809010 0.102150 0.292890
0.068521 0.184612 0.277961
0.158709 0.187873 0.281222
0.251466 0.191227 0.284576
0.345219 0.194617 0.287966
0.439624 0.198031 0.291380
0.534518 0.201463 0.294811
0.629802 0.204908 0.298257
0.725412 0.208365 0.301714
0.821302 0.211833 0.305182
0.080481 0.291333 0.289921
0.170669 0.294595 0.293182
0.263426 0.297949 0.296536
0.357179 0.301339 0.299926
0.451584 0.304753 0.303340
0.546478 0.308184 0.306772
0.641762 0.311630 0.310217
0.737372 0.315087 0.313674
0.833262 0.318555 0.317142
0.092319 0.396965 0.301759
0.182506 0.400227 0.305020
0.275264 0.403581 0.308374
0.369017 0.406971 0.311764
0.463422 0.410385 0.315178
0.558316 0.413816 0.318609
0.653599 0.417262 0.322055
0.749210 0.420719 0.325512
0.845100 0.424187 0.328980
0.104078 0.501896 0.313518
0.194266 0.505157 0.316779
0.287023 0.508511 0.320133
0.380776 0.511901 0.323523
0.475182 0.515315 0.326937
0.570075 0.518746 0.330369
0.665359 0.522192 0.333814
0.760969 0.525649 0.337272
0.856859 0.529117 0.340739
0.115779 0.606307 0.325219
0.205967 0.609569 0.328480
0.298725 0.612923 0.331834
0.392477 0.616313 0.335225
0.486883 0.619727 0.338638
0.581776 0.623158 0.342070
0.677060 0.626604 0.345515
0.772670 0.630061 0.348973
0.868560 0.633529 0.352440
0.127434 0.710307 0.336874
0.217622 0.713569 0.340135
0.310380 0.716923 0.343489
0.404133 0.720313 0.346880
0.498538 0.723727 0.350293
0.593431 0.727158 0.353725
0.688715 0.730604 0.357170
0.784325 0.734061 0.360628
0.880215 0.737529 0.364095
0.139051 0.813967 0.348491
0.229239 0.817228 0.351752
0.321996 0.820582 0.355106
0.415749 0.823972 0.358497
0.510155 0.827386 0.361910
0.605048 0.830818 0.365342
0.700332 0.834263 0.368787
0.795942 0.837721 0.372245
0.891832 0.841188 0.375712
0.150635 0.917335 0.360075
0.240823 0.920596 0.363336
0.333581 0.923951 0.366691
0.427334 0.927341 0.370081
0.521739 0.930755 0.373495
0.616632 0.934186 0.376926
0.711916 0.937632 0.380372
0.807526 0.941089 0.383829
0.903416 0.944556 0.387296
0.057420 0.076120 0.360360
0.147608 0.079381 0.363621
0.240366 0.082735 0.366975
0.334119 0.086126 0.370366
0.428524 0.089539 0.373779
0.523417 0.092971 0.377211
0.618701 0.096416 0.380656
0.714311 0.099874 0.384114
0.810201 0.103341 0.387581
0.069712 0.185803 0.372652
0.159900 0.189064 0.375913
0.252657 0.192418 0.379267
0.346410 0.195809 0.382658
0.440816 0.199222 0.386071
0.535709 0.202654 0.389503
0.630993 0.206099 0.392948
0.726603 0.209557 0.396406
0.822493 0.213024 0.399873
0.081672 0.292525 0.384612
0.171860 0.295786 0.387873
0.264617 0.299140 0.391227
0.358370 0.302530 0.394618
0.452776 0.305944 0.398031
0.547669 0.309376 0.401463
0.642953 0.312821 0.404908
0.738563 0.316279 0.408366
0.834453 0.319746 0.411833
0.093510 0.398157 0.396450
0.183698 0.401418 0.399711
0.276455 0.404772 0.403065
0.370208 0.408162 0.406456
0.464614 0.411576 0.409869
0.559507 0.415007 0.413301
0.654791 0.418453 0.416746
0.750401 0.421910 0.420204
0.846291 0.425378 0.423671
0.105269 0.503087 0.408209
0.195457 0.506348 0.411470
0.288215 0.509702 0.414825
0.381968 0.513093 0.418215
0.476373 0.516506 0.421629
0.571266 0.519938 0.425060
0.666550 0.523383 0.428506
0.762160 0.526841 0.431963
0.858050 0.530308 0.435430
0.116970 0.607499 0.419910
0.207158 0.610760 0.423172
0.299916 0.614114 0.426526
0.393669 0.617504 0.429916
0.488074 0.620918 0.433330
0.582967 0.624349 0.436761
0.678251 0.627795 0.440207
0.773861 0.631252 0.443664
0.869752 0.634720 0.447132
0.128625 0.711499 0.431565
0.218813 0.714760 0.434827
0.311571 0.718114 0.438181
0.405324 0.721504 0.441571
0.499729 0.724918 0.444985
0.594622 0.728350 0.448416
0.689906 0.731795 0.451862
0.785516 0.735253 0.455319
0.881407 0.738720 0.458787
0.140242 0.815158 0.443182
0.230430 0.818419 0.446443
0.323188 0.821774 0.449798
0.416941 0.825164 0.453188
0.511346 0.828578 0.456602
0.606239 0.832009 0.460033
0.701523 0.835455 0.463479
0.797133 0.838912 0.466936
0.893023 0.842379 0.470403
0.151826 0.918526 0.454766
0.242014 0.921788 0.458028
0.334772 0.925142 0.461382
0.428525 0.928532 0.464772
0.522930 0.931946 0.468186
0.617823 0.935377 0.471617
0.713107 0.938823 0.475063
0.808717 0.942280 0.478520
0.904608 0.945748 0.481988
0.058611 0.077311 0.455051
0.148799 0.080573 0.458313
0.241557 0.083927 0.461667
0.335310 0.087317 0.465057
0.429715 0.090731 0.468471
0.524608 0.094162 0.471902
0.619892 0.097608 0.475348
0.715502 0.101065 0.478805
0.811393 0.104533 0.482273
0.070903 0.186994 0.467343
0.161091 0.190256 0.470604
0.253849 0.193610 0.473959
0.347602 0.197000 0.477349
0.442007 0.200414 0.480763
0.536900 0.203845 0.484194
0.632184 0.207291 0.487640
0.727794 0.210748 0.491097
0.823684 0.214216 0.494564
0.082863 0.293716 0.479303
0.173051 0.296977 0.482564
0.265809 0.300331 0.485919
0.359562 0.303722 0.489309
0.453967 0.307135 0.492723
0.548860 0.310567 0.496154
0.644144 0.314012 0.499600
0.739754 0.317470 0.503057
0.835645 0.320937 0.506525
0.094701 0.399348 0.491141
0.184889 0.402609 0.494402
0.277647 0.405963 0.497757
0.371400 0.409354 0.501147
0.465805 0.412767 0.504561
0.560698 0.416199 0.507992
0.655982 0.419644 0.511438
0.751592 0.423102 0.514895
0.847482 0.426569 0.518362
0.106460 0.504278 0.502900
0.196648 0.507539 0.506162
0.289406 0.510894 0.509516
0.383159 0.514284 0.512906
0.477564 0.517698 0.516320
0.572457 0.521129 0.519751
0.667741 0.524575 0.523197
0.763351 0.528032 0.526654
0.859242 0.531499 0.530122
0.118162 0.608690 0.514602
0.208349 0.611951 0.517863
0.301107 0.615305 0.521217
0.394860 0.618696 0.524607
0.489265 0.622109 0.528021
0.584159 0.625541 0.531452
0.679443 0.628986 0.534898
0.775053 0.632444 0.538355
0.870943 0.635911 0.541823
0.129817 0.712690 0.526257
0.220005 0.715951 0.529518
0.312762 0.719306 0.532872
0.406515 0.722696 0.536262
0.500920 0.726110 0.539676
0.595814 0.729541 0.543108
0.691098 0.732987 0.546553
0.786708 0.736444 0.550010
0.882598 0.739911 0.553478
0.141433 0.816349 0.537873
0.231621 0.819611 0.541135
0.324379 0.822965 0.544489
0.418132 0.826355 0.547879
0.512537 0.829769 0.551293
0.607430 0.833200 0.554724
0.702714 0.836646 0.558170
0.798325 0.840103 0.561627
0.894215 0.843571 0.565095
0.153018 0.919718 0.549458
0.243206 0.922979 0.552719
0.335963 0.926333 0.556073
0.429716 0.929723 0.559463
0.524121 0.933137 0.562877
0.619015 0.936569 0.566309
0.714299 0.940014 0.569754
0.809909 0.943471 0.573211
0.905799 0.946939 0.576679
0.059803 0.078503 0.549743
0.149991 0.081764 0.553004
0.242748 0.085118 0.556358
0.336501 0.088508 0.559748
0.430906 0.091922 0.563162
0.525800 0.095353 0.566593
0.621084 0.098799 0.570039
0.716694 0.102256 0.573496
0.812584 0.105724 0.576964
0.072094 0.188186 0.562034
0.162282 0.191447 0.565296
0.255040 0.194801 0.568650
0.348793 0.198191 0.572040
0.443198 0.201605 0.575454
0.538091 0.205036 0.578885
0.633375 0.208482 0.582331
0.728986 0.211939 0.585788
0.824876 0.215407 0.589256
0.084055 0.294907 0.573995
0.174242 0.298169 0.577256
0.267000 0.301523 0.580610
0.360753 0.304913 0.584000
0.455158 0.308327 0.587414
0.550052 0.311758 0.590845
0.645335 0.315204 0.594291
0.740946 0.318661 0.597748
0.836836 0.322129 0.601216
0.095892 0.400539 0.585832
0.186080 0.403800 0.589094
0.278838 0.407155 0.592448
0.372591 0.410545 0.595838
0.466996 0.413959 0.599252
0.561889 0.417390 0.602683
0.657173 0.420836 0.606129
0.752784 0.424293 0.609586
0.848674 0.427760 0.613054
0.107652 0.505469 0.597592
0.197840 0.508731 0.600853
0.290597 0.512085 0.604207
0.384350 0.515475 0.607597
0.478755 0.518889 0.611011
0.573649 0.522320 0.614443
0.668933 0.525766 0.617888
0.764543 0.529223 0.621346
0.860433 0.532691 0.624813
0.119353 0.609881 0.609293
0.209541 0.613142 0.612554
0.302298 0.616497 0.615908
0.396051 0.619887 0.619299
0.490457 0.623301 0.622712
0.585350 0.626732 0.626144
0.680634 0.630178 0.629589
0.776244 0.633635 0.633047
0.872134 0.637102 0.636514
0.131008 0.713881 0.620948
0.221196 0.717143 0.624209
0.313953 0.720497 0.627563
0.407706 0.723887 0.630954
0.502112 0.727301 0.634367
0.597005 0.730732 0.637799
0.692289 0.734178 0.641244
0.787899 0.737635 0.644702
0.883789 0.741103 0.648169
0.142625 0.817541 0.632565
0.232813 0.820802 0.635826
0.325570 0.824156 0.639180
0.419323 0.827546 0.642570
0.513729 0.830960 0.645984
0.608622 0.834392 0.649416
0.703906 0.837837 0.652861
0.799516 0.841294 0.656319
0.895406 0.844762 0.659786
0.154209 0.920909 0.644149
0.244397 0.924170 0.647410
0.337155 0.927524 0.650764
0.430908 0.930915 0.654155
0.525313 0.934328 0.657568
0.620206 0.937760 0.661000
0.715490 0.941205 0.664445
0.811100 0.944663 0.667903
0.906990 0.948130 0.671370
0.060994 0.079694 0.644434
0.151182 0.082955 0.647695
0.243939 0.086309 0.651049
0.337692 0.089700 0.654440
0.432098 0.093113 0.657853
0.526991 0.096545 0.661285
0.622275 0.099990 0.664730
0.717885 0.103448 0.668188
0.813775 0.106915 0.671655
0.073286 0.189377 0.656726
0.163474 0.192638 0.659987
0.256231 0.195992 0.663341
0.349984 0.199383 0.666731
0.444390 0.202796 0.670145
0.539283 0.206228 0.673577
0.634567 0.209673 0.677022
0.730177 0.213131 0.680480
0.826067 0.216598 0.683947
0.085246 0.296099 0.668686
0.175434 0.299360 0.671947
0.268191 0.302714 0.675301
0.361944 0.306104 0.678692
0.456350 0.309518 0.682105
0.551243 0.312950 0.685537
0.646527 0.316395 0.688982
0.742137 0.319852 0.692440
0.838027 0.323320 0.695907
0.097084 0.401730 0.680524
0.187272 0.404992 0.683785
0.280029 0.408346 0.687139
0.373782 0.411736 0.690529
0.468187 0.415150 0.693943
0.563081 0.418581 0.697375
0.658365 0.422027 0.700820
0.753975 0.425484 0.704278
0.849865 0.428952 0.707745
0.108843 0.506661 0.692283
0.199031 0.509922 0.695544
0.291789 0.513276 0.698898
0.385542 0.516666 0.702289
0.479947 0.520080 0.705702
0.574840 0.523512 0.709134
0.670124 0.526957 0.712579
0.765734 0.530415 0.716037
0.861624 0.533882 0.719504
0.120544 0.611072 0.703984
0.210732 0.614334 0.707245
0.303490 0.617688 0.710600
0.397243 0.621078 0.713990
0.491648 0.624492 0.717404
0.586541 0.627923 0.720835
0.681825 0.631369 0.724281
0.777435 0.634826 0.727738
0.873325 0.638294 0.731205
0.132199 0.715073 0.715639
0.222387 0.718334 0.718900
0.315145 0.721688 0.722255
0.408898 0.725078 0.725645
0.503303 0.728492 0.729059
0.598196 0.731924 0.732490
0.693480 0.735369 0.735936
0.789090 0.738826 0.739393
0.884981 0.742294 0.742861
0.143816 0.818732 0.727256
0.234004 0.821993 0.730517
0.326762 0.825347 0.733872
0.420515 0.828738 0.737262
0.514920 0.832151 0.740676
0.609813 0.835583 0.744107
0.705097 0.839028 0.747553
0.800707 0.842486 0.751010
0.896597 0.845953 0.754477
0.155400 0.922100 0.738840
0.245588 0.925362 0.742102
0.338346 0.928716 0.745456
0.432099 0.932106 0.748846
0.526504 0.935520 0.752260
0.621397 0.938951 0.755691
0.716681 0.942397 0.759137
0.812291 0.945854 0.762594
0.908182 0.949322 0.766062
0.062185 0.080885 0.739125
0.152373 0.084146 0.742386
0.245131 0.087501 0.745741
0.338884 0.090891 0.749131
0.433289 0.094305 0.752545
0.528182 0.097736 0.755976
0.623466 0.101182 0.759422
0.719076 0.104639 0.762879
0.814966 0.108106 0.766346
0.074477 0.190568 0.751417
0.164665 0.193829 0.754678
0.257423 0.197184 0.758033
0.351176 0.200574 0.761423
0.445581 0.203988 0.764837
0.540474 0.207419 0.768268
0.635758 0.210865 0.771714
0.731368 0.214322 0.775171
0.827258 0.217789 0.778638
0.086437 0.297290 0.763377
0.176625 0.300551 0.766638
0.269383 0.303905 0.769993
0.363136 0.307296 0.773383
0.457541 0.310709 0.776797
0.552434 0.314141 0.780228
0.647718 0.317586 0.783674
0.743328 0.321044 0.787131
0.839218 0.324511 0.790598
0.098275 0.402922 0.775215
0.188463 0.406183 0.778476
0.281221 0.409537 0.781831
0.374974 0.412927 0.785221
0.469379 0.416341 0.788634
0.564272 0.419773 0.792066
0.659556 0.423218 0.795511
0.755166 0.426676 0.798969
0.851056 0.430143 0.802436
0.110034 0.507852 0.786974
0.200222 0.511113 0.790236
0.292980 0.514468 0.793590
0.386733 0.517858 0.796980
0.481138 0.521272 0.800394
0.576031 0.524703 0.803825
0.671315 0.528149 0.807271
0.766925 0.531606 0.810728
0.862816 0.535073 0.814196
0.121735 0.612264 0.798675
0.211923 0.615525 0.801937
0.304681 0.618879 0.805291
0.398434 0.622269 0.808681
0.492839 0.625683 0.812095
0.587732 0.629115 0.815526
0.683016 0.632560 0.818972
0.778627 0.636018 0.822429
0.874517 0.639485 0.825897
0.133390 0.716264 0.810330
0.223578 0.719525 0.813592
0.316336 0.722879 0.816946
0.410089 0.726270 0.820336
0.504494 0.729683 0.823750
0.599388 0.733115 0.827181
0.694671 0.736560 0.830627
0.790282 0.740018 0.834084
0.886172 0.743485 0.837552
0.145007 0.819923 0.821947
0.235195 0.823185 0.825209
0.327953 0.826539 0.828563
0.421706 0.829929 0.831953
0.516111 0.833343 0.835367
0.611004 0.836774 0.838798
0.706288 0.840220 0.842244
0.801898 0.843677 0.845701
0.897789 0.847145 0.849169
0.156592 0.923292 0.833532
0.246780 0.926553 0.836793
0.339537 0.929907 0.840147
0.433290 0.933297 0.843537
0.527695 0.936711 0.846951
0.622589 0.940142 0.850382
0.717873 0.943588 0.853828
0.813483 0.947045 0.857285
0.909373 0.950513 0.860753
0.063376 0.082076 0.833816
0.153564 0.085338 0.837078
0.246322 0.088692 0.840432
0.340075 0.092082 0.843822
0.434480 0.095496 0.847236
0.529373 0.098927 0.850667
0.624657 0.102373 0.854113
0.720268 0.105830 0.857570
0.816158 0.109298 0.861038
0.075668 0.191759 0.846108
0.165856 0.195021 0.849370
0.258614 0.198375 0.852724
0.352367 0.201765 0.856114
0.446772 0.205179 0.859528
0.541665 0.208610 0.862959
0.636949 0.212056 0.866405
0.732559 0.215513 0.869862
0.828450 0.218981 0.873330
0.087628 0.298481 0.858068
0.177816 0.301742 0.861330
0.270574 0.305097 0.864684
0.364327 0.308487 0.868074
0.458732 0.311901 0.871488
0.553625 0.315332 0.874919
0.648909 0.318778 0.878365
0.744520 0.322235 0.881822
0.840410 0.325703 0.885290
0.099466 0.404113 0.869906
0.189654 0.407374 0.873168
0.282412 0.410729 0.876522
0.376165 0.414119 0.879912
0.470570 0.417533 0.883326
0.565463 0.420964 0.886757
0.660747 0.424410 0.890203
0.756357 0.427867 0.893660
0.852248 0.431334 0.897128
0.111226 0.509043 0.881666
0.201414 0.512305 0.884927
0.294171 0.515659 0.888281
0.387924 0.519049 0.891671
0.482329 0.522463 0.895085
0.577223 0.525894 0.898517
0.672507 0.529340 0.901962
0.768117 0.532797 0.905419
0.864007 0.536265 0.908887
0.122927 0.613455 0.893367
0.213115 0.616716 0.896628
0.305872 0.620071 0.899982
0.399625 0.623461 0.903372
0.494031 0.626875 0.906786
0.588924 0.630306 0.910218
0.684208 0.633751 0.913663
0.779818 0.637209 0.917121
0.875708 0.640676 0.920588
0.134582 0.717455 0.905022
0.224770 0.720717 0.908283
0.317527 0.724071 0.911637
0.411280 0.727461 0.915027
0.505686 0.730875 0.918441
0.600579 0.734306 0.921873
0.695863 0.737752 0.925318
0.791473 0.741209 0.928776
0.887363 0.744677 0.932243
0.146199 0.821115 0.916639
0.236387 0.824376 0.919900
0.329144 0.827730 0.923254
0.422897 0.831120 0.926644
0.517302 0.834534 0.930058
0.612196 0.837965 0.933490
0.707480 0.841411 0.936935
0.803090 0.844868 0.940392
0.898980 0.848336 0.943860
0.157783 0.924483 0.928223
0.247971 0.927744 0.931484
0.340728 0.931098 0.934838
0.434481 0.934489 0.938229
0.528887 0.937902 0.941642
0.623780 0.941334 0.945074
0.719064 0.944779 0.948519
0.814674 0.948237 0.951977
0.910564 0.951704 0.955444
