Data/Shaders/SimpleGraphicsSuite/LUTs/Misty Forest.cube
LUT_3D_SIZE 5
0.053846 0.072546 0.076286
0.236792 0.079162 0.082902
0.424950 0.085966 0.089706
0.615127 0.092843 0.096583
0.806627 0.099767 0.103507
0.078098 0.288951 0.100538
0.261044 0.295566 0.107154
0.449202 0.302370 0.113957
0.639379 0.309247 0.120834
0.830879 0.316172 0.127759
0.101695 0.499513 0.124135
0.284641 0.506128 0.130751
0.472799 0.512932 0.137555
0.662976 0.519809 0.144432
0.854476 0.526734 0.151356
0.125051 0.707925 0.147491
0.307997 0.714540 0.154107
0.496155 0.721344 0.160911
0.686332 0.728221 0.167788
0.877833 0.735146 0.174713
0.148252 0.914952 0.170692
0.331198 0.921568 0.177308
0.519356 0.928372 0.184112
0.709533 0.935249 0.190989
0.901034 0.942174 0.197914
0.056229 0.074929 0.265669
0.239174 0.081544 0.272284
0.427332 0.088348 0.279088
0.617510 0.095225 0.285965
0.809010 0.102150 0.292890
0.080481 0.291333 0.289921
0.263426 0.297949 0.296536
0.451584 0.304753 0.303340
0.641762 0.311630 0.310217
0.833262 0.318555 0.317142
0.104078 0.501896 0.313518
0.287023 0.508511 0.320133
0.475182 0.515315 0.326937
0.665359 0.522192 0.333814
0.856859 0.529117 0.340739
0.127434 0.710307 0.336874
0.310380 0.716923 0.343489
0.498538 0.723727 0.350293
0.688715 0.730604 0.357170
0.880215 0.737529 0.364095
0.150635 0.917335 0.360075
0.333581 0.923951 0.366691
0.521739 0.930755 0.373495
0.711916 0.937632 0.380372
0.903416 0.944556 0.387296
0.058611 0.077311 0.455051
0.241557 0.083927 0.461667
0.429715 0.090731 0.468471
0.619892 0.097608 0.475348
0.811393 0.104533 0.482273
0.082863 0.293716 0.479303
0.265809 0.300331 0.485919
0.453967 0.307135 0.492723
0.644144 0.314012 0.499600
0.835645 0.320937 0.506525
0.106460 0.504278 0.502900
0.289406 0.510894 0.509516
0.477564 0.517698 0.516320
0.667741 0.524575 0.523197
0.859242 0.531499 0.530122
0.129817 0.712690 0.526257
0.312762 0.719306 0.532872
0.500920 0.726110 0.539676
0.691098 0.732987 0.546553
0.882598 0.739911 0.553478
0.153018 0.919718 0.549458
0.335963 0.926333 0.556073
0.524121 0.933137 0.562877
0.714299 0.940014 0.569754
0.905799 0.946939 0.576679
0.060994 0.079694 0.644434
0.243939 0.086309 0.651049
0.432098 0.093113 0.657853
0.622275 0.099990 0.664730
0.813775 0.106915 0.671655
0.085246 0.296099 0.668686
0.268191 0.302714 0.675301
0.456350 0.309518 0.682105
0.646527 0.316395 0.688982
0.838027 0.323320 0.695907
0.108843 0.506661 0.692283
0.291789 0.513276 0.698898
0.479947 0.520080 0.705702
0.670124 0.526957 0.712579
0.861624 0.533882 0.719504
0.132199 0.715073 0.715639
0.315145 0.721688 0.722255
0.503303 0.728492 0.729059
0.693480 0.735369 0.735936
0.884981 0.742294 0.742861
0.155400 0.922100 0.738840
0.338346 0.928716 0.745456
0.526504 0.935520 0.752260
0.716681 0.942397 0.759137
0.908182 0.949322 0.766062
0.063376 0.082076 0.833816
0.246322 0.088692 0.840432
0.434480 0.095496 0.847236
0.624657 0.102373 0.854113
0.816158 0.109298 0.861038
0.087628 0.298481 0.858068
0.270574 0.305097 0.864684
0.458732 0.311901 0.871488
0.648909 0.318778 0.878365
0.840410 0.325703 0.885290
0.111226 0.509043 0.881666
0.294171 0.515659 0.888281
0.482329 0.522463 0.895085
0.672507 0.529340 0.901962
0.864007 0.536265 0.908887
0.134582 0.717455 0.905022
0.317527 0.724071 0.911637
0.505686 0.730875 0.918441
0.695863 0.737752 0.925318
0.887363 0.744677 0.932243
0.157783 0.924483 0.928223
0.340728 0.931098 0.934838
0.528887 0.937902 0.941642
0.719064 0.944779 0.948519
0.910564 0.951704 0.955444
