Data/Shaders/SimpleGraphicsSuite/LUTs/Nordic Cold.cube
LUT_3D_SIZE 9
0.000000 0.000000 0.000000
0.067791 0.000000 0.000000
0.200868 0.000000 0.000000
0.335374 0.000000 0.000000
0.470815 0.000000 0.000000
0.606956 0.000000 0.000000
0.743658 0.000000 0.000000
0.880828 0.000000 0.000000
1.000000 0.000000 0.000000
0.000000 0.089600 0.000000
0.067791 0.089600 0.000000
0.200868 0.089600 0.000000
0.335374 0.089600 0.000000
0.470815 0.089600 0.000000
0.606956 0.089600 0.000000
0.743658 0.089600 0.000000
0.880828 0.089600 0.000000
1.000000 0.089600 0.000000
0.000000 0.224600 0.000000
0.067791 0.224600 0.000000
0.200868 0.224600 0.000000
0.335374 0.224600 0.000000
0.470815 0.224600 0.000000
0.606956 0.224600 0.000000
0.743658 0.224600 0.000000
0.880828 0.224600 0.000000
1.000000 0.224600 0.000000
0.000000 0.359600 0.000000
0.067791 0.359600 0.000000
0.200868 0.359600 0.000000
0.335374 0.359600 0.000000
0.470815 0.359600 0.000000
0.606956 0.359600 0.000000
0.743658 0.359600 0.000000
0.880828 0.359600 0.000000
1.000000 0.359600 0.000000
0.000000 0.494600 0.000000
0.067791 0.494600 0.000000
0.200868 0.494600 0.000000
0.335374 0.494600 0.000000
0.470815 0.494600 0.000000
0.606956 0.494600 0.000000
0.743658 0.494600 0.000000
0.880828 0.494600 0.000000
1.000000 0.494600 0.000000
0.000000 0.629600 0.000000
0.067791 0.629600 0.000000
0.200868 0.629600 0.000000
0.335374 0.629600 0.000000
0.470815 0.629600 0.000000
0.606956 0.629600 0.000000
0.743658 0.629600 0.000000
0.880828 0.629600 0.000000
1.000000 0.629600 0.000000
0.000000 0.764600 0.000000
0.067791 0.764600 0.000000
0.200868 0.764600 0.000000
0.335374 0.764600 0.000000
0.470815 0.764600 0.000000
0.606956 0.764600 0.000000
0.743658 0.764600 0.000000
0.880828 0.764600 0.000000
1.000000 0.764600 0.000000
0.000000 0.899600 0.000000
0.067791 0.899600 0.000000
0.200868 0.899600 0.000000
0.335374 0.899600 0.000000
0.470815 0.899600 0.000000
0.606956 0.899600 0.000000
0.743658 0.899600 0.000000
0.880828 0.899600 0.000000
1.000000 0.899600 0.000000
0.000000 1.000000 0.000000
0.067791 1.000000 0.000000
0.200868 1.000000 0.000000
0.335374 1.000000 0.000000
0.470815 1.000000 0.000000
0.606956 1.000000 0.000000
0.743658 1.000000 0.000000
0.880828 1.000000 0.000000
1.000000 1.000000 0.000000
0.000000 0.000000 0.138698
0.067791 0.000000 0.138698
0.200868 0.000000 0.138698
0.335374 0.000000 0.138698
0.470815 0.000000 0.138698
0.606956 0.000000 0.138698
0.743658 0.000000 0.138698
0.880828 0.000000 0.138698
1.000000 0.000000 0.138698
0.000000 0.089600 0.138698
0.067791 0.089600 0.138698
0.200868 0.089600 0.138698
0.335374 0.089600 0.138698
0.470815 0.089600 0.138698
0.606956 0.089600 0.138698
0.743658 0.089600 0.138698
0.880828 0.089600 0.138698
1.000000 0.089600 0.138698
0.000000 0.224600 0.138698
0.067791 0.224600 0.138698
0.200868 0.224600 0.138698
0.335374 0.224600 0.138698
0.470815 0.224600 0.138698
0.606956 0.224600 0.138698
0.743658 0.224600 0.138698
0.880828 0.224600 0.138698
1.000000 0.224600 0.138698
0.000000 0.359600 0.138698
0.067791 0.359600 0.138698
0.200868 0.359600 0.138698
0.335374 0.359600 0.138698
0.470815 0.359600 0.138698
0.606956 0.359600 0.138698
0.743658 0.359600 0.138698
0.880828 0.359600 0.138698
1.000000 0.359600 0.138698
0.000000 0.494600 0.138698
0.067791 0.494600 0.138698
0.200868 0.494600 0.138698
0.335374 0.494600 0.138698
0.470815 0.494600 0.138698
0.606956 0.494600 0.138698
0.743658 0.494600 0.138698
0.880828 0.494600 0.138698
1.000000 0.494600 0.138698
0.000000 0.629600 0.138698
0.067791 0.629600 0.138698
0.200868 0.629600 0.138698
0.335374 0.629600 0.138698
0.470815 0.629600 0.138698
0.606956 0.629600 0.138698
0.743658 0.629600 0.138698
0.880828 0.629600 0.138698
1.000000 0.629600 0.138698
0.000000 0.764600 0.138698
0.067791 0.764600 0.138698
0.200868 0.764600 0.138698
0.335374 0.764600 0.138698
0.470815 0.764600 0.138698
0.606956 0.764600 0.138698
0.743658 0.764600 0.138698
0.880828 0.764600 0.138698
1.000000 0.764600 0.138698
0.000000 0.899600 0.138698
0.067791 0.899600 0.138698
0.200868 0.899600 0.138698
0.335374 0.899600 0.138698
0.470815 0.899600 0.138698
0.606956 0.899600 0.138698
0.743658 0.899600 0.138698
0.880828 0.899600 0.138698
1.000000 0.899600 0.138698
0.000000 1.000000 0.138698
0.067791 1.000000 0.138698
0.200868 1.000000 0.138698
0.335374 1.000000 0.138698
0.470815 1.000000 0.138698
0.606956 1.000000 0.138698
0.743658 1.000000 0.138698
0.880828 1.000000 0.138698
1.000000 1.000000 0.138698
0.000000 0.000000 0.279148
0.067791 0.000000 0.279148
0.200868 0.000000 0.279148
0.335374 0.000000 0.279148
0.470815 0.000000 0.279148
0.606956 0.000000 0.279148
0.743658 0.000000 0.279148
0.880828 0.000000 0.279148
1.000000 0.000000 0.279148
0.000000 0.089600 0.279148
0.067791 0.089600 0.279148
0.200868 0.089600 0.279148
0.335374 0.089600 0.279148
0.470815 0.089600 0.279148
0.606956 0.089600 0.279148
0.743658 0.089600 0.279148
0.880828 0.089600 0.279148
1.000000 0.089600 0.279148
0.000000 0.224600 0.279148
0.067791 0.224600 0.279148
0.200868 0.224600 0.279148
0.335374 0.224600 0.279148
0.470815 0.224600 0.279148
0.606956 0.224600 0.279148
0.743658 0.224600 0.279148
0.880828 0.224600 0.279148
1.000000 0.224600 0.279148
0.000000 0.359600 0.279148
0.067791 0.359600 0.279148
0.200868 0.359600 0.279148
0.335374 0.359600 0.279148
0.470815 0.359600 0.279148
0.606956 0.359600 0.279148
0.743658 0.359600 0.279148
0.880828 0.359600 0.279148
1.000000 0.359600 0.279148
0.000000 0.494600 0.279148
0.067791 0.494600 0.279148
0.200868 0.494600 0.279148
0.335374 0.494600 0.279148
0.470815 0.494600 0.279148
0.606956 0.494600 0.279148
0.743658 0.494600 0.279148
0.880828 0.494600 0.279148
1.000000 0.494600 0.279148
0.000000 0.629600 0.279148
0.067791 0.629600 0.279148
0.200868 0.629600 0.279148
0.335374 0.629600 0.279148
0.470815 0.629600 0.279148
0.606956 0.629600 0.279148
0.743658 0.629600 0.279148
0.880828 0.629600 0.279148
1.000000 0.629600 0.279148
0.000000 0.764600 0.279148
0.067791 0.764600 0.279148
0.200868 0.764600 0.279148
0.335374 0.764600 0.279148
0.470815 0.764600 0.279148
0.606956 0.764600 0.279148
0.743658 0.764600 0.279148
0.880828 0.764600 0.279148
1.000000 0.764600 0.279148
0.000000 0.899600 0.279148
0.067791 0.899600 0.279148
0.200868 0.899600 0.279148
0.335374 0.899600 0.279148
0.470815 0.899600 0.279148
0.606956 0.899600 0.279148
0.743658 0.899600 0.279148
0.880828 0.899600 0.279148
1.000000 0.899600 0.279148
0.000000 1.000000 0.279148
0.067791 1.000000 0.279148
0.200868 1.000000 0.279148
0.335374 1.000000 0.279148
0.470815 1.000000 0.279148
0.606956 1.000000 0.279148
0.743658 1.000000 0.279148
0.880828 1.000000 0.279148
1.000000 1.000000 0.279148
0.000000 0.000000 0.417472
0.067791 0.000000 0.417472
0.200868 0.000000 0.417472
0.335374 0.000000 0.417472
0.470815 0.000000 0.417472
0.606956 0.000000 0.417472
0.743658 0.000000 0.417472
0.880828 0.000000 0.417472
1.000000 0.000000 0.417472
0.000000 0.089600 0.417472
0.067791 0.089600 0.417472
0.200868 0.089600 0.417472
0.335374 0.089600 0.417472
0.470815 0.089600 0.417472
0.606956 0.089600 0.417472
0.743658 0.089600 0.417472
0.880828 0.089600 0.417472
1.000000 0.089600 0.417472
0.000000 0.224600 0.417472
0.067791 0.224600 0.417472
0.200868 0.224600 0.417472
0.335374 0.224600 0.417472
0.470815 0.224600 0.417472
0.606956 0.224600 0.417472
0.743658 0.224600 0.417472
0.880828 0.224600 0.417472
1.000000 0.224600 0.417472
0.000000 0.359600 0.417472
0.067791 0.359600 0.417472
0.200868 0.359600 0.417472
0.335374 0.359600 0.417472
0.470815 0.359600 0.417472
0.606956 0.359600 0.417472
0.743658 0.359600 0.417472
0.880828 0.359600 0.417472
1.000000 0.359600 0.417472
0.000000 0.494600 0.417472
0.067791 0.494600 0.417472
0.200868 0.494600 0.417472
0.335374 0.494600 0.417472
0.470815 0.494600 0.417472
0.606956 0.494600 0.417472
0.743658 0.494600 0.417472
0.880828 0.494600 0.417472
1.000000 0.494600 0.417472
0.000000 0.629600 0.417472
0.067791 0.629600 0.417472
0.200868 0.629600 0.417472
0.335374 0.629600 0.417472
0.470815 0.629600 0.417472
0.606956 0.629600 0.417472
0.743658 0.629600 0.417472
0.880828 0.629600 0.417472
1.000000 0.629600 0.417472
0.000000 0.764600 0.417472
0.067791 0.764600 0.417472
0.200868 0.764600 0.417472
0.335374 0.764600 0.417472
0.470815 0.764600 0.417472
0.606956 0.764600 0.417472
0.743658 0.764600 0.417472
0.880828 0.764600 0.417472
1.000000 0.764600 0.417472
0.000000 0.899600 0.417472
0.067791 0.899600 0.417472
0.200868 0.899600 0.417472
0.335374 0.899600 0.417472
0.470815 0.899600 0.417472
0.606956 0.899600 0.417472
0.743658 0.899600 0.417472
0.880828 0.899600 0.417472
1.000000 0.899600 0.417472
0.000000 1.000000 0.417472
0.067791 1.000000 0.417472
0.200868 1.000000 0.417472
0.335374 1.000000 0.417472
0.470815 1.000000 0.417472
0.606956 1.000000 0.417472
0.743658 1.000000 0.417472
0.880828 1.000000 0.417472
1.000000 1.000000 0.417472
0.000000 0.000000 0.554433
0.067791 0.000000 0.554433
0.200868 0.000000 0.554433
0.335374 0.000000 0.554433
0.470815 0.000000 0.554433
0.606956 0.000000 0.554433
0.743658 0.000000 0.554433
0.880828 0.000000 0.554433
1.000000 0.000000 0.554433
0.000000 0.089600 0.554433
0.067791 0.089600 0.554433
0.200868 0.089600 0.554433
0.335374 0.089600 0.554433
0.470815 0.089600 0.554433
0.606956 0.089600 0.554433
0.743658 0.089600 0.554433
0.880828 0.089600 0.554433
1.000000 0.089600 0.554433
0.000000 0.224600 0.554433
0.067791 0.224600 0.554433
0.200868 0.224600 0.554433
0.335374 0.224600 0.554433
0.470815 0.224600 0.554433
0.606956 0.224600 0.554433
0.743658 0.224600 0.554433
0.880828 0.224600 0.554433
1.000000 0.224600 0.554433
0.000000 0.359600 0.554433
0.067791 0.359600 0.554433
0.200868 0.359600 0.554433
0.335374 0.359600 0.554433
0.470815 0.359600 0.554433
0.606956 0.359600 0.554433
0.743658 0.359600 0.554433
0.880828 0.359600 0.554433
1.000000 0.359600 0.554433
0.000000 0.494600 0.554433
0.067791 0.494600 0.554433
0.200868 0.494600 0.554433
0.335374 0.494600 0.554433
0.470815 0.494600 0.554433
0.606956 0.494600 0.554433
0.743658 0.494600 0.554433
0.880828 0.494600 0.554433
1.000000 0.494600 0.554433
0.000000 0.629600 0.554433
0.067791 0.629600 0.554433
0.200868 0.629600 0.554433
0.335374 0.629600 0.554433
0.470815 0.629600 0.554433
0.606956 0.629600 0.554433
0.743658 0.629600 0.554433
0.880828 0.629600 0.554433
1.000000 0.629600 0.554433
0.000000 0.764600 0.554433
0.067791 0.764600 0.554433
0.200868 0.764600 0.554433
0.335374 0.764600 0.554433
0.470815 0.764600 0.554433
0.606956 0.764600 0.554433
0.743658 0.764600 0.554433
0.880828 0.764600 0.554433
1.000000 0.764600 0.554433
0.000000 0.899600 0.554433
0.067791 0.899600 0.554433
0.200868 0.899600 0.554433
0.335374 0.899600 0.554433
0.470815 0.899600 0.554433
0.606956 0.899600 0.554433
0.743658 0.899600 0.554433
0.880828 0.899600 0.554433
1.000000 0.899600 0.554433
0.000000 1.000000 0.554433
0.067791 1.000000 0.554433
0.200868 1.000000 0.554433
0.335374 1.000000 0.554433
0.470815 1.000000 0.554433
0.606956 1.000000 0.554433
0.743658 1.000000 0.554433
0.880828 1.000000 0.554433
1.000000 1.000000 0.554433
0.000000 0.000000 0.690390
0.067791 0.000000 0.690390
0.200868 0.000000 0.690390
0.335374 0.000000 0.690390
0.470815 0.000000 0.690390
0.606956 0.000000 0.690390
0.743658 0.000000 0.690390
0.880828 0.000000 0.690390
1.000000 0.000000 0.690390
0.000000 0.089600 0.690390
0.067791 0.089600 0.690390
0.200868 0.089600 0.690390
0.335374 0.089600 0.690390
0.470815 0.089600 0.690390
0.606956 0.089600 0.690390
0.743658 0.089600 0.690390
0.880828 0.089600 0.690390
1.000000 0.089600 0.690390
0.000000 0.224600 0.690390
0.067791 0.224600 0.690390
0.200868 0.224600 0.690390
0.335374 0.224600 0.690390
0.470815 0.224600 0.690390
0.606956 0.224600 0.690390
0.743658 0.224600 0.690390
0.880828 0.224600 0.690390
1.000000 0.224600 0.690390
0.000000 0.359600 0.690390
0.067791 0.359600 0.690390
0.200868 0.359600 0.690390
0.335374 0.359600 0.690390
0.470815 0.359600 0.690390
0.606956 0.359600 0.690390
0.743658 0.359600 0.690390
0.880828 0.359600 0.690390
1.000000 0.359600 0.690390
0.000000 0.494600 0.690390
0.067791 0.494600 0.690390
0.200868 0.494600 0.690390
0.335374 0.494600 0.690390
0.470815 0.494600 0.690390
0.606956 0.494600 0.690390
0.743658 0.494600 0.690390
0.880828 0.494600 0.690390
1.000000 0.494600 0.690390
0.000000 0.629600 0.690390
0.067791 0.629600 0.690390
0.200868 0.629600 0.690390
0.335374 0.629600 0.690390
0.470815 0.629600 0.690390
0.606956 0.629600 0.690390
0.743658 0.629600 0.690390
0.880828 0.629600 0.690390
1.000000 0.629600 0.690390
0.000000 0.764600 0.690390
0.067791 0.764600 0.690390
0.200868 0.764600 0.690390
0.335374 0.764600 0.690390
0.470815 0.764600 0.690390
0.606956 0.764600 0.690390
0.743658 0.764600 0.690390
0.880828 0.764600 0.690390
1.000000 0.764600 0.690390
0.000000 0.899600 0.690390
0.067791 0.899600 0.690390
0.200868 0.899600 0.690390
0.335374 0.899600 0.690390
0.470815 0.899600 0.690390
0.606956 0.899600 0.690390
0.743658 0.899600 0.690390
0.880828 0.899600 0.690390
1.000000 0.899600 0.690390
0.000000 1.000000 0.690390
0.067791 1.000000 0.690390
0.200868 1.000000 0.690390
0.335374 1.000000 0.690390
0.470815 1.000000 0.690390
0.606956 1.000000 0.690390
0.743658 1.000000 0.690390
0.880828 1.000000 0.690390
1.000000 1.000000 0.690390
0.000000 0.000000 0.825552
0.067791 0.000000 0.825552
0.200868 0.000000 0.825552
0.335374 0.000000 0.825552
0.470815 0.000000 0.825552
0.606956 0.000000 0.825552
0.743658 0.000000 0.825552
0.880828 0.000000 0.825552
1.000000 0.000000 0.825552
0.000000 0.089600 0.825552
0.067791 0.089600 0.825552
0.200868 0.089600 0.825552
0.335374 0.089600 0.825552
0.470815 0.089600 0.825552
0.606956 0.089600 0.825552
0.743658 0.089600 0.825552
0.880828 0.089600 0.825552
1.000000 0.089600 0.825552
0.000000 0.224600 0.825552
0.067791 0.224600 0.825552
0.200868 0.224600 0.825552
0.335374 0.224600 0.825552
0.470815 0.224600 0.825552
0.606956 0.224600 0.825552
0.743658 0.224600 0.825552
0.880828 0.224600 0.825552
1.000000 0.224600 0.825552
0.000000 0.359600 0.825552
0.067791 0.359600 0.825552
0.200868 0.359600 0.825552
0.335374 0.359600 0.825552
0.470815 0.359600 0.825552
0.606956 0.359600 0.825552
0.743658 0.359600 0.825552
0.880828 0.359600 0.825552
1.000000 0.359600 0.825552
0.000000 0.494600 0.825552
0.067791 0.494600 0.825552
0.200868 0.494600 0.825552
0.335374 0.494600 0.825552
0.470815 0.494600 0.825552
0.606956 0.494600 0.825552
0.743658 0.494600 0.825552
0.880828 0.494600 0.825552
1.000000 0.494600 0.825552
0.000000 0.629600 0.825552
0.067791 0.629600 0.825552
0.200868 0.629600 0.825552
0.335374 0.629600 0.825552
0.470815 0.629600 0.825552
0.606956 0.629600 0.825552
0.743658 0.629600 0.825552
0.880828 0.629600 0.825552
1.000000 0.629600 0.825552
0.000000 0.764600 0.825552
0.067791 0.764600 0.825552
0.200868 0.764600 0.825552
0.335374 0.764600 0.825552
0.470815 0.764600 0.825552
0.606956 0.764600 0.825552
0.743658 0.764600 0.825552
0.880828 0.764600 0.825552
1.000000 0.764600 0.825552
0.000000 0.899600 0.825552
0.067791 0.899600 0.825552
0.200868 0.899600 0.825552
0.335374 0.899600 0.825552
0.470815 0.899600 0.825552
0.606956 0.899600 0.825552
0.743658 0.899600 0.825552
0.880828 0.899600 0.825552
1.000000 0.899600 0.825552
0.000000 1.000000 0.825552
0.067791 1.000000 0.825552
0.200868 1.000000 0.825552
0.335374 1.000000 0.825552
0.470815 1.000000 0.825552
0.606956 1.000000 0.825552
0.743658 1.000000 0.825552
0.880828 1.000000 0.825552
1.000000 1.000000 0.825552
0.000000 0.000000 0.960056
0.067791 0.000000 0.960056
0.200868 0.000000 0.960056
0.335374 0.000000 0.960056
0.470815 0.000000 0.960056
0.606956 0.000000 0.960056
0.743658 0.000000 0.960056
0.880828 0.000000 0.960056
1.000000 0.000000 0.960056
0.000000 0.089600 0.960056
0.067791 0.089600 0.960056
0.200868 0.089600 0.960056
0.335374 0.089600 0.960056
0.470815 0.089600 0.960056
0.606956 0.089600 0.960056
0.743658 0.089600 0.960056
0.880828 0.089600 0.960056
1.000000 0.089600 0.960056
0.000000 0.224600 0.960056
0.067791 0.224600 0.960056
0.200868 0.224600 0.960056
0.335374 0.224600 0.960056
0.470815 0.224600 0.960056
0.606956 0.224600 0.960056
0.743658 0.224600 0.960056
0.880828 0.224600 0.960056
1.000000 0.224600 0.960056
0.000000 0.359600 0.960056
0.067791 0.359600 0.960056
0.200868 0.359600 0.960056
0.335374 0.359600 0.960056
0.470815 0.359600 0.960056
0.606956 0.359600 0.960056
0.743658 0.359600 0.960056
0.880828 0.359600 0.960056
1.000000 0.359600 0.960056
0.000000 0.494600 0.960056
0.067791 0.494600 0.960056
0.200868 0.494600 0.960056
0.335374 0.494600 0.960056
0.470815 0.494600 0.960056
0.606956 0.494600 0.960056
0.743658 0.494600 0.960056
0.880828 0.494600 0.960056
1.000000 0.494600 0.960056
0.000000 0.629600 0.960056
0.067791 0.629600 0.960056
0.200868 0.629600 0.960056
0.335374 0.629600 0.960056
0.470815 0.629600 0.960056
0.606956 0.629600 0.960056
0.743658 0.629600 0.960056
0.880828 0.629600 0.960056
1.000000 0.629600 0.960056
0.000000 0.764600 0.960056
0.067791 0.764600 0.960056
0.200868 0.764600 0.960056
0.335374 0.764600 0.960056
0.470815 0.764600 0.960056
0.606956 0.764600 0.960056
0.743658 0.764600 0.960056
0.880828 0.764600 0.960056
1.000000 0.764600 0.960056
0.000000 0.899600 0.960056
0.067791 0.899600 0.960056
0.200868 0.899600 0.960056
0.335374 0.899600 0.960056
0.470815 0.899600 0.960056
0.606956 0.899600 0.960056
0.743658 0.899600 0.960056
0.880828 0.899600 0.960056
1.000000 0.899600 0.960056
0.000000 1.000000 0.960056
0.067791 1.000000 0.960056
0.200868 1.000000 0.960056
0.335374 1.000000 0.960056
0.470815 1.000000 0.960056
0.606956 1.000000 0.960056
0.743658 1.000000 0.960056
0.880828 1.000000 0.960056
1.000000 1.000000 0.960056
0.000000 0.000000 1.000000
0.067791 0.000000 1.000000
0.200868 0.000000 1.000000
0.335374 0.000000 1.000000
0.470815 0.000000 1.000000
0.606956 0.000000 1.000000
0.743658 0.000000 1.000000
0.880828 0.000000 1.000000
1.000000 0.000000 1.000000
0.000000 0.089600 1.000000
0.067791 0.089600 1.000000
0.200868 0.089600 1.000000
0.335374 0.089600 1.000000
0.470815 0.089600 1.000000
0.606956 0.089600 1.000000
0.743658 0.089600 1.000000
0.880828 0.089600 1.000000
1.000000 0.089600 1.000000
0.000000 0.224600 1.000000
0.067791 0.224600 1.000000
0.200868 0.224600 1.000000
0.335374 0.224600 1.000000
0.470815 0.224600 1.000000
0.606956 0.224600 1.000000
0.743658 0.224600 1.000000
0.880828 0.224600 1.000000
1.000000 0.224600 1.000000
0.000000 0.359600 1.000000
0.067791 0.359600 1.000000
0.200868 0.359600 1.000000
0.335374 0.359600 1.000000
0.470815 0.359600 1.000000
0.606956 0.359600 1.000000
0.743658 0.359600 1.000000
0.880828 0.359600 1.000000
1.000000 0.359600 1.000000
0.000000 0.494600 1.000000
0.067791 0.494600 1.000000
0.200868 0.494600 1.000000
0.335374 0.494600 1.000000
0.470815 0.494600 1.000000
0.606956 0.494600 1.000000
0.743658 0.494600 1.000000
0.880828 0.494600 1.000000
1.000000 0.494600 1.000000
0.000000 0.629600 1.000000
0.067791 0.629600 1.000000
0.200868 0.629600 1.000000
0.335374 0.629600 1.000000
0.470815 0.629600 1.000000
0.606956 0.629600 1.000000
0.743658 0.629600 1.000000
0.880828 0.629600 1.000000
1.000000 0.629600 1.000000
0.000000 0.764600 1.000000
0.067791 0.764600 1.000000
0.200868 0.764600 1.000000
0.335374 0.764600 1.000000
0.470815 0.764600 1.000000
0.606956 0.764600 1.000000
0.743658 0.764600 1.000000
0.880828 0.764600 1.000000
1.000000 0.764600 1.000000
0.000000 0.899600 1.000000
0.067791 0.899600 1.000000
0.200868 0.899600 1.000000
0.335374 0.899600 1.000000
0.470815 0.899600 1.000000
0.606956 0.899600 1.000000
0.743658 0.899600 1.000000
0.880828 0.899600 1.000000
1.000000 0.899600 1.000000
0.000000 1.000000 1.000000
0.067791 1.000000 1.000000
0.200868 1.000000 1.000000
0.335374 1.000000 1.000000
0.470815 1.000000 1.000000
0.606956 1.000000 1.000000
0.743658 1.000000 1.000000
0.880828 1.000000 1.000000
1.000000 1.000000 1.000000
