Data/Shaders/SimpleGraphicsSuite/LUTs/Nordic Cold.cube
LUT_3D_SIZE 17
0.000000 0.000000 0.000000
0.002187 0.000000 0.000000
0.067791 0.000000 0.000000
0.134099 0.000000 0.000000
0.200868 0.000000 0.000000
0.267983 0.000000 0.000000
0.335374 0.000000 0.000000
0.402995 0.000000 0.000000
0.470815 0.000000 0.000000
0.538808 0.000000 0.000000
0.606956 0.000000 0.000000
0.675244 0.000000 0.000000
0.743658 0.000000 0.000000
0.812189 0.000000 0.000000
0.880828 0.000000 0.000000
0.949567 0.000000 0.000000
1.000000 0.000000 0.000000
0.000000 0.022100 0.000000
0.002187 0.022100 0.000000
0.067791 0.022100 0.000000
0.134099 0.022100 0.000000
0.200868 0.022100 0.000000
0.267983 0.022100 0.000000
0.335374 0.022100 0.000000
0.402995 0.022100 0.000000
0.470815 0.022100 0.000000
0.538808 0.022100 0.000000
0.606956 0.022100 0.000000
0.675244 0.022100 0.000000
0.743658 0.022100 0.000000
0.812189 0.022100 0.000000
0.880828 0.022100 0.000000
0.949567 0.022100 0.000000
1.000000 0.022100 0.000000
0.000000 0.089600 0.000000
0.002187 0.089600 0.000000
0.067791 0.089600 0.000000
0.134099 0.089600 0.000000
0.200868 0.089600 0.000000
0.267983 0.089600 0.000000
0.335374 0.089600 0.000000
0.402995 0.089600 0.000000
0.470815 0.089600 0.000000
0.538808 0.089600 0.000000
0.606956 0.089600 0.000000
0.675244 0.089600 0.000000
0.743658 0.089600 0.000000
0.812189 0.089600 0.000000
0.880828 0.089600 0.000000
0.949567 0.089600 0.000000
1.000000 0.089600 0.000000
0.000000 0.157100 0.000000
0.002187 0.157100 0.000000
0.067791 0.157100 0.000000
0.134099 0.157100 0.000000
0.200868 0.157100 0.000000
0.267983 0.157100 0.000000
0.335374 0.157100 0.000000
0.402995 0.157100 0.000000
0.470815 0.157100 0.000000
0.538808 0.157100 0.000000
0.606956 0.157100 0.000000
0.675244 0.157100 0.000000
0.743658 0.157100 0.000000
0.812189 0.157100 0.000000
0.880828 0.157100 0.000000
0.949567 0.157100 0.000000
1.000000 0.157100 0.000000
0.000000 0.224600 0.000000
0.002187 0.224600 0.000000
0.067791 0.224600 0.000000
0.134099 0.224600 0.000000
0.200868 0.224600 0.000000
0.267983 0.224600 0.000000
0.335374 0.224600 0.000000
0.402995 0.224600 0.000000
0.470815 0.224600 0.000000
0.538808 0.224600 0.000000
0.606956 0.224600 0.000000
0.675244 0.224600 0.000000
0.743658 0.224600 0.000000
0.812189 0.224600 0.000000
0.880828 0.224600 0.000000
0.949567 0.224600 0.000000
1.000000 0.224600 0.000000
0.000000 0.292100 0.000000
0.002187 0.292100 0.000000
0.067791 0.292100 0.000000
0.134099 0.292100 0.000000
0.200868 0.292100 0.000000
0.267983 0.292100 0.000000
0.335374 0.292100 0.000000
0.402995 0.292100 0.000000
0.470815 0.292100 0.000000
0.538808 0.292100 0.000000
0.606956 0.292100 0.000000
0.675244 0.292100 0.000000
0.743658 0.292100 0.000000
0.812189 0.292100 0.000000
0.880828 0.292100 0.000000
0.949567 0.292100 0.000000
1.000000 0.292100 0.000000
0.000000 0.359600 0.000000
0.002187 0.359600 0.000000
0.067791 0.359600 0.000000
0.134099 0.359600 0.000000
0.200868 0.359600 0.000000
0.267983 0.359600 0.000000
0.335374 0.359600 0.000000
0.402995 0.359600 0.000000
0.470815 0.359600 0.000000
0.538808 0.359600 0.000000
0.606956 0.359600 0.000000
0.675244 0.359600 0.000000
0.743658 0.359600 0.000000
0.812189 0.359600 0.000000
0.880828 0.359600 0.000000
0.949567 0.359600 0.000000
1.000000 0.359600 0.000000
0.000000 0.427100 0.000000
0.002187 0.427100 0.000000
0.067791 0.427100 0.000000
0.134099 0.427100 0.000000
0.200868 0.427100 0.000000
0.267983 0.427100 0.000000
0.335374 0.427100 0.000000
0.402995 0.427100 0.000000
0.470815 0.427100 0.000000
0.538808 0.427100 0.000000
0.606956 0.427100 0.000000
0.675244 0.427100 0.000000
0.743658 0.427100 0.000000
0.812189 0.427100 0.000000
0.880828 0.427100 0.000000
0.949567 0.427100 0.000000
1.000000 0.427100 0.000000
0.000000 0.494600 0.000000
0.002187 0.494600 0.000000
0.067791 0.494600 0.000000
0.134099 0.494600 0.000000
0.200868 0.494600 0.000000
0.267983 0.494600 0.000000
0.335374 0.494600 0.000000
0.402995 0.494600 0.000000
0.470815 0.494600 0.000000
0.538808 0.494600 0.000000
0.606956 0.494600 0.000000
0.675244 0.494600 0.000000
0.743658 0.494600 0.000000
0.812189 0.494600 0.000000
0.880828 0.494600 0.000000
0.949567 0.494600 0.000000
1.000000 0.494600 0.000000
0.000000 0.562100 0.000000
0.002187 0.562100 0.000000
0.067791 0.562100 0.000000
0.134099 0.562100 0.000000
0.200868 0.562100 0.000000
0.267983 0.562100 0.000000
0.335374 0.562100 0.000000
0.402995 0.562100 0.000000
0.470815 0.562100 0.000000
0.538808 0.562100 0.000000
0.606956 0.562100 0.000000
0.675244 0.562100 0.000000
0.743658 0.562100 0.000000
0.812189 0.562100 0.000000
0.880828 0.562100 0.000000
0.949567 0.562100 0.000000
1.000000 0.562100 0.000000
0.000000 0.629600 0.000000
0.002187 0.629600 0.000000
0.067791 0.629600 0.000000
0.134099 0.629600 0.000000
0.200868 0.629600 0.000000
0.267983 0.629600 0.000000
0.335374 0.629600 0.000000
0.402995 0.629600 0.000000
0.470815 0.629600 0.000000
0.538808 0.629600 0.000000
0.606956 0.629600 0.000000
0.675244 0.629600 0.000000
0.743658 0.629600 0.000000
0.812189 0.629600 0.000000
0.880828 0.629600 0.000000
0.949567 0.629600 0.000000
1.000000 0.629600 0.000000
0.000000 0.697100 0.000000
0.002187 0.697100 0.000000
0.067791 0.697100 0.000000
0.134099 0.697100 0.000000
0.200868 0.697100 0.000000
0.267983 0.697100 0.000000
0.335374 0.697100 0.000000
0.402995 0.697100 0.000000
0.470815 0.697100 0.000000
0.538808 0.697100 0.000000
0.606956 0.697100 0.000000
0.675244 0.697100 0.000000
0.743658 0.697100 0.000000
0.812189 0.697100 0.000000
0.880828 0.697100 0.000000
0.949567 0.697100 0.000000
1.000000 0.697100 0.000000
0.000000 0.764600 0.000000
0.002187 0.764600 0.000000
0.067791 0.764600 0.000000
0.134099 0.764600 0.000000
0.200868 0.764600 0.000000
0.267983 0.764600 0.000000
0.335374 0.764600 0.000000
0.402995 0.764600 0.000000
0.470815 0.764600 0.000000
0.538808 0.764600 0.000000
0.606956 0.764600 0.000000
0.675244 0.764600 0.000000
0.743658 0.764600 0.000000
0.812189 0.764600 0.000000
0.880828 0.764600 0.000000
0.949567 0.764600 0.000000
1.000000 0.764600 0.000000
0.000000 0.832100 0.000000
0.002187 0.832100 0.000000
0.067791 0.832100 0.000000
0.134099 0.832100 0.000000
0.200868 0.832100 0.000000
0.267983 0.832100 0.000000
0.335374 0.832100 0.000000
0.402995 0.832100 0.000000
0.470815 0.832100 0.000000
0.538808 0.832100 0.000000
0.606956 0.832100 0.000000
0.675244 0.832100 0.000000
0.743658 0.832100 0.000000
0.812189 0.832100 0.000000
0.880828 0.832100 0.000000
0.949567 0.832100 0.000000
1.000000 0.832100 0.000000
0.000000 0.899600 0.000000
0.002187 0.899600 0.000000
0.067791 0.899600 0.000000
0.134099 0.899600 0.000000
0.200868 0.899600 0.000000
0.267983 0.899600 0.000000
0.335374 0.899600 0.000000
0.402995 0.899600 0.000000
0.470815 0.899600 0.000000
0.538808 0.899600 0.000000
0.606956 0.899600 0.000000
0.675244 0.899600 0.000000
0.743658 0.899600 0.000000
0.812189 0.899600 0.000000
0.880828 0.899600 0.000000
0.949567 0.899600 0.000000
1.000000 0.899600 0.000000
0.000000 0.967100 0.000000
0.002187 0.967100 0.000000
0.067791 0.967100 0.000000
0.134099 0.967100 0.000000
0.200868 0.967100 0.000000
0.267983 0.967100 0.000000
0.335374 0.967100 0.000000
0.402995 0.967100 0.000000
0.470815 0.967100 0.000000
0.538808 0.967100 0.000000
0.606956 0.967100 0.000000
0.675244 0.967100 0.000000
0.743658 0.967100 0.000000
0.812189 0.967100 0.000000
0.880828 0.967100 0.000000
0.949567 0.967100 0.000000
1.000000 0.967100 0.000000
0.000000 1.000000 0.000000
0.002187 1.000000 0.000000
0.067791 1.000000 0.000000
0.134099 1.000000 0.000000
0.200868 1.000000 0.000000
0.267983 1.000000 0.000000
0.335374 1.000000 0.000000
0.402995 1.000000 0.000000
0.470815 1.000000 0.000000
0.538808 1.000000 0.000000
0.606956 1.000000 0.000000
0.675244 1.000000 0.000000
0.743658 1.000000 0.000000
0.812189 1.000000 0.000000
0.880828 1.000000 0.000000
0.949567 1.000000 0.000000
1.000000 1.000000 0.000000
0.000000 0.000000 0.067041
0.002187 0.000000 0.067041
0.067791 0.000000 0.067041
0.134099 0.000000 0.067041
0.200868 0.000000 0.067041
0.267983 0.000000 0.067041
0.335374 0.000000 0.067041
0.402995 0.000000 0.067041
0.470815 0.000000 0.067041
0.538808 0.000000 0.067041
0.606956 0.000000 0.067041
0.675244 0.000000 0.067041
0.743658 0.000000 0.067041
0.812189 0.000000 0.067041
0.880828 0.000000 0.067041
0.949567 0.000000 0.067041
1.000000 0.000000 0.067041
0.000000 0.022100 0.067041
0.002187 0.022100 0.067041
0.067791 0.022100 0.067041
0.134099 0.022100 0.067041
0.200868 0.022100 0.067041
0.267983 0.022100 0.067041
0.335374 0.022100 0.067041
0.402995 0.022100 0.067041
0.470815 0.022100 0.067041
0.538808 0.022100 0.067041
0.606956 0.022100 0.067041
0.675244 0.022100 0.067041
0.743658 0.022100 0.067041
0.812189 0.022100 0.067041
0.880828 0.022100 0.067041
0.949567 0.022100 0.067041
1.000000 0.022100 0.067041
0.000000 0.089600 0.067041
0.002187 0.089600 0.067041
0.067791 0.089600 0.067041
0.134099 0.089600 0.067041
0.200868 0.089600 0.067041
0.267983 0.089600 0.067041
0.335374 0.089600 0.067041
0.402995 0.089600 0.067041
0.470815 0.089600 0.067041
0.538808 0.089600 0.067041
0.606956 0.089600 0.067041
0.675244 0.089600 0.067041
0.743658 0.089600 0.067041
0.812189 0.089600 0.067041
0.880828 0.089600 0.067041
0.949567 0.089600 0.067041
1.000000 0.089600 0.067041
0.000000 0.157100 0.067041
0.002187 0.157100 0.067041
0.067791 0.157100 0.067041
0.134099 0.157100 0.067041
0.200868 0.157100 0.067041
0.267983 0.157100 0.067041
0.335374 0.157100 0.067041
0.402995 0.157100 0.067041
0.470815 0.157100 0.067041
0.538808 0.157100 0.067041
0.606956 0.157100 0.067041
0.675244 0.157100 0.067041
0.743658 0.157100 0.067041
0.812189 0.157100 0.067041
0.880828 0.157100 0.067041
0.949567 0.157100 0.067041
1.000000 0.157100 0.067041
0.000000 0.224600 0.067041
0.002187 0.224600 0.067041
0.067791 0.224600 0.067041
0.134099 0.224600 0.067041
0.200868 0.224600 0.067041
0.267983 0.224600 0.067041
0.335374 0.224600 0.067041
0.402995 0.224600 0.067041
0.470815 0.224600 0.067041
0.538808 0.224600 0.067041
0.606956 0.224600 0.067041
0.675244 0.224600 0.067041
0.743658 0.224600 0.067041
0.812189 0.224600 0.067041
0.880828 0.224600 0.067041
0.949567 0.224600 0.067041
1.000000 0.224600 0.067041
0.000000 0.292100 0.067041
0.002187 0.292100 0.067041
0.067791 0.292100 0.067041
0.134099 0.292100 0.067041
0.200868 0.292100 0.067041
0.267983 0.292100 0.067041
0.335374 0.292100 0.067041
0.402995 0.292100 0.067041
0.470815 0.292100 0.067041
0.538808 0.292100 0.067041
0.606956 0.292100 0.067041
0.675244 0.292100 0.067041
0.743658 0.292100 0.067041
0.812189 0.292100 0.067041
0.880828 0.292100 0.067041
0.949567 0.292100 0.067041
1.000000 0.292100 0.067041
0.000000 0.359600 0.067041
0.002187 0.359600 0.067041
0.067791 0.359600 0.067041
0.134099 0.359600 0.067041
0.200868 0.359600 0.067041
0.267983 0.359600 0.067041
0.335374 0.359600 0.067041
0.402995 0.359600 0.067041
0.470815 0.359600 0.067041
0.538808 0.359600 0.067041
0.606956 0.359600 0.067041
0.675244 0.359600 0.067041
0.743658 0.359600 0.067041
0.812189 0.359600 0.067041
0.880828 0.359600 0.067041
0.949567 0.359600 0.067041
1.000000 0.359600 0.067041
0.000000 0.427100 0.067041
0.002187 0.427100 0.067041
0.067791 0.427100 0.067041
0.134099 0.427100 0.067041
0.200868 0.427100 0.067041
0.267983 0.427100 0.067041
0.335374 0.427100 0.067041
0.402995 0.427100 0.067041
0.470815 0.427100 0.067041
0.538808 0.427100 0.067041
0.606956 0.427100 0.067041
0.675244 0.427100 0.067041
0.743658 0.427100 0.067041
0.812189 0.427100 0.067041
0.880828 0.427100 0.067041
0.949567 0.427100 0.067041
1.000000 0.427100 0.067041
0.000000 0.494600 0.067041
0.002187 0.494600 0.067041
0.067791 0.494600 0.067041
0.134099 0.494600 0.067041
0.200868 0.494600 0.067041
0.267983 0.494600 0.067041
0.335374 0.494600 0.067041
0.402995 0.494600 0.067041
0.470815 0.494600 0.067041
0.538808 0.494600 0.067041
0.606956 0.494600 0.067041
0.675244 0.494600 0.067041
0.743658 0.494600 0.067041
0.812189 0.494600 0.067041
0.880828 0.494600 0.067041
0.949567 0.494600 0.067041
1.000000 0.494600 0.067041
0.000000 0.562100 0.067041
0.002187 0.562100 0.067041
0.067791 0.562100 0.067041
0.134099 0.562100 0.067041
0.200868 0.562100 0.067041
0.267983 0.562100 0.067041
0.335374 0.562100 0.067041
0.402995 0.562100 0.067041
0.470815 0.562100 0.067041
0.538808 0.562100 0.067041
0.606956 0.562100 0.067041
0.675244 0.562100 0.067041
0.743658 0.562100 0.067041
0.812189 0.562100 0.067041
0.880828 0.562100 0.067041
0.949567 0.562100 0.067041
1.000000 0.562100 0.067041
0.000000 0.629600 0.067041
0.002187 0.629600 0.067041
0.067791 0.629600 0.067041
0.134099 0.629600 0.067041
0.200868 0.629600 0.067041
0.267983 0.629600 0.067041
0.335374 0.629600 0.067041
0.402995 0.629600 0.067041
0.470815 0.629600 0.067041
0.538808 0.629600 0.067041
0.606956 0.629600 0.067041
0.675244 0.629600 0.067041
0.743658 0.629600 0.067041
0.812189 0.629600 0.067041
0.880828 0.629600 0.067041
0.949567 0.629600 0.067041
1.000000 0.629600 0.067041
0.000000 0.697100 0.067041
0.002187 0.697100 0.067041
0.067791 0.697100 0.067041
0.134099 0.697100 0.067041
0.200868 0.697100 0.067041
0.267983 0.697100 0.067041
0.335374 0.697100 0.067041
0.402995 0.697100 0.067041
0.470815 0.697100 0.067041
0.538808 0.697100 0.067041
0.606956 0.697100 0.067041
0.675244 0.697100 0.067041
0.743658 0.697100 0.067041
0.812189 0.697100 0.067041
0.880828 0.697100 0.067041
0.949567 0.697100 0.067041
1.000000 0.697100 0.067041
0.000000 0.764600 0.067041
0.002187 0.764600 0.067041
0.067791 0.764600 0.067041
0.134099 0.764600 0.067041
0.200868 0.764600 0.067041
0.267983 0.764600 0.067041
0.335374 0.764600 0.067041
0.402995 0.764600 0.067041
0.470815 0.764600 0.067041
0.538808 0.764600 0.067041
0.606956 0.764600 0.067041
0.675244 0.764600 0.067041
0.743658 0.764600 0.067041
0.812189 0.764600 0.067041
0.880828 0.764600 0.067041
0.949567 0.764600 0.067041
1.000000 0.764600 0.067041
0.000000 0.832100 0.067041
0.002187 0.832100 0.067041
0.067791 0.832100 0.067041
0.134099 0.832100 0.067041
0.200868 0.832100 0.067041
0.267983 0.832100 0.067041
0.335374 0.832100 0.067041
0.402995 0.832100 0.067041
0.470815 0.832100 0.067041
0.538808 0.832100 0.067041
0.606956 0.832100 0.067041
0.675244 0.832100 0.067041
0.743658 0.832100 0.067041
0.812189 0.832100 0.067041
0.880828 0.832100 0.067041
0.949567 0.832100 0.067041
1.000000 0.832100 0.067041
0.000000 0.899600 0.067041
0.002187 0.899600 0.067041
0.067791 0.899600 0.067041
0.134099 0.899600 0.067041
0.200868 0.899600 0.067041
0.267983 0.899600 0.067041
0.335374 0.899600 0.067041
0.402995 0.899600 0.067041
0.470815 0.899600 0.067041
0.538808 0.899600 0.067041
0.606956 0.899600 0.067041
0.675244 0.899600 0.067041
0.743658 0.899600 0.067041
0.812189 0.899600 0.067041
0.880828 0.899600 0.067041
0.949567 0.899600 0.067041
1.000000 0.899600 0.067041
0.000000 0.967100 0.067041
0.002187 0.967100 0.067041
0.067791 0.967100 0.067041
0.134099 0.967100 0.067041
0.200868 0.967100 0.067041
0.267983 0.967100 0.067041
0.335374 0.967100 0.067041
0.402995 0.967100 0.067041
0.470815 0.967100 0.067041
0.538808 0.967100 0.067041
0.606956 0.967100 0.067041
0.675244 0.967100 0.067041
0.743658 0.967100 0.067041
0.812189 0.967100 0.067041
0.880828 0.967100 0.067041
0.949567 0.967100 0.067041
1.000000 0.967100 0.067041
0.000000 1.000000 0.067041
0.002187 1.000000 0.067041
0.067791 1.000000 0.067041
0.134099 1.000000 0.067041
0.200868 1.000000 0.067041
0.267983 1.000000 0.067041
0.335374 1.000000 0.067041
0.402995 1.000000 0.067041
0.470815 1.000000 0.067041
0.538808 1.000000 0.067041
0.606956 1.000000 0.067041
0.675244 1.000000 0.067041
0.743658 1.000000 0.067041
0.812189 1.000000 0.067041
0.880828 1.000000 0.067041
0.949567 1.000000 0.067041
1.000000 1.000000 0.067041
0.000000 0.000000 0.138698
0.002187 0.000000 0.138698
0.067791 0.000000 0.138698
0.134099 0.000000 0.138698
0.200868 0.000000 0.138698
0.267983 0.000000 0.138698
0.335374 0.000000 0.138698
0.402995 0.000000 0.138698
0.470815 0.000000 0.138698
0.538808 0.000000 0.138698
0.606956 0.000000 0.138698
0.675244 0.000000 0.138698
0.743658 0.000000 0.138698
0.812189 0.000000 0.138698
0.880828 0.000000 0.138698
0.949567 0.000000 0.138698
1.000000 0.000000 0.138698
0.000000 0.022100 0.138698
0.002187 0.022100 0.138698
0.067791 0.022100 0.138698
0.134099 0.022100 0.138698
0.200868 0.022100 0.138698
0.267983 0.022100 0.138698
0.335374 0.022100 0.138698
0.402995 0.022100 0.138698
0.470815 0.022100 0.138698
0.538808 0.022100 0.138698
0.606956 0.022100 0.138698
0.675244 0.022100 0.138698
0.743658 0.022100 0.138698
0.812189 0.022100 0.138698
0.880828 0.022100 0.138698
0.949567 0.022100 0.138698
1.000000 0.022100 0.138698
0.000000 0.089600 0.138698
0.002187 0.089600 0.138698
0.067791 0.089600 0.138698
0.134099 0.089600 0.138698
0.200868 0.089600 0.138698
0.267983 0.089600 0.138698
0.335374 0.089600 0.138698
0.402995 0.089600 0.138698
0.470815 0.089600 0.138698
0.538808 0.089600 0.138698
0.606956 0.089600 0.138698
0.675244 0.089600 0.138698
0.743658 0.089600 0.138698
0.812189 0.089600 0.138698
0.880828 0.089600 0.138698
0.949567 0.089600 0.138698
1.000000 0.089600 0.138698
0.000000 0.157100 0.138698
0.002187 0.157100 0.138698
0.067791 0.157100 0.138698
0.134099 0.157100 0.138698
0.200868 0.157100 0.138698
0.267983 0.157100 0.138698
0.335374 0.157100 0.138698
0.402995 0.157100 0.138698
0.470815 0.157100 0.138698
0.538808 0.157100 0.138698
0.606956 0.157100 0.138698
0.675244 0.157100 0.138698
0.743658 0.157100 0.138698
0.812189 0.157100 0.138698
0.880828 0.157100 0.138698
0.949567 0.157100 0.138698
1.000000 0.157100 0.138698
0.000000 0.224600 0.138698
0.002187 0.224600 0.138698
0.067791 0.224600 0.138698
0.134099 0.224600 0.138698
0.200868 0.224600 0.138698
0.267983 0.224600 0.138698
0.335374 0.224600 0.138698
0.402995 0.224600 0.138698
0.470815 0.224600 0.138698
0.538808 0.224600 0.138698
0.606956 0.224600 0.138698
0.675244 0.224600 0.138698
0.743658 0.224600 0.138698
0.812189 0.224600 0.138698
0.880828 0.224600 0.138698
0.949567 0.224600 0.138698
1.000000 0.224600 0.138698
0.000000 0.292100 0.138698
0.002187 0.292100 0.138698
0.067791 0.292100 0.138698
0.134099 0.292100 0.138698
0.200868 0.292100 0.138698
0.267983 0.292100 0.138698
0.335374 0.292100 0.138698
0.402995 0.292100 0.138698
0.470815 0.292100 0.138698
0.538808 0.292100 0.138698
0.606956 0.292100 0.138698
0.675244 0.292100 0.138698
0.743658 0.292100 0.138698
0.812189 0.292100 0.138698
0.880828 0.292100 0.138698
0.949567 0.292100 0.138698
1.000000 0.292100 0.138698
0.000000 0.359600 0.138698
0.002187 0.359600 0.138698
0.067791 0.359600 0.138698
0.134099 0.359600 0.138698
0.200868 0.359600 0.138698
0.267983 0.359600 0.138698
0.335374 0.359600 0.138698
0.402995 0.359600 0.138698
0.470815 0.359600 0.138698
0.538808 0.359600 0.138698
0.606956 0.359600 0.138698
0.675244 0.359600 0.138698
0.743658 0.359600 0.138698
0.812189 0.359600 0.138698
0.880828 0.359600 0.138698
0.949567 0.359600 0.138698
1.000000 0.359600 0.138698
0.000000 0.427100 0.138698
0.002187 0.427100 0.138698
0.067791 0.427100 0.138698
0.134099 0.427100 0.138698
0.200868 0.427100 0.138698
0.267983 0.427100 0.138698
0.335374 0.427100 0.138698
0.402995 0.427100 0.138698
0.470815 0.427100 0.138698
0.538808 0.427100 0.138698
0.606956 0.427100 0.138698
0.675244 0.427100 0.138698
0.743658 0.427100 0.138698
0.812189 0.427100 0.138698
0.880828 0.427100 0.138698
0.949567 0.427100 0.138698
1.000000 0.427100 0.138698
0.000000 0.494600 0.138698
0.002187 0.494600 0.138698
0.067791 0.494600 0.138698
0.134099 0.494600 0.138698
0.200868 0.494600 0.138698
0.267983 0.494600 0.138698
0.335374 0.494600 0.138698
0.402995 0.494600 0.138698
0.470815 0.494600 0.138698
0.538808 0.494600 0.138698
0.606956 0.494600 0.138698
0.675244 0.494600 0.138698
0.743658 0.494600 0.138698
0.812189 0.494600 0.138698
0.880828 0.494600 0.138698
0.949567 0.494600 0.138698
1.000000 0.494600 0.138698
0.000000 0.562100 0.138698
0.002187 0.562100 0.138698
0.067791 0.562100 0.138698
0.134099 0.562100 0.138698
0.200868 0.562100 0.138698
0.267983 0.562100 0.138698
0.335374 0.562100 0.138698
0.402995 0.562100 0.138698
0.470815 0.562100 0.138698
0.538808 0.562100 0.138698
0.606956 0.562100 0.138698
0.675244 0.562100 0.138698
0.743658 0.562100 0.138698
0.812189 0.562100 0.138698
0.880828 0.562100 0.138698
0.949567 0.562100 0.138698
1.000000 0.562100 0.138698
0.000000 0.629600 0.138698
0.002187 0.629600 0.138698
0.067791 0.629600 0.138698
0.134099 0.629600 0.138698
0.200868 0.629600 0.138698
0.267983 0.629600 0.138698
0.335374 0.629600 0.138698
0.402995 0.629600 0.138698
0.470815 0.629600 0.138698
0.538808 0.629600 0.138698
0.606956 0.629600 0.138698
0.675244 0.629600 0.138698
0.743658 0.629600 0.138698
0.812189 0.629600 0.138698
0.880828 0.629600 0.138698
0.949567 0.629600 0.138698
1.000000 0.629600 0.138698
0.000000 0.697100 0.138698
0.002187 0.697100 0.138698
0.067791 0.697100 0.138698
0.134099 0.697100 0.138698
0.200868 0.697100 0.138698
0.267983 0.697100 0.138698
0.335374 0.697100 0.138698
0.402995 0.697100 0.138698
0.470815 0.697100 0.138698
0.538808 0.697100 0.138698
0.606956 0.697100 0.138698
0.675244 0.697100 0.138698
0.743658 0.697100 0.138698
0.812189 0.697100 0.138698
0.880828 0.697100 0.138698
0.949567 0.697100 0.138698
1.000000 0.697100 0.138698
0.000000 0.764600 0.138698
0.002187 0.764600 0.138698
0.067791 0.764600 0.138698
0.134099 0.764600 0.138698
0.200868 0.764600 0.138698
0.267983 0.764600 0.138698
0.335374 0.764600 0.138698
0.402995 0.764600 0.138698
0.470815 0.764600 0.138698
0.538808 0.764600 0.138698
0.606956 0.764600 0.138698
0.675244 0.764600 0.138698
0.743658 0.764600 0.138698
0.812189 0.764600 0.138698
0.880828 0.764600 0.138698
0.949567 0.764600 0.138698
1.000000 0.764600 0.138698
0.000000 0.832100 0.138698
0.002187 0.832100 0.138698
0.067791 0.832100 0.138698
0.134099 0.832100 0.138698
0.200868 0.832100 0.138698
0.267983 0.832100 0.138698
0.335374 0.832100 0.138698
0.402995 0.832100 0.138698
0.470815 0.832100 0.138698
0.538808 0.832100 0.138698
0.606956 0.832100 0.138698
0.675244 0.832100 0.138698
0.743658 0.832100 0.138698
0.812189 0.832100 0.138698
0.880828 0.832100 0.138698
0.949567 0.832100 0.138698
1.000000 0.832100 0.138698
0.000000 0.899600 0.138698
0.002187 0.899600 0.138698
0.067791 0.899600 0.138698
0.134099 0.899600 0.138698
0.200868 0.899600 0.138698
0.267983 0.899600 0.138698
0.335374 0.899600 0.138698
0.402995 0.899600 0.138698
0.470815 0.899600 0.138698
0.538808 0.899600 0.138698
0.606956 0.899600 0.138698
0.675244 0.899600 0.138698
0.743658 0.899600 0.138698
0.812189 0.899600 0.138698
0.880828 0.899600 0.138698
0.949567 0.899600 0.138698
1.000000 0.899600 0.138698
0.000000 0.967100 0.138698
0.002187 0.967100 0.138698
0.067791 0.967100 0.138698
0.134099 0.967100 0.138698
0.200868 0.967100 0.138698
0.267983 0.967100 0.138698
0.335374 0.967100 0.138698
0.402995 0.967100 0.138698
0.470815 0.967100 0.138698
0.538808 0.967100 0.138698
0.606956 0.967100 0.138698
0.675244 0.967100 0.138698
0.743658 0.967100 0.138698
0.812189 0.967100 0.138698
0.880828 0.967100 0.138698
0.949567 0.967100 0.138698
1.000000 0.967100 0.138698
0.000000 1.000000 0.138698
0.002187 1.000000 0.138698
0.067791 1.000000 0.138698
0.134099 1.000000 0.138698
0.200868 1.000000 0.138698
0.267983 1.000000 0.138698
0.335374 1.000000 0.138698
0.402995 1.000000 0.138698
0.470815 1.000000 0.138698
0.538808 1.000000 0.138698
0.606956 1.000000 0.138698
0.675244 1.000000 0.138698
0.743658 1.000000 0.138698
0.812189 1.000000 0.138698
0.880828 1.000000 0.138698
0.949567 1.000000 0.138698
1.000000 1.000000 0.138698
0.000000 0.000000 0.209270
0.002187 0.000000 0.209270
0.067791 0.000000 0.209270
0.134099 0.000000 0.209270
0.200868 0.000000 0.209270
0.267983 0.000000 0.209270
0.335374 0.000000 0.209270
0.402995 0.000000 0.209270
0.470815 0.000000 0.209270
0.538808 0.000000 0.209270
0.606956 0.000000 0.209270
0.675244 0.000000 0.209270
0.743658 0.000000 0.209270
0.812189 0.000000 0.209270
0.880828 0.000000 0.209270
0.949567 0.000000 0.209270
1.000000 0.000000 0.209270
0.000000 0.022100 0.209270
0.002187 0.022100 0.209270
0.067791 0.022100 0.209270
0.134099 0.022100 0.209270
