Data/Shaders/SimpleGraphicsSuite/LUTs/Nordic Cold.cube
LUT_3D_SIZE 5
0.000000 0.000000 0.000000
0.200868 0.000000 0.000000
0.470815 0.000000 0.000000
0.743658 0.000000 0.000000
1.000000 0.000000 0.000000
0.000000 0.224600 0.000000
0.200868 0.224600 0.000000
0.470815 0.224600 0.000000
0.743658 0.224600 0.000000
1.000000 0.224600 0.000000
0.000000 0.494600 0.000000
0.200868 0.494600 0.000000
0.470815 0.494600 0.000000
0.743658 0.494600 0.000000
1.000000 0.494600 0.000000
0.000000 0.764600 0.000000
0.200868 0.764600 0.000000
0.470815 0.764600 0.000000
0.743658 0.764600 0.000000
1.000000 0.764600 0.000000
0.000000 1.000000 0.000000
0.200868 1.000000 0.000000
0.470815 1.000000 0.000000
0.743658 1.000000 0.000000
1.000000 1.000000 0.000000
0.000000 0.000000 0.279148
0.200868 0.000000 0.279148
0.470815 0.000000 0.279148
0.743658 0.000000 0.279148
1.000000 0.000000 0.279148
0.000000 0.224600 0.279148
0.200868 0.224600 0.279148
0.470815 0.224600 0.279148
0.743658 0.224600 0.279148
1.000000 0.224600 0.279148
0.000000 0.494600 0.279148
0.200868 0.494600 0.279148
0.470815 0.494600 0.279148
0.743658 0.494600 0.279148
1.000000 0.494600 0.279148
0.000000 0.764600 0.279148
0.200868 0.764600 0.279148
0.470815 0.764600 0.279148
0.743658 0.764600 0.279148
1.000000 0.764600 0.279148
0.000000 1.000000 0.279148
0.200868 1.000000 0.279148
0.470815 1.000000 0.279148
0.743658 1.000000 0.279148
1.000000 1.000000 0.279148
0.000000 0.000000 0.554433
0.200868 0.000000 0.554433
0.470815 0.000000 0.554433
0.743658 0.000000 0.554433
1.000000 0.000000 0.554433
0.000000 0.224600 0.554433
0.200868 0.224600 0.554433
0.470815 0.224600 0.554433
0.743658 0.224600 0.554433
1.000000 0.224600 0.554433
0.000000 0.494600 0.554433
0.200868 0.494600 0.554433
0.470815 0.494600 0.554433
0.743658 0.494600 0.554433
1.000000 0.494600 0.554433
0.000000 0.764600 0.554433
0.200868 0.764600 0.554433
0.470815 0.764600 0.554433
0.743658 0.764600 0.554433
1.000000 0.764600 0.554433
0.000000 1.000000 0.554433
0.200868 1.000000 0.554433
0.470815 1.000000 0.554433
0.743658 1.000000 0.554433
1.000000 1.000000 0.554433
0.000000 0.000000 0.825552
0.200868 0.000000 0.825552
0.470815 0.000000 0.825552
0.743658 0.000000 0.825552
1.000000 0.000000 0.825552
0.000000 0.224600 0.825552
0.200868 0.224600 0.825552
0.470815 0.224600 0.825552
0.743658 0.224600 0.825552
1.000000 0.224600 0.825552
0.000000 0.494600 0.825552
0.200868 0.494600 0.825552
0.470815 0.494600 0.825552
0.743658 0.494600 0.825552
1.000000 0.494600 0.825552
0.000000 0.764600 0.825552
0.200868 0.764600 0.825552
0.470815 0.764600 0.825552
0.743658 0.764600 0.825552
1.000000 0.764600 0.825552
0.000000 1.000000 0.825552
0.200868 1.000000 0.825552
0.470815 1.000000 0.825552
0.743658 1.000000 0.825552
1.000000 1.000000 0.825552
0.000000 0.000000 1.000000
0.200868 0.000000 1.000000
0.470815 0.000000 1.000000
0.743658 0.000000 1.000000
1.000000 0.000000 1.000000
0.000000 0.224600 1.000000
0.200868 0.224600 1.000000
0.470815 0.224600 1.000000
0.743658 0.224600 1.000000
1.000000 0.224600 1.000000
0.000000 0.494600 1.000000
0.200868 0.494600 1.000000
0.470815 0.494600 1.000000
0.743658 0.494600 1.000000
1.000000 0.494600 1.000000
0.000000 0.764600 1.000000
0.200868 0.764600 1.000000
0.470815 0.764600 1.000000
0.743658 0.764600 1.000000
1.000000 0.764600 1.000000
0.000000 1.000000 1.000000
0.200868 1.000000 1.000000
0.470815 1.000000 1.000000
0.743658 1.000000 1.000000
1.000000 1.000000 1.000000
