Data/Shaders/SimpleGraphicsSuite/LUTs/Teal and Orange.cube
LUT_3D_SIZE 17
0.000000 0.004573 0.072613
0.000000 0.003763 0.071661
0.000000 0.002774 0.070258
0.058347 0.001616 0.068428
0.130040 0.000299 0.066196
0.202113 0.000000 0.063589
0.274542 0.000000 0.060632
0.347300 0.000000 0.057349
0.420362 0.000000 0.053767
0.493702 0.000000 0.049911
0.567295 0.000000 0.045806
0.641114 0.000000 0.041477
0.715134 0.000000 0.036950
0.789329 0.000000 0.032250
0.863674 0.000000 0.027403
0.938143 0.000000 0.022433
1.000000 0.000000 0.017367
0.000000 0.072029 0.067660
0.000000 0.070658 0.065289
0.000000 0.069140 0.062552
0.062566 0.067488 0.059473
0.135437 0.065711 0.056079
0.208604 0.063819 0.052394
0.282039 0.061822 0.048444
0.355717 0.059731 0.044254
0.429612 0.057554 0.039851
0.503699 0.055303 0.035258
0.577952 0.052986 0.030501
0.652345 0.050615 0.025606
0.726852 0.048200 0.020599
0.801449 0.045750 0.015504
0.876108 0.043275 0.010346
0.950804 0.040785 0.005152
1.000000 0.038292 0.000000
0.000000 0.137730 0.058273
0.000000 0.135910 0.054770
0.000000 0.133979 0.050985
0.070407 0.131946 0.046945
0.144167 0.129822 0.042675
0.218135 0.127617 0.038199
0.292286 0.125341 0.033544
0.366593 0.123004 0.028734
0.441030 0.120616 0.023795
0.515573 0.118186 0.018753
0.590195 0.115726 0.013632
0.664871 0.113245 0.008458
0.739575 0.110753 0.003257
0.814281 0.108259 0.000000
0.888963 0.105776 0.000000
0.963597 0.103311 0.000000
1.000000 0.100876 0.000000
0.000000 0.202058 0.045416
0.000000 0.199904 0.041068
0.006683 0.197671 0.036524
0.080893 0.195372 0.031809
0.155251 0.193015 0.026949
0.229730 0.190610 0.021970
0.304304 0.188169 0.016896
0.378949 0.185700 0.011753
0.453638 0.183213 0.006567
0.528346 0.180719 0.001362
0.603046 0.178229 0.000000
0.677714 0.175751 0.000000
0.752323 0.173295 0.000000
0.826847 0.170873 0.000000
0.901262 0.168494 0.000000
0.975541 0.166167 0.000000
1.000000 0.163904 0.000000
0.000000 0.265395 0.030055
0.000000 0.263019 0.025149
0.018442 0.260600 0.020132
0.093045 0.258147 0.015030
0.167709 0.255671 0.009869
0.242408 0.253181 0.004673
0.317116 0.250687 0.000000
0.391807 0.248199 0.000000
0.466456 0.245729 0.000000
0.541037 0.243284 0.000000
0.615525 0.240876 0.000000
0.689893 0.238515 0.000000
0.764116 0.236211 0.000000
0.838169 0.233973 0.000000
0.912025 0.231811 0.000000
0.985658 0.229737 0.000000
1.000000 0.227759 0.000000
0.000000 0.328123 0.013157
0.000000 0.325640 0.007980
0.031178 0.323148 0.002777
0.105883 0.320655 0.000000
0.180562 0.318172 0.000000
0.255190 0.315710 0.000000
0.329740 0.313278 0.000000
0.404187 0.310886 0.000000
0.478505 0.308544 0.000000
0.552669 0.306263 0.000000
0.626653 0.304051 0.000000
0.700431 0.301921 0.000000
0.773977 0.299880 0.000000
0.847266 0.297940 0.000000
0.920272 0.296111 0.000000
0.992970 0.294402 0.000000
1.000000 0.292824 0.000000
0.000000 0.390624 0.000000
0.000000 0.388148 0.000000
0.043913 0.385696 0.000000
0.118429 0.383277 0.000000
0.192832 0.380902 0.000000
0.267097 0.378581 0.000000
0.341198 0.376324 0.000000
0.415110 0.374141 0.000000
0.488807 0.372042 0.000000
0.562262 0.370037 0.000000
0.635451 0.368136 0.000000
0.708348 0.366349 0.000000
0.780926 0.364687 0.000000
0.853161 0.363158 0.000000
0.925026 0.361774 0.000000
0.996496 0.360544 0.000000
1.000000 0.359479 0.000000
0.000000 0.453282 0.000000
0.000000 0.450925 0.000000
0.055667 0.448626 0.000000
0.129702 0.446395 0.000000
0.203539 0.444241 0.000000
0.277150 0.442175 0.000000
0.350512 0.440207 0.000000
0.423597 0.438347 0.000000
0.496381 0.436604 0.000000
0.568837 0.434989 0.000000
0.640940 0.433512 0.000000
0.712665 0.432183 0.000000
0.783984 0.431012 0.000000
0.854873 0.430009 0.000000
0.925306 0.429184 0.000000
0.995621 0.428542 0.000000
1.000000 0.428074 0.000000
0.000000 0.516476 0.000000
0.000000 0.514354 0.000000
0.065461 0.512322 0.000000
0.138725 0.510392 0.000000
0.211704 0.508573 0.000000
0.284371 0.506876 0.000000
0.356702 0.505310 0.000000
0.428670 0.503886 0.000000
0.500250 0.502613 0.000000
0.571415 0.501502 0.000000
0.642142 0.500562 0.000000
0.712437 0.499804 0.000000
0.782881 0.499227 0.000000
0.853675 0.498820 0.000000
0.924799 0.498574 0.000000
0.996233 0.498479 0.000000
1.000000 0.498525 0.000000
0.000000 0.580591 0.000000
0.000000 0.578816 0.000000
0.072316 0.577165 0.000000
0.144518 0.575650 0.000000
0.216348 0.574279 0.000000
0.287780 0.573064 0.000000
0.358789 0.572014 0.000000
0.429348 0.571140 0.000000
0.499613 0.570449 0.000000
0.570187 0.569934 0.000000
0.641104 0.569587 0.000000
0.712343 0.569397 0.000000
0.783884 0.569355 0.000000
0.855709 0.569450 0.000000
0.927795 0.569674 0.000000
1.000000 0.570016 0.000000
1.000000 0.570467 0.000000
0.000000 0.646008 0.000000
0.003973 0.644693 0.000000
0.075254 0.643537 0.000000
0.146102 0.642550 0.000000
0.216492 0.641742 0.000000
0.286838 0.641116 0.000000
0.357539 0.640664 0.000000
0.428575 0.640375 0.000000
0.499927 0.640240 0.000000
0.571573 0.640249 0.000000
0.643495 0.640393 0.000000
0.715673 0.640660 0.000000
0.788086 0.641043 0.000000
0.860714 0.641531 0.000000
0.933538 0.642115 0.000000
1.000000 0.642784 0.000000
1.000000 0.643528 0.000000
0.000000 0.713110 0.000000
0.003632 0.712368 0.000000
0.074109 0.711807 0.000000
0.144935 0.711415 0.000000
0.216088 0.711184 0.000000
0.287549 0.711102 0.000000
0.359299 0.711161 0.000000
0.431316 0.711351 0.000000
0.503582 0.711662 0.000000
0.576075 0.712084 0.000000
0.648777 0.712608 0.000000
0.721667 0.713224 0.000000
0.794726 0.713921 0.000000
0.867933 0.714692 0.000000
0.941268 0.715524 0.000000
1.000000 0.716410 0.000000
1.000000 0.717339 0.000000
0.000000 0.782188 0.000000
0.003642 0.782012 0.000000
0.075210 0.781983 0.000000
0.147060 0.782091 0.000000
0.219170 0.782326 0.000000
0.291521 0.782678 0.000000
0.364092 0.783139 0.000000
0.436865 0.783697 0.000000
0.509819 0.784344 0.000000
0.582934 0.785069 0.000000
0.656190 0.785863 0.000000
0.729567 0.786716 0.000000
0.803045 0.787619 0.000000
0.876605 0.788561 0.000000
0.950226 0.789533 0.000000
1.000000 0.790526 0.000000
1.000000 0.791529 0.000000
0.000000 0.853037 0.000000
0.007055 0.853316 0.000000
0.079489 0.853709 0.000000
0.152136 0.854206 0.000000
0.224977 0.854798 0.000000
0.297992 0.855474 0.000000
0.371160 0.856226 0.000000
0.444463 0.857042 0.000000
0.517879 0.857915 0.000000
0.591390 0.858833 0.000000
0.664974 0.859787 0.000000
0.738612 0.860768 0.000000
0.812285 0.861765 0.000000
0.885972 0.862769 0.000000
0.959653 0.863771 0.000000
1.000000 0.864760 0.000000
1.000000 0.865726 0.000000
0.000000 0.925286 0.000000
0.013112 0.925910 0.000000
0.086185 0.926615 0.000000
0.159405 0.927391 0.000000
0.232751 0.928229 0.000000
0.306204 0.929119 0.000000
0.379743 0.930052 0.000000
0.453350 0.931017 0.000000
0.527003 0.932005 0.000000
0.600683 0.933006 0.000000
0.674370 0.934010 0.000000
0.748044 0.935008 0.000000
0.821685 0.935990 0.000000
0.895273 0.936946 0.000000
0.968788 0.937867 0.000000
1.000000 0.938742 0.000000
1.000000 0.939562 0.000000
0.000000 0.998564 0.000000
0.021053 0.999423 0.000000
0.094540 1.000000 0.000000
0.168106 1.000000 0.000000
0.241732 1.000000 0.000000
0.315397 1.000000 0.000000
0.389082 1.000000 0.000000
0.462766 1.000000 0.000000
0.536431 1.000000 0.000000
0.610055 1.000000 0.000000
0.683619 1.000000 0.000000
0.757102 1.000000 0.000000
0.830486 1.000000 0.000000
0.903750 1.000000 0.000000
0.976873 1.000000 0.000000
1.000000 1.000000 0.000000
1.000000 1.000000 0.000000
0.000000 1.000000 0.000000
0.030119 1.000000 0.000000
0.103794 1.000000 0.000000
0.177481 1.000000 0.000000
0.251160 1.000000 0.000000
0.324812 1.000000 0.000000
0.398417 1.000000 0.000000
0.471954 1.000000 0.000000
0.545403 1.000000 0.000000
0.618746 1.000000 0.000000
0.691961 1.000000 0.000000
0.765028 1.000000 0.000000
0.837929 1.000000 0.000000
0.910642 1.000000 0.000000
0.983149 1.000000 0.000000
1.000000 1.000000 0.000000
1.000000 1.000000 0.000000
0.000000 0.004319 0.143217
0.000000 0.003447 0.142109
0.000000 0.002399 0.140558
0.058581 0.001186 0.138589
0.130405 0.000000 0.136227
0.202602 0.000000 0.133498
0.275146 0.000000 0.130427
0.348010 0.000000 0.127040
0.421169 0.000000 0.123362
0.494598 0.000000 0.119419
0.568270 0.000000 0.115235
0.642161 0.000000 0.110836
0.716243 0.000000 0.106247
0.790492 0.000000 0.101494
0.864882 0.000000 0.096603
0.939387 0.000000 0.091597
1.000000 0.000000 0.086504
0.000000 0.071580 0.137773
0.000000 0.070158 0.135274
0.000000 0.068594 0.132418
0.063209 0.066898 0.129230
0.136184 0.065081 0.125734
0.209444 0.063152 0.121956
0.282965 0.061122 0.117922
0.356719 0.059000 0.113657
0.430683 0.056797 0.109186
0.504829 0.054523 0.104534
0.579132 0.052187 0.099728
0.653567 0.049800 0.094792
0.728107 0.047371 0.089752
0.802728 0.044911 0.084633
0.877403 0.042431 0.079460
0.952106 0.039939 0.074260
1.000000 0.037445 0.069056
0.000000 0.137125 0.127991
0.000000 0.135266 0.124390
0.000000 0.133299 0.120516
0.071362 0.131235 0.116394
0.145196 0.129082 0.112051
0.219229 0.126852 0.107512
0.293435 0.124554 0.102801
0.367789 0.122198 0.097945
0.442265 0.119795 0.092968
0.516838 0.117354 0.087896
0.591481 0.114885 0.082755
0.666169 0.112399 0.077569
0.740877 0.109905 0.072364
0.815578 0.107414 0.067166
0.890246 0.104936 0.061999
0.964857 0.102480 0.056890
1.000000 0.100057 0.051863
0.000000 0.201336 0.114838
0.000000 0.199154 0.110420
0.007798 0.196898 0.105815
0.082061 0.194577 0.101049
0.156463 0.192203 0.096146
0.230977 0.189785 0.091131
0.305578 0.187333 0.086031
0.380241 0.184857 0.080871
0.454939 0.182367 0.075675
0.529647 0.179873 0.070470
0.604339 0.177385 0.065280
0.678990 0.174914 0.060131
0.753573 0.172469 0.055049
0.828063 0.170060 0.050058
0.902434 0.167697 0.045185
0.976661 0.165391 0.040454
1.000000 0.163151 0.035891
0.000000 0.264594 0.099278
0.000000 0.262202 0.094332
0.019700 0.259771 0.089283
0.094326 0.257308 0.084158
0.169005 0.254826 0.078982
0.243710 0.252334 0.073780
0.318415 0.249841 0.068577
0.393095 0.247358 0.063399
0.467724 0.244895 0.058272
0.542276 0.242462 0.053220
0.616726 0.240069 0.048269
0.691048 0.237726 0.043445
0.765216 0.235443 0.038772
0.839204 0.233230 0.034276
0.912988 0.231097 0.029983
0.986540 0.229054 0.025917
1.000000 0.227111 0.022105
0.000000 0.327282 0.082278
0.000000 0.324794 0.077089
0.032480 0.322301 0.071884
0.107179 0.319810 0.066688
0.181844 0.317333 0.061525
0.256448 0.314880 0.056423
0.330966 0.312460 0.051405
0.405372 0.310084 0.046497
0.479641 0.307762 0.041725
0.553747 0.305503 0.037113
0.627663 0.303318 0.032688
0.701365 0.301217 0.028475
0.774827 0.299210 0.024499
0.848023 0.297306 0.020785
0.920927 0.295516 0.017358
0.993514 0.293851 0.014245
1.000000 0.292319 0.011471
0.000000 0.389781 0.064803
0.000000 0.387312 0.059659
0.045160 0.384870 0.054585
0.119641 0.382465 0.049604
0.194000 0.380107 0.044742
0.268212 0.377807 0.040026
0.342252 0.375574 0.035479
0.416094 0.373418 0.031128
0.489711 0.371350 0.026998
0.563079 0.369379 0.023115
0.636172 0.367516 0.019503
0.708963 0.365770 0.016187
0.781428 0.364152 0.013195
0.853540 0.362672 0.010549
0.925274 0.361339 0.008277
0.996603 0.360164 0.006404
1.000000 0.359156 0.004954
0.000000 0.452475 0.047819
0.000000 0.450137 0.043007
0.056761 0.447860 0.038350
0.130732 0.445654 0.033871
0.204495 0.443529 0.029598
0.278024 0.441496 0.025555
0.351295 0.439563 0.021767
0.424281 0.437741 0.018260
0.496956 0.436041 0.015059
0.569295 0.434472 0.012190
0.641273 0.433044 0.009678
0.712862 0.431767 0.007548
0.784039 0.430652 0.005826
0.854776 0.429708 0.004536
0.925077 0.428945 0.003676
0.995513 0.428364 0.002667
1.000000 0.427953 0.001291
0.000000 0.515746 0.032291
0.000000 0.513653 0.028098
0.066303 0.511655 0.024145
0.139473 0.509761 0.020456
0.212349 0.507983 0.017058
0.284904 0.506329 0.013975
0.357115 0.504810 0.011233
0.428954 0.503436 0.008857
0.500396 0.502217 0.006872
0.571416 0.501163 0.005305
0.641986 0.500284 0.004179
0.712250 0.499588 0.003353
0.782816 0.499070 0.002207
0.853724 0.498719 0.000702
0.924955 0.498525 0.000000
0.996490 0.498479 0.000000
1.000000 0.498571 0.000000
0.000000 0.579975 0.019184
0.000374 0.578241 0.015898
0.072807 0.576635 0.012936
0.144885 0.575167 0.010324
0.216583 0.573849 0.008088
0.287874 0.572689 0.006252
0.358733 0.571697 0.004842
0.429134 0.570884 0.003884
0.499471 0.570255 0.002979
0.570164 0.569798 0.001700
0.641192 0.569505 0.000069
0.712536 0.569367 0.000000
0.784176 0.569372 0.000000
0.856092 0.569512 0.000000
0.928263 0.569777 0.000000
1.000000 0.570158 0.000000
1.000000 0.570643 0.000000
0.000000 0.645545 0.009465
0.004158 0.644282 0.007372
0.075295 0.643183 0.005688
0.145990 0.642255 0.004440
0.216271 0.641509 0.003599
0.286740 0.640944 0.002555
0.357557 0.640548 0.001146
0.428703 0.640313 0.000000
0.500157 0.640228 0.000000
0.571899 0.640283 0.000000
0.643910 0.640470 0.000000
0.716170 0.640778 0.000000
0.788658 0.641198 0.000000
0.861355 0.641719 0.000000
0.934241 0.642333 0.000000
1.000000 0.643028 0.000000
1.000000 0.643797 0.000000
0.000000 0.712837 0.004099
0.003457 0.712158 0.003263
0.074055 0.711656 0.002083
0.144994 0.711319 0.000546
0.216254 0.711140 0.000000
0.287815 0.711107 0.000000
0.359658 0.711212 0.000000
0.431761 0.711444 0.000000
0.504107 0.711793 0.000000
0.576673 0.712251 0.000000
0.649441 0.712807 0.000000
0.722391 0.713452 0.000000
0.795502 0.714175 0.000000
0.868755 0.714968 0.000000
0.942130 0.715820 0.000000
1.000000 0.716721 0.000000
1.000000 0.717663 0.000000
0.000000 0.782111 0.000000
0.003845 0.781986 0.000000
0.075511 0.782005 0.000000
0.147451 0.782157 0.000000
0.219645 0.782433 0.000000
0.292073 0.782823 0.000000
0.364715 0.783318 0.000000
0.437552 0.783907 0.000000
0.510563 0.784582 0.000000
0.583728 0.785331 0.000000
0.657027 0.786147 0.000000
0.730441 0.787018 0.000000
0.803949 0.787935 0.000000
0.877532 0.788889 0.000000
0.951169 0.789869 0.000000
1.000000 0.790866 0.000000
1.000000 0.791870 0.000000
0.000000 0.853118 0.000000
0.007559 0.853437 0.000000
0.080068 0.853867 0.000000
0.152783 0.854397 0.000000
0.225685 0.855018 0.000000
0.298754 0.855721 0.000000
0.371971 0.856496 0.000000
0.445314 0.857333 0.000000
0.518765 0.858222 0.000000
0.592302 0.859153 0.000000
0.665907 0.860118 0.000000
0.739560 0.861105 0.000000
0.813239 0.862106 0.000000
0.886926 0.863110 0.000000
0.960601 0.864109 0.000000
1.000000 0.865091 0.000000
1.000000 0.866048 0.000000
0.000000 0.925488 0.000000
0.013841 0.926140 0.000000
0.086966 0.926871 0.000000
0.160231 0.927669 0.000000
0.233615 0.928526 0.000000
0.307100 0.929432 0.000000
0.380664 0.930376 0.000000
0.454289 0.931350 0.000000
0.527954 0.932344 0.000000
0.601638 0.933347 0.000000
0.675323 0.934350 0.000000
0.748988 0.935344 0.000000
0.822613 0.936318 0.000000
0.896179 0.937263 0.000000
0.969665 0.938169 0.000000
1.000000 0.939027 0.000000
1.000000 0.939826 0.000000
0.000000 0.998850 0.000000
0.021930 0.999726 0.000000
0.095446 1.000000 0.000000
0.169035 1.000000 0.000000
0.242676 1.000000 0.000000
0.316350 1.000000 0.000000
0.390037 1.000000 0.000000
0.463717 1.000000 0.000000
0.537370 1.000000 0.000000
0.610976 1.000000 0.000000
0.684515 1.000000 0.000000
0.757967 1.000000 0.000000
0.831312 1.000000 0.000000
0.904530 1.000000 0.000000
0.977602 1.000000 0.000000
1.000000 1.000000 0.000000
1.000000 1.000000 0.000000
0.000000 1.000000 0.000000
0.031067 1.000000 0.000000
0.104748 1.000000 0.000000
0.178435 1.000000 0.000000
0.252108 1.000000 0.000000
0.325746 1.000000 0.000000
0.399329 1.000000 0.000000
0.472839 1.000000 0.000000
0.546254 1.000000 0.000000
0.619556 1.000000 0.000000
0.692723 1.000000 0.000000
0.765736 1.000000 0.000000
0.838575 1.000000 0.000000
0.911221 1.000000 0.000000
0.983652 1.000000 0.000000
1.000000 1.000000 0.000000
1.000000 1.000000 0.000000
0.000000 0.004043 0.213767
0.000000 0.003110 0.212506
0.000000 0.002005 0.210810
0.058860 0.000738 0.208704
0.130814 0.000000 0.206215
0.203131 0.000000 0.203367
0.275786 0.000000 0.200186
0.348754 0.000000 0.196698
0.422008 0.000000 0.192927
0.495522 0.000000 0.188898
0.569271 0.000000 0.184638
0.643230 0.000000 0.180172
0.717372 0.000000 0.175525
0.791672 0.000000 0.170722
0.866103 0.000000 0.165789
0.940642 0.000000 0.160751
1.000000 0.000000 0.155634
0.000000 0.071114 0.207841
0.000000 0.069642 0.205218
0.000000 0.068032 0.202246
0.063888 0.066294 0.198950
0.136963 0.064438 0.195356
0.210315 0.062474 0.191488
0.283917 0.060411 0.187373
0.357746 0.058261 0.183035
0.431774 0.056032 0.178500
0.505977 0.053736 0.173793
0.580328 0.051381 0.168940
0.654801 0.048979 0.163966
0.729372 0.046539 0.158896
0.804014 0.044071 0.153756
0.878701 0.041585 0.148571
0.953408 0.039091 0.143367
1.000000 0.036600 0.138168
0.000000 0.136507 0.197675
0.000000 0.134610 0.193978
0.000000 0.132609 0.190017
0.072343 0.130513 0.185818
0.146247 0.128333 0.181406
0.220342 0.126079 0.176805
0.294601 0.123760 0.172042
0.369000 0.121387 0.167142
0.443512 0.118969 0.162130
0.518111 0.116518 0.157032
0.592773 0.114042 0.151872
0.667470 0.111553 0.146677
0.742178 0.109059 0.141472
0.816871 0.106571 0.136281
0.891523 0.104099 0.131131
0.966108 0.101653 0.126047
1.000000 0.099243 0.121054
0.000000 0.200604 0.184235
0.000000 0.198395 0.179751
0.008931 0.196116 0.175088
0.083244 0.193777 0.170273
0.157687 0.191386 0.165329
0.232234 0.188955 0.160283
0.306859 0.186494 0.155159
0.381536 0.184012 0.149984
0.456241 0.181520 0.144782
0.530946 0.179027 0.139579
0.605627 0.176543 0.134400
0.680258 0.174080 0.129272
0.754812 0.171646 0.124218
0.829265 0.169252 0.119264
0.903590 0.166907 0.114436
0.977762 0.164623 0.109759
1.000000 0.162408 0.105259
0.000000 0.263787 0.168486
0.000000 0.261380 0.163502
0.020966 0.258937 0.158425
0.095613 0.256467 0.153280
0.170304 0.253980 0.148092
0.245012 0.251487 0.142887
0.319711 0.248996 0.137690
0.394377 0.246519 0.132526
0.468982 0.244065 0.127422
0.543503 0.241644 0.122401
0.617912 0.239267 0.117490
0.692185 0.236943 0.112714
0.766295 0.234683 0.108099
0.840216 0.232496 0.103669
0.913924 0.230392 0.099450
0.987392 0.228383 0.095468
1.000000 0.226476 0.091747
0.000000 0.326438 0.151394
0.000000 0.323948 0.146197
0.033781 0.321454 0.140992
0.108471 0.318967 0.135805
0.183118 0.316497 0.130660
0.257696 0.314054 0.125583
0.332179 0.311648 0.120599
0.406541 0.309289 0.115735
0.480758 0.306987 0.111014
0.554802 0.304752 0.106463
0.628649 0.302595 0.102107
0.702272 0.300524 0.097972
0.775647 0.298551 0.094082
0.848746 0.296685 0.090462
0.921545 0.294936 0.087140
0.994018 0.293315 0.084139
1.000000 0.291831 0.081485
0.000000 0.388940 0.133925
0.000000 0.386479 0.128802
0.046397 0.384048 0.123756
0.120839 0.381658 0.118813
0.195151 0.379319 0.113998
0.269308 0.377040 0.109336
0.343283 0.374832 0.104854
0.417052 0.372705 0.100575
0.490587 0.370669 0.096526
0.563865 0.368734 0.092731
0.636858 0.366909 0.089217
0.709541 0.365206 0.086009
0.781889 0.363633 0.083131
0.853875 0.362202 0.080610
0.925475 0.360921 0.078470
0.996661 0.359802 0.076738
1.000000 0.358854 0.075437
0.000000 0.451675 0.117044
0.000000 0.449357 0.112282
0.057834 0.447103 0.107682
0.131737 0.444923 0.103271
0.205424 0.442828 0.099073
0.278868 0.440827 0.095113
0.352045 0.438931 0.091418
0.424928 0.437150 0.088012
0.497492 0.435493 0.084921
0.569712 0.433970 0.082171
0.641560 0.432593 0.079785
0.713012 0.431370 0.077791
0.784042 0.430312 0.076213
0.854624 0.429428 0.075076
0.924887 0.428728 0.074251
0.995444 0.428205 0.073115
1.000000 0.427850 0.071618
0.000000 0.515025 0.101716
0.000000 0.512963 0.097602
0.067114 0.510999 0.093736
0.140186 0.509144 0.090143
0.212957 0.507406 0.086849
0.285398 0.505797 0.083879
0.357485 0.504327 0.081259
0.429192 0.503004 0.079013
0.500494 0.501840 0.077167
0.571364 0.500844 0.075747
0.641777 0.500027 0.074777
0.712105 0.499393 0.073880
0.782789 0.498932 0.072611
0.853810 0.498636 0.070988
0.925146 0.498493 0.069034
0.996779 0.498496 0.066770
1.000000 0.498633 0.064216
0.000000 0.579372 0.088908
0.000941 0.577680 0.085729
0.073257 0.576120 0.082883
0.145209 0.574702 0.080396
0.216771 0.573436 0.078293
0.287918 0.572332 0.076599
0.358625 0.571401 0.075340
0.428911 0.570650 0.074495
0.499371 0.570081 0.073460
0.570179 0.569681 0.072060
0.641317 0.569441 0.070314
0.712764 0.569353 0.068245
0.784500 0.569405 0.065873
0.856504 0.569589 0.063218
0.928758 0.569894 0.060302
1.000000 0.570311 0.057146
1.000000 0.570830 0.053771
0.000000 0.645098 0.079585
0.004295 0.643890 0.077628
0.075284 0.642848 0.076089
0.145824 0.641981 0.074995
0.216093 0.641298 0.074162
0.286682 0.640791 0.072992
0.357613 0.640451 0.071463
0.428866 0.640267 0.069597
0.500420 0.640231 0.067415
0.572256 0.640332 0.064938
0.644353 0.640562 0.062186
0.716693 0.640909 0.059180
0.789255 0.641364 0.055942
0.862018 0.641918 0.052492
0.934963 0.642560 0.048851
1.000000 0.643282 0.045040
1.000000 0.644073 0.041080
0.000000 0.712586 0.074710
0.003323 0.711968 0.073779
0.074039 0.711523 0.072475
0.145089 0.711241 0.070822
0.216454 0.711113 0.068838
0.288113 0.711128 0.066546
0.360047 0.711277 0.063966
0.432235 0.711550 0.061120
0.504657 0.711937 0.058027
0.577295 0.712430 0.054709
0.650127 0.713017 0.051187
0.723133 0.713689 0.047482
0.796295 0.714437 0.043614
0.869591 0.715251 0.039606
0.943002 0.716121 0.035476
1.000000 0.717037 0.031247
1.000000 0.717990 0.026940
0.000000 0.782052 0.070137
0.004081 0.781977 0.068039
0.075843 0.782042 0.065639
0.147871 0.782237 0.062960
0.220147 0.782553 0.060021
0.292650 0.782980 0.056844
0.365361 0.783508 0.053449
0.438259 0.784127 0.049858
0.511324 0.784828 0.046092
0.584537 0.785601 0.042170
0.657877 0.786437 0.038115
0.731325 0.787325 0.033947
0.804861 0.788255 0.029687
0.878465 0.789219 0.025356
0.952116 0.790206 0.020975
1.000000 0.791206 0.016564
1.000000 0.792211 0.012146
0.000000 0.853214 0.061919
0.008090 0.853571 0.058891
0.080670 0.854036 0.055632
0.153451 0.854598 0.052164
0.226413 0.855249 0.048506
0.299534 0.855977 0.044681
0.372796 0.856774 0.040708
0.446178 0.857629 0.036610
0.519660 0.858534 0.032406
0.593223 0.859478 0.028117
0.666846 0.860451 0.023766
0.740510 0.861444 0.019371
0.814194 0.862447 0.014956
0.887879 0.863451 0.010539
0.961545 0.864445 0.006143
1.000000 0.865419 0.001788
1.000000 0.866365 0.000000
0.000000 0.925700 0.050853
0.014588 0.926380 0.047132
0.087763 0.927135 0.043250
0.161071 0.927954 0.039230
0.234491 0.928829 0.035090
0.308005 0.929749 0.030853
0.381592 0.930704 0.026539
0.455233 0.931686 0.022170
0.528906 0.932684 0.017765
0.602593 0.933688 0.013347
0.676274 0.934689 0.008935
0.749927 0.935677 0.004552
0.823535 0.936643 0.000217
0.897075 0.937576 0.000000
0.970530 0.938467 0.000000
1.000000 0.939306 0.000000
1.000000 0.940083 0.000000
0.000000 0.999142 0.037735
0.022817 1.000000 0.033558
0.096360 1.000000 0.029290
0.169969 1.000000 0.024954
0.243624 1.000000 0.020569
0.317305 1.000000 0.016157
0.390991 1.000000 0.011739
0.464664 1.000000 0.007335
0.538304 1.000000 0.002967
0.611889 1.000000 0.000000
0.685400 1.000000 0.000000
0.758818 1.000000 0.000000
0.832123 1.000000 0.000000
0.905293 1.000000 0.000000
0.978311 1.000000 0.000000
1.000000 1.000000 0.000000
1.000000 1.000000 0.000000
0.000000 1.000000 0.023362
0.032018 1.000000 0.018965
0.105704 1.000000 0.014548
0.179388 1.000000 0.010133
0.253051 1.000000 0.005739
0.326673 1.000000 0.001389
0.400233 1.000000 0.000000
0.473713 1.000000 0.000000
0.547092 1.000000 0.000000
0.620350 1.000000 0.000000
0.693467 1.000000 0.000000
0.766424 1.000000 0.000000
0.839199 1.000000 0.000000
0.911774 1.000000 0.000000
0.984129 1.000000 0.000000
1.000000 1.000000 0.000000
1.000000 1.000000 0.000000
0.000000 0.003746 0.284264
0.000000 0.002754 0.282852
0.000000 0.001593 0.281014
0.059184 0.000273 0.278776
0.131264 0.000000 0.276162
0.203699 0.000000 0.273198
0.276463 0.000000 0.269910
0.349531 0.000000 0.266322
0.422876 0.000000 0.262461
0.496473 0.000000 0.258351
0.570296 0.000000 0.254019
0.644320 0.000000 0.249488
0.718518 0.000000 0.244785
0.792866 0.000000 0.239935
0.867337 0.000000 0.234964
0.941905 0.000000 0.229896
1.000000 0.000000 0.224757
0.000000 0.070630 0.277866
0.000000 0.069111 0.275122
0.000000 0.067456 0.272037
0.064603 0.065677 0.268637
