Data/Shaders/SimpleGraphicsSuite/LUTs/Teal and Orange.cube
LUT_3D_SIZE 5
0.000000 0.004573 0.072613
0.130040 0.000299 0.066196
0.420362 0.000000 0.053767
0.715134 0.000000 0.036950
1.000000 0.000000 0.017367
0.000000 0.265395 0.030055
0.167709 0.255671 0.009869
0.466456 0.245729 0.000000
0.764116 0.236211 0.000000
1.000000 0.227759 0.000000
0.000000 0.516476 0.000000
0.211704 0.508573 0.000000
0.500250 0.502613 0.000000
0.782881 0.499227 0.000000
1.000000 0.498525 0.000000
0.000000 0.782188 0.000000
0.219170 0.782326 0.000000
0.509819 0.784344 0.000000
0.803045 0.787619 0.000000
1.000000 0.791529 0.000000
0.000000 1.000000 0.000000
0.251160 1.000000 0.000000
0.545403 1.000000 0.000000
0.837929 1.000000 0.000000
1.000000 1.000000 0.000000
0.000000 0.003429 0.354709
0.131755 0.000000 0.346068
0.423773 0.000000 0.331967
0.719682 0.000000 0.314028
1.000000 0.000000 0.293876
0.000000 0.262157 0.306862
0.172907 0.252287 0.286307
0.471469 0.242416 0.265751
0.768386 0.233189 0.246818
1.000000 0.225246 0.231132
0.000000 0.513614 0.240646
0.214058 0.506299 0.226545
0.500539 0.501145 0.217904
0.782853 0.498714 0.213296
1.000000 0.498797 0.204076
0.000000 0.781985 0.210495
0.221229 0.782831 0.199638
0.512897 0.785346 0.185194
0.806708 0.788907 0.168502
1.000000 0.792890 0.150901
0.000000 1.000000 0.162129
0.254922 1.000000 0.144529
0.548725 1.000000 0.127846
0.840377 1.000000 0.113418
1.000000 1.000000 0.102585
0.000000 0.001960 0.635988
0.134110 0.000000 0.625310
0.427634 0.000000 0.609724
0.724490 0.000000 0.590851
1.000000 0.000000 0.570316
0.000000 0.258845 0.583482
0.178104 0.248903 0.562745
0.476293 0.239178 0.542558
0.772276 0.230315 0.524546
1.000000 0.222955 0.510331
0.000000 0.510928 0.518846
0.215774 0.504274 0.506417
0.500000 0.500000 0.500000
0.783420 0.498491 0.494205
1.000000 0.499288 0.483452
0.000000 0.782047 0.490793
0.223684 0.783530 0.478568
0.516222 0.786469 0.463210
0.810471 0.790243 0.446059
1.000000 0.794229 0.428454
0.000000 1.000000 0.439632
0.258583 1.000000 0.422193
0.551799 1.000000 0.406126
0.842430 1.000000 0.392769
1.000000 1.000000 0.383461
0.000000 0.000194 0.916513
0.137038 0.000000 0.903986
0.431878 0.000000 0.887102
0.729491 0.000000 0.867483
1.000000 0.000000 0.846752
0.000000 0.255484 0.859979
0.183238 0.245544 0.839246
0.480862 0.236040 0.819616
0.775722 0.227615 0.802711
1.000000 0.220911 0.790156
0.000000 0.508441 0.797552
0.216786 0.502524 0.786982
0.499363 0.499190 0.782171
0.784532 0.498534 0.774542
1.000000 0.499973 0.762410
0.000000 0.782348 0.770576
0.226482 0.784396 0.757136
0.519745 0.787689 0.741020
0.814284 0.791604 0.723564
1.000000 0.795520 0.706109
0.000000 1.000000 0.717139
0.262093 1.000000 0.700016
0.554574 1.000000 0.684719
0.844037 1.000000 0.672587
1.000000 1.000000 0.664958
0.000000 0.000000 1.000000
0.140476 0.000000 1.000000
0.436442 0.000000 1.000000
0.734623 0.000000 1.000000
1.000000 0.000000 1.000000
0.000000 0.252099 1.000000
0.188242 0.242235 1.000000
0.485112 0.233025 1.000000
0.778659 0.225113 1.000000
1.000000 0.219140 1.000000
0.000000 0.506180 1.000000
0.217031 0.501073 1.000000
0.499369 0.498694 1.000000
0.786139 0.498819 1.000000
1.000000 0.500828 1.000000
0.000000 0.782865 1.000000
0.229575 0.785405 1.000000
0.523415 0.788980 1.000000
0.818097 0.792965 1.000000
1.000000 0.796739 0.983919
0.000000 1.000000 0.994702
0.265402 1.000000 0.978049
0.557001 1.000000 0.963677
0.845149 1.000000 0.952924
1.000000 1.000000 0.947129
