Data/Shaders/SimpleGraphicsSuite/LUTs/Teal and Orange.cube
LUT_3D_SIZE 9
0.000000 0.004573 0.072613
0.000000 0.002774 0.070258
0.130040 0.000299 0.066196
0.274542 0.000000 0.060632
0.420362 0.000000 0.053767
0.567295 0.000000 0.045806
0.715134 0.000000 0.036950
0.863674 0.000000 0.027403
1.000000 0.000000 0.017367
0.000000 0.137730 0.058273
0.000000 0.133979 0.050985
0.144167 0.129822 0.042675
0.292286 0.125341 0.033544
0.441030 0.120616 0.023795
0.590195 0.115726 0.013632
0.739575 0.110753 0.003257
0.888963 0.105776 0.000000
1.000000 0.100876 0.000000
0.000000 0.265395 0.030055
0.018442 0.260600 0.020132
0.167709 0.255671 0.009869
0.317116 0.250687 0.000000
0.466456 0.245729 0.000000
0.615525 0.240876 0.000000
0.764116 0.236211 0.000000
0.912025 0.231811 0.000000
1.000000 0.227759 0.000000
0.000000 0.390624 0.000000
0.043913 0.385696 0.000000
0.192832 0.380902 0.000000
0.341198 0.376324 0.000000
0.488807 0.372042 0.000000
0.635451 0.368136 0.000000
0.780926 0.364687 0.000000
0.925026 0.361774 0.000000
1.000000 0.359479 0.000000
0.000000 0.516476 0.000000
0.065461 0.512322 0.000000
0.211704 0.508573 0.000000
0.356702 0.505310 0.000000
0.500250 0.502613 0.000000
0.642142 0.500562 0.000000
0.782881 0.499227 0.000000
0.924799 0.498574 0.000000
1.000000 0.498525 0.000000
0.000000 0.646008 0.000000
0.075254 0.643537 0.000000
0.216492 0.641742 0.000000
0.357539 0.640664 0.000000
0.499927 0.640240 0.000000
0.643495 0.640393 0.000000
0.788086 0.641043 0.000000
0.933538 0.642115 0.000000
1.000000 0.643528 0.000000
0.000000 0.782188 0.000000
0.075210 0.781983 0.000000
0.219170 0.782326 0.000000
0.364092 0.783139 0.000000
0.509819 0.784344 0.000000
0.656190 0.785863 0.000000
0.803045 0.787619 0.000000
0.950226 0.789533 0.000000
1.000000 0.791529 0.000000
0.000000 0.925286 0.000000
0.086185 0.926615 0.000000
0.232751 0.928229 0.000000
0.379743 0.930052 0.000000
0.527003 0.932005 0.000000
0.674370 0.934010 0.000000
0.821685 0.935990 0.000000
0.968788 0.937867 0.000000
1.000000 0.939562 0.000000
0.000000 1.000000 0.000000
0.103794 1.000000 0.000000
0.251160 1.000000 0.000000
0.398417 1.000000 0.000000
0.545403 1.000000 0.000000
0.691961 1.000000 0.000000
0.837929 1.000000 0.000000
0.983149 1.000000 0.000000
1.000000 1.000000 0.000000
0.000000 0.004043 0.213767
0.000000 0.002005 0.210810
0.130814 0.000000 0.206215
0.275786 0.000000 0.200186
0.422008 0.000000 0.192927
0.569271 0.000000 0.184638
0.717372 0.000000 0.175525
0.866103 0.000000 0.165789
1.000000 0.000000 0.155634
0.000000 0.136507 0.197675
0.000000 0.132609 0.190017
0.146247 0.128333 0.181406
0.294601 0.123760 0.172042
0.443512 0.118969 0.162130
0.592773 0.114042 0.151872
0.742178 0.109059 0.141472
0.891523 0.104099 0.131131
1.000000 0.099243 0.121054
0.000000 0.263787 0.168486
0.020966 0.258937 0.158425
0.170304 0.253980 0.148092
0.319711 0.248996 0.137690
0.468982 0.244065 0.127422
0.617912 0.239267 0.117490
0.766295 0.234683 0.108099
0.913924 0.230392 0.099450
1.000000 0.226476 0.091747
0.000000 0.388940 0.133925
0.046397 0.384048 0.123756
0.195151 0.379319 0.113998
0.343283 0.374832 0.104854
0.490587 0.370669 0.096526
0.636858 0.366909 0.089217
0.781889 0.363633 0.083131
0.925475 0.360921 0.078470
1.000000 0.358854 0.075437
0.000000 0.515025 0.101716
0.067114 0.510999 0.093736
0.212957 0.507406 0.086849
0.357485 0.504327 0.081259
0.500494 0.501840 0.077167
0.641777 0.500027 0.074777
0.782789 0.498932 0.072611
0.925146 0.498493 0.069034
1.000000 0.498633 0.064216
0.000000 0.645098 0.079585
0.075284 0.642848 0.076089
0.216093 0.641298 0.074162
0.357613 0.640451 0.071463
0.500420 0.640231 0.067415
0.644353 0.640562 0.062186
0.789255 0.641364 0.055942
0.934963 0.642560 0.048851
1.000000 0.644073 0.041080
0.000000 0.782052 0.070137
0.075843 0.782042 0.065639
0.220147 0.782553 0.060021
0.365361 0.783508 0.053449
0.511324 0.784828 0.046092
0.657877 0.786437 0.038115
0.804861 0.788255 0.029687
0.952116 0.790206 0.020975
1.000000 0.792211 0.012146
0.000000 0.925700 0.050853
0.087763 0.927135 0.043250
0.234491 0.928829 0.035090
0.381592 0.930704 0.026539
0.528906 0.932684 0.017765
0.676274 0.934689 0.008935
0.823535 0.936643 0.000217
0.970530 0.938467 0.000000
1.000000 0.940083 0.000000
0.000000 1.000000 0.023362
0.105704 1.000000 0.014548
0.253051 1.000000 0.005739
0.400233 1.000000 0.000000
0.547092 1.000000 0.000000
0.693467 1.000000 0.000000
0.839199 1.000000 0.000000
0.984129 1.000000 0.000000
1.000000 1.000000 0.000000
0.000000 0.003429 0.354709
0.000000 0.001162 0.351173
0.131755 0.000000 0.346068
0.277175 0.000000 0.339599
0.423773 0.000000 0.331967
0.571344 0.000000 0.323376
0.719682 0.000000 0.314028
0.868582 0.000000 0.304127
1.000000 0.000000 0.293876
0.000000 0.135230 0.336944
0.000541 0.131195 0.328940
0.148415 0.126809 0.320050
0.296981 0.122153 0.310477
0.446033 0.117308 0.300425
0.595367 0.112352 0.290096
0.744775 0.107368 0.279693
0.894052 0.102434 0.269419
1.000000 0.097632 0.259478
0.000000 0.262157 0.306862
0.023522 0.257262 0.296686
0.172907 0.252287 0.286307
0.322291 0.247311 0.275927
0.471469 0.242416 0.265751
0.620236 0.237682 0.255980
0.768386 0.233189 0.246818
0.915713 0.229016 0.238468
1.000000 0.225246 0.231132
0.000000 0.387266 0.272188
0.048832 0.382420 0.262136
0.197399 0.377764 0.252564
0.345273 0.373378 0.243674
0.492249 0.369343 0.235669
0.638121 0.365739 0.228753
0.782685 0.362645 0.223128
0.925733 0.360143 0.218998
1.000000 0.358313 0.216564
0.000000 0.513614 0.240646
0.068638 0.509727 0.233015
0.214058 0.506299 0.226545
0.358093 0.503412 0.221441
0.500539 0.501145 0.217904
0.641366 0.499577 0.215960
0.782853 0.498714 0.213296
0.925630 0.498480 0.209279
1.000000 0.498797 0.204076
0.000000 0.644260 0.219961
0.075107 0.642239 0.217046
0.215861 0.640935 0.215157
0.357836 0.640310 0.211981
0.501043 0.640286 0.207513
0.645323 0.640785 0.201921
0.790516 0.641730 0.195370
0.936463 0.643042 0.188030
1.000000 0.644645 0.180066
0.000000 0.781985 0.210495
0.076598 0.782161 0.205599
0.221229 0.782831 0.199638
0.366715 0.783919 0.192780
0.512897 0.785346 0.185194
0.659615 0.787035 0.177045
0.806708 0.788907 0.168502
0.954019 0.790885 0.159731
1.000000 0.792890 0.150901
0.000000 0.926154 0.190094
0.089402 0.927685 0.182283
0.236275 0.929449 0.173972
0.383466 0.931369 0.165326
0.530816 0.933366 0.156514
0.678165 0.935362 0.147704
0.825354 0.937280 0.139061
0.972222 0.939043 0.130754
1.000000 0.940571 0.122950
0.000000 1.000000 0.162129
0.107613 1.000000 0.153298
0.254922 1.000000 0.144529
0.402013 1.000000 0.135989
0.548725 1.000000 0.127846
0.694900 1.000000 0.120266
0.840377 1.000000 0.113418
0.984997 1.000000 0.107468
1.000000 1.000000 0.102585
0.000000 0.002733 0.495446
0.000000 0.000247 0.491355
0.132857 0.000000 0.485764
0.278700 0.000000 0.478877
0.425651 0.000000 0.470897
0.573506 0.000000 0.462026
0.722058 0.000000 0.452468
0.871101 0.000000 0.442425
1.000000 0.000000 0.432100
0.000000 0.133904 0.476088
0.002530 0.129741 0.467760
0.150662 0.125254 0.458615
0.299417 0.120525 0.448857
0.448587 0.115633 0.438688
0.597969 0.110659 0.428311
0.747356 0.105682 0.417930
0.896542 0.100785 0.407746
1.000000 0.096045 0.397963
0.000000 0.260509 0.445192
0.026102 0.255577 0.434924
0.175510 0.250593 0.424522
0.324847 0.245636 0.414188
0.473909 0.240787 0.404127
0.622489 0.236125 0.394540
0.770383 0.231732 0.385631
0.917383 0.227687 0.377603
1.000000 0.224071 0.370658
0.000000 0.385604 0.410483
0.051212 0.380814 0.400571
0.199566 0.376240 0.391208
0.347158 0.371965 0.382596
0.493783 0.368067 0.374938
0.639234 0.364627 0.368438
0.783306 0.361725 0.363298
0.925793 0.359442 0.359721
1.000000 0.357857 0.357756
0.000000 0.512248 0.379687
0.070027 0.508507 0.372427
0.215000 0.505254 0.366398
0.358518 0.502568 0.361804
0.500377 0.500530 0.358846
0.641122 0.499208 0.356967
0.783065 0.498567 0.353825
0.926244 0.498530 0.349387
1.000000 0.499017 0.343819
0.000000 0.643497 0.360527
0.074715 0.641715 0.358214
0.215789 0.640650 0.355984
0.358200 0.640238 0.352350
0.501790 0.640400 0.347482
0.646398 0.641060 0.341545
0.791865 0.642138 0.334708
0.938032 0.643558 0.327137
1.000000 0.645241 0.319000
0.000000 0.781985 0.350712
0.077471 0.782337 0.345435
0.222410 0.783158 0.339151
0.368150 0.784370 0.332027
0.514532 0.785894 0.324231
0.661395 0.787654 0.315930
0.808581 0.789570 0.307290
0.955928 0.791567 0.298481
1.000000 0.793564 0.289668
0.000000 0.926643 0.329258
0.091096 0.928262 0.321258
0.238095 0.930087 0.312815
0.385358 0.932042 0.304094
0.532726 0.934048 0.295264
0.680038 0.936026 0.286491
0.827136 0.937900 0.277944
0.973859 0.939592 0.269789
1.000000 0.941023 0.262194
0.000000 1.000000 0.300883
0.109515 1.000000 0.292054
0.256768 1.000000 0.283345
0.403748 1.000000 0.274921
0.550296 1.000000 0.266950
0.696252 1.000000 0.259600
0.841456 1.000000 0.253039
0.985749 1.000000 0.247432
1.000000 1.000000 0.242948
0.000000 0.001960 0.635988
0.000000 0.000000 0.631364
0.134110 0.000000 0.625310
0.280352 0.000000 0.618029
0.427634 0.000000 0.609724
0.575748 0.000000 0.600597
0.724490 0.000000 0.590851
0.873653 0.000000 0.580690
1.000000 0.000000 0.570316
0.000000 0.132532 0.615114
0.004615 0.128249 0.606486
0.152982 0.123671 0.597110
0.301900 0.118878 0.587190
0.451166 0.113949 0.576927
0.600572 0.108965 0.566526
0.749914 0.104006 0.556189
0.898985 0.099153 0.546118
1.000000 0.094486 0.536518
0.000000 0.258845 0.583482
0.028698 0.253887 0.573146
0.178104 0.248903 0.562745
0.327371 0.243973 0.552481
0.476293 0.239178 0.542558
0.624663 0.234599 0.533179
0.772276 0.230315 0.524546
0.918927 0.226407 0.516863
1.000000 0.222955 0.510331
0.000000 0.383958 0.548818
0.053528 0.379232 0.539070
0.201646 0.374751 0.529939
0.348933 0.370594 0.521628
0.495182 0.366843 0.514341
0.640187 0.363577 0.508280
0.783744 0.360876 0.503647
0.925646 0.358822 0.500647
1.000000 0.357482 0.498776
0.000000 0.510928 0.518846
0.071272 0.507343 0.511981
0.215774 0.504274 0.506417
0.358752 0.501799 0.502356
0.500000 0.500000 0.500000
0.641039 0.498918 0.497806
0.783420 0.498491 0.494205
0.926982 0.498640 0.489364
1.000000 0.499288 0.483452
0.000000 0.642812 0.501290
0.074326 0.641275 0.499375
0.215872 0.640441 0.496649
0.358701 0.640233 0.492577
0.502654 0.640572 0.487327
0.647572 0.641383 0.481066
0.793295 0.642586 0.473960
0.939662 0.644104 0.466178
1.000000 0.645859 0.457887
0.000000 0.782047 0.490793
0.078454 0.782567 0.485156
0.223684 0.783530 0.478568
0.369659 0.784856 0.471197
0.516222 0.786469 0.463210
0.663213 0.788291 0.454775
0.810471 0.790243 0.446059
0.957838 0.792249 0.437230
1.000000 0.794229 0.428454
0.000000 0.927164 0.468352
0.092839 0.928862 0.460182
0.239946 0.930741 0.451626
0.387262 0.932721 0.442849
0.534629 0.934727 0.434020
0.681886 0.936678 0.425305
0.828875 0.938499 0.416872
0.975435 0.940111 0.408888
1.000000 0.941436 0.401521
0.000000 1.000000 0.439632
0.111405 1.000000 0.430825
0.258583 1.000000 0.422193
0.405434 1.000000 0.413905
0.551799 1.000000 0.406126
0.697517 1.000000 0.399025
0.842430 1.000000 0.392769
0.986377 1.000000 0.387525
1.000000 1.000000 0.383461
0.000000 0.001113 0.776340
0.000000 0.000000 0.771208
0.135506 0.000000 0.764715
0.282125 0.000000 0.757064
0.429712 0.000000 0.748456
0.578062 0.000000 0.739097
0.726970 0.000000 0.729187
0.876230 0.000000 0.718931
1.000000 0.000000 0.708531
0.000000 0.131115 0.754030
0.006787 0.126724 0.745125
0.155364 0.122064 0.735542
0.304424 0.117215 0.725483
0.453761 0.112258 0.715150
0.603168 0.107274 0.704748
0.752441 0.102342 0.694479
0.901373 0.097543 0.684545
1.000000 0.092958 0.675150
0.000000 0.257169 0.721742
0.031301 0.252193 0.711361
0.180683 0.247218 0.700983
0.329856 0.242326 0.690813
0.478613 0.237595 0.681052
0.626749 0.233107 0.671903
0.774059 0.228942 0.663570
0.920336 0.225179 0.656255
1.000000 0.221900 0.650162
0.000000 0.382330 0.687201
0.055771 0.377679 0.677639
0.203630 0.373299 0.668764
0.350587 0.369271 0.660778
0.496437 0.365675 0.653885
0.640974 0.362592 0.648286
0.783991 0.360102 0.644185
0.925285 0.358285 0.641786
1.000000 0.357186 0.639627
0.000000 0.509658 0.658132
0.072364 0.506239 0.651686
0.216372 0.503363 0.646609
0.358786 0.501109 0.643104
0.499598 0.499554 0.641173
0.641111 0.498704 0.638482
0.783911 0.498481 0.634442
0.927838 0.498808 0.629218
1.000000 0.499608 0.622979
0.000000 0.642208 0.642258
0.074103 0.640917 0.640360
0.216102 0.640304 0.637159
0.359331 0.640290 0.632668
0.503630 0.640799 0.627056
0.648839 0.641751 0.620489
0.794798 0.643070 0.613135
0.941349 0.644677 0.605161
1.000000 0.646495 0.596736
0.000000 0.782169 0.630746
0.079542 0.782848 0.624767
0.225043 0.783943 0.617894
0.371236 0.785376 0.610295
0.517962 0.787068 0.602137
0.665062 0.788943 0.593588
0.812375 0.790922 0.584815
0.959742 0.792928 0.575985
1.000000 0.794882 0.567265
0.000000 0.927716 0.607381
0.094625 0.929484 0.599062
0.241821 0.931406 0.590411
0.389172 0.933403 0.581598
0.536519 0.935399 0.572789
0.683703 0.937315 0.564151
0.830564 0.939074 0.555852
0.976943 0.940597 0.548059
1.000000 0.941806 0.540939
0.000000 1.000000 0.578382
0.113275 1.000000 0.569616
0.260360 1.000000 0.561082
0.407064 1.000000 0.552947
0.553227 1.000000 0.545380
0.698689 1.000000 0.538547
0.843292 1.000000 0.532616
0.986875 1.000000 0.527754
1.000000 1.000000 0.524128
0.000000 0.000194 0.916513
0.000000 0.000000 0.910896
0.137038 0.000000 0.903986
0.284009 0.000000 0.895988
0.431878 0.000000 0.887102
0.580441 0.000000 0.877533
0.729491 0.000000 0.867483
0.878823 0.000000 0.857155
1.000000 0.000000 0.846752
0.000000 0.129659 0.892845
0.009039 0.125167 0.883687
0.157803 0.120434 0.873919
0.306980 0.115540 0.863744
0.456363 0.110565 0.853365
0.605748 0.105589 0.842986
0.754928 0.100694 0.832807
0.903698 0.095958 0.823034
1.000000 0.091463 0.813868
0.000000 0.255484 0.859979
0.033904 0.250499 0.849576
0.183238 0.245544 0.839246
0.332292 0.240697 0.829192
0.480862 0.236040 0.819616
0.628740 0.231652 0.810722
0.775722 0.227615 0.802711
0.921601 0.224008 0.795789
1.000000 0.220911 0.790156
0.000000 0.380725 0.825639
0.057934 0.376157 0.816288
0.205510 0.371888 0.807692
0.352114 0.367997 0.800055
0.497541 0.364567 0.793578
0.641585 0.361676 0.788465
0.784040 0.359406 0.784920
0.924871 0.357834 0.782970
1.000000 0.356967 0.780315
0.000000 0.508441 0.797552
0.073297 0.505198 0.791548
0.216786 0.502524 0.786982
0.358612 0.500499 0.784057
0.499363 0.499190 0.782171
0.641331 0.498561 0.779003
0.784532 0.498534 0.774542
0.928806 0.499031 0.768955
1.000000 0.499973 0.762410
0.000000 0.641689 0.783436
0.074040 0.640637 0.781178
0.216475 0.640236 0.777520
0.360085 0.640408 0.772629
0.504711 0.641076 0.766674
0.650192 0.642162 0.759821
0.796370 0.643587 0.752238
0.943085 0.645275 0.744092
1.000000 0.647146 0.735551
0.000000 0.782348 0.770576
0.080728 0.783177 0.764274
0.226482 0.784396 0.757136
0.372874 0.785925 0.749329
0.519745 0.787689 0.741020
0.666935 0.789608 0.732376
0.814284 0.791604 0.723564
0.961634 0.793601 0.714753
1.000000 0.795520 0.706109
0.000000 0.928294 0.746353
0.096447 0.930123 0.737903
0.243713 0.932080 0.729178
0.391081 0.934085 0.720348
0.538391 0.936063 0.711578
0.685483 0.937934 0.703036
0.832198 0.939621 0.694890
0.978376 0.941047 0.687307
1.000000 0.942132 0.680454
0.000000 1.000000 0.717139
0.115120 1.000000 0.708433
0.262093 1.000000 0.700016
0.408631 1.000000 0.692056
0.554574 1.000000 0.684719
0.699763 1.000000 0.678174
0.844037 1.000000 0.672587
0.987238 1.000000 0.668126
1.000000 1.000000 0.664958
0.000000 0.000000 1.000000
0.000000 0.000000 1.000000
0.138697 0.000000 1.000000
0.285996 0.000000 1.000000
0.434124 0.000000 1.000000
0.582876 0.000000 1.000000
0.732045 0.000000 1.000000
0.881426 0.000000 0.995370
1.000000 0.000000 0.984988
0.000000 0.128166 1.000000
0.011362 0.123583 1.000000
0.160289 0.118786 1.000000
0.309559 0.113855 1.000000
0.458966 0.108871 0.991580
0.608305 0.103914 0.981246
0.757369 0.099064 0.971183
0.905952 0.094401 0.961593
1.000000 0.090006 0.952679
0.000000 0.253793 0.998200
0.036498 0.248809 0.987800
0.185760 0.243881 0.977540
0.334673 0.239090 0.967626
0.483031 0.234515 0.958259
0.630628 0.230238 0.949642
0.777258 0.226337 0.941978
0.922717 0.222895 0.935471
1.000000 0.219990 0.930323
0.000000 0.379145 0.964142
0.060008 0.374669 0.955024
0.207277 0.370520 0.946731
0.353505 0.366777 0.939465
0.498485 0.363521 0.933429
0.642013 0.360832 0.928825
0.783882 0.358790 0.925858
0.924625 0.357464 0.923981
1.000000 0.356819 0.920847
0.000000 0.507281 0.937114
0.074061 0.504222 0.931576
0.217009 0.501759 0.927545
0.358223 0.499973 0.925223
0.499289 0.498904 0.923000
0.641693 0.498489 0.919375
0.785277 0.498648 0.914512
0.929879 0.499305 0.908581
1.000000 0.500381 0.901748
0.000000 0.641254 0.924587
0.074131 0.640431 0.921834
0.216983 0.640234 0.917739
0.360956 0.640584 0.912468
0.505890 0.641402 0.906189
0.651626 0.642612 0.899070
0.798004 0.644135 0.891277
0.944865 0.645893 0.882978
1.000000 0.647809 0.874340
0.000000 0.782581 0.910290
0.082007 0.783551 0.903686
0.227995 0.784884 0.896302
0.374568 0.786502 0.888305
0.521565 0.788327 0.879863
0.668827 0.790281 0.871144
0.816194 0.792286 0.862314
0.963507 0.794265 0.853540
1.000000 0.796140 0.844991
0.000000 0.928896 0.885274
0.098299 0.930777 0.876712
0.245618 0.932759 0.867933
0.392984 0.934764 0.859104
0.540238 0.936714 0.850393
0.687220 0.938532 0.841967
0.833770 0.940139 0.833994
0.979730 0.941457 0.826640
1.000000 0.942410 0.820073
0.000000 1.000000 0.855910
0.116932 1.000000 0.847284
0.263776 1.000000 0.839003
0.410130 1.000000 0.831236
0.555834 1.000000 0.824149
0.700730 1.000000 0.817910
0.844658 1.000000 0.812687
0.987458 1.000000 0.808646
1.000000 1.000000 0.805956
0.000000 0.000000 1.000000
0.000000 0.000000 1.000000
0.140476 0.000000 1.000000
0.288080 0.000000 1.000000
0.436442 0.000000 1.000000
0.585359 0.000000 1.000000
0.734623 0.000000 1.000000
0.884029 0.000000 1.000000
1.000000 0.000000 1.000000
0.000000 0.126638 1.000000
0.013748 0.121974 1.000000
0.162815 0.117123 1.000000
0.312155 0.112165 1.000000
0.461561 0.107181 1.000000
0.610830 0.102251 1.000000
0.759754 0.097455 1.000000
0.908127 0.092874 1.000000
1.000000 0.088588 1.000000
0.000000 0.252099 1.000000
0.039075 0.247125 1.000000
0.188242 0.242235 1.000000
0.336990 0.237508 1.000000
0.485112 0.233025 1.000000
0.632404 0.228867 1.000000
0.778659 0.225113 1.000000
0.923673 0.221844 1.000000
1.000000 0.219140 1.000000
0.000000 0.377594 1.000000
0.061987 0.373220 1.000000
0.208925 0.369199 1.000000
0.354752 0.365612 1.000000
0.499262 0.362540 1.000000
0.642249 0.360062 1.000000
0.783508 0.358258 1.000000
0.924539 0.357172 1.000000
1.000000 0.356742 1.000000
0.000000 0.506180 1.000000
0.074650 0.503314 1.000000
0.217031 0.501073 1.000000
0.357831 0.499532 1.000000
0.499369 0.498694 1.000000
0.642192 0.498482 1.000000
0.786139 0.498819 1.000000
0.931052 0.499627 1.000000
1.000000 0.500828 1.000000
0.000000 0.640899 1.000000
0.074369 0.640298 1.000000
0.217620 0.640295 1.000000
0.361937 0.640813 1.000000
0.507162 0.641773 1.000000
0.653134 0.643098 1.000000
0.799694 0.644710 1.000000
0.946682 0.646530 1.000000
1.000000 0.648482 1.000000
0.000000 0.782865 1.000000
0.083371 0.783967 1.000000
0.229575 0.785405 1.000000
0.376310 0.787102 1.000000
0.523415 0.788980 1.000000
0.670730 0.790960 1.000000
0.818097 0.792965 1.000000
0.965356 0.794918 0.992353
1.000000 0.796739 0.983919
0.000000 0.929519 1.000000
0.100175 0.931443 1.000000
0.247528 0.933441 1.000000
0.394874 0.935436 0.997874
0.542053 0.937350 0.989241
0.688906 0.939105 0.980950
0.835274 0.940623 0.973168
0.980997 0.941826 0.966063
1.000000 0.942636 0.959802
0.000000 1.000000 0.994702
0.118707 1.000000 0.986174
0.265402 1.000000 0.978049
0.411553 1.000000 0.970494
0.557001 1.000000 0.963677
0.701587 1.000000 0.957764
0.845149 1.000000 0.952924
0.987530 1.000000 0.949323
1.000000 1.000000 0.947129
