Data/Shaders/SimpleGraphicsSuite/LUTs/Vibrant.cube
LUT_3D_SIZE 9
0.000000 0.000000 0.000000
0.135591 0.000000 0.000000
0.291181 0.000000 0.000000
0.446771 0.000000 0.000000
0.602362 0.000000 0.000000
0.757952 0.000000 0.000000
0.913543 0.000000 0.000000
1.000000 0.000000 0.000000
1.000000 0.000000 0.000000
0.000000 0.119256 0.000000
0.112347 0.112347 0.000000
0.267937 0.105437 0.000000
0.423527 0.098527 0.000000
0.579118 0.091618 0.000000
0.734709 0.084708 0.000000
0.890299 0.077799 0.000000
1.000000 0.070889 0.000000
1.000000 0.063980 0.000000
0.000000 0.258512 0.000000
0.089102 0.251602 0.000000
0.244693 0.244693 0.000000
0.400283 0.237783 0.000000
0.555874 0.230874 0.000000
0.711464 0.223964 0.000000
0.867055 0.217055 0.000000
1.000000 0.210145 0.000000
1.000000 0.203236 0.000000
0.000000 0.397768 0.000000
0.065858 0.390858 0.000000
0.221449 0.383949 0.000000
0.377039 0.377039 0.000000
0.532630 0.370130 0.000000
0.688221 0.363220 0.000000
0.843811 0.356311 0.000000
0.999402 0.349401 0.000000
1.000000 0.342492 0.000000
0.000000 0.537024 0.000000
0.042614 0.530115 0.000000
0.198205 0.523205 0.000000
0.353796 0.516296 0.000000
0.509386 0.509386 0.000000
0.664976 0.502476 0.000000
0.820567 0.495567 0.000000
0.976158 0.488657 0.000000
1.000000 0.481748 0.000000
0.000000 0.676280 0.000000
0.019371 0.669371 0.000000
0.174961 0.662461 0.000000
0.330551 0.655552 0.000000
0.486142 0.648642 0.000000
0.641733 0.641733 0.000000
0.797323 0.634823 0.000000
0.952913 0.627914 0.000000
1.000000 0.621004 0.000000
0.000000 0.815536 0.000000
0.000000 0.808627 0.000000
0.151717 0.801717 0.000000
0.307307 0.794807 0.000000
0.462898 0.787898 0.000000
0.618488 0.780989 0.000000
0.774079 0.774079 0.000000
0.929670 0.767170 0.000000
1.000000 0.760260 0.000000
0.000000 0.954792 0.000000
0.000000 0.947882 0.000000
0.128473 0.940973 0.000000
0.284064 0.934064 0.000000
0.439654 0.927154 0.000000
0.595244 0.920244 0.000000
0.750835 0.913335 0.000000
0.906426 0.906426 0.000000
1.000000 0.899516 0.000000
0.000000 1.000000 0.000000
0.000000 1.000000 0.000000
0.105229 1.000000 0.000000
0.260819 1.000000 0.000000
0.416410 1.000000 0.000000
0.572001 1.000000 0.000000
0.727591 1.000000 0.000000
0.883181 1.000000 0.000000
1.000000 1.000000 0.000000
0.000000 0.000000 0.140153
0.133244 0.000000 0.133244
0.288834 0.000000 0.126335
0.444425 0.000000 0.119425
0.600016 0.000000 0.112515
0.755606 0.000000 0.105606
0.911196 0.000000 0.098697
1.000000 0.000000 0.091787
1.000000 0.000000 0.084877
0.000000 0.116909 0.116909
0.110000 0.110000 0.110000
0.265590 0.103090 0.103090
0.421181 0.096181 0.096181
0.576771 0.089271 0.089271
0.732362 0.082362 0.082362
0.887952 0.075452 0.075452
1.000000 0.068543 0.068543
1.000000 0.061634 0.061634
0.000000 0.256165 0.093665
0.086756 0.249256 0.086756
0.242347 0.242347 0.079846
0.397937 0.235437 0.072937
0.553527 0.228527 0.066028
0.709118 0.221618 0.059118
0.864709 0.214708 0.052208
1.000000 0.207799 0.045299
1.000000 0.200889 0.038389
0.000000 0.395421 0.070421
0.063512 0.388512 0.063512
0.219102 0.381602 0.056602
0.374693 0.374693 0.049693
0.530284 0.367783 0.042783
0.685874 0.360874 0.035874
0.841464 0.353965 0.028965
0.997055 0.347055 0.022055
1.000000 0.340145 0.015145
0.000000 0.534678 0.047177
0.040268 0.527768 0.040268
0.195858 0.520859 0.033358
0.351449 0.513949 0.026449
0.507039 0.507039 0.019539
0.662630 0.500130 0.012630
0.818221 0.493221 0.005720
0.973811 0.486311 0.000000
1.000000 0.479401 0.000000
0.000000 0.673933 0.023933
0.017024 0.667024 0.017024
0.172615 0.660115 0.010115
0.328205 0.653205 0.003205
0.483795 0.646296 0.000000
0.639386 0.639386 0.000000
0.794976 0.632476 0.000000
0.950567 0.625567 0.000000
1.000000 0.618657 0.000000
0.000000 0.813190 0.000690
0.000000 0.806280 0.000000
0.149371 0.799370 0.000000
0.304961 0.792461 0.000000
0.460552 0.785551 0.000000
0.616142 0.778642 0.000000
0.771733 0.771733 0.000000
0.927323 0.764823 0.000000
1.000000 0.757914 0.000000
0.000000 0.952446 0.000000
0.000000 0.945536 0.000000
0.126127 0.938627 0.000000
0.281717 0.931717 0.000000
0.437308 0.924808 0.000000
0.592898 0.917898 0.000000
0.748489 0.910988 0.000000
0.904079 0.904079 0.000000
1.000000 0.897170 0.000000
0.000000 1.000000 0.000000
0.000000 1.000000 0.000000
0.102882 1.000000 0.000000
0.258473 1.000000 0.000000
0.414064 1.000000 0.000000
0.569654 1.000000 0.000000
0.725245 1.000000 0.000000
0.880835 1.000000 0.000000
1.000000 1.000000 0.000000
0.000000 0.000000 0.300307
0.130897 0.000000 0.293397
0.286488 0.000000 0.286488
0.442079 0.000000 0.279579
0.597669 0.000000 0.272669
0.753259 0.000000 0.265760
0.908850 0.000000 0.258850
1.000000 0.000000 0.251941
1.000000 0.000000 0.245031
0.000000 0.114563 0.277063
0.107653 0.107653 0.270153
0.263244 0.100744 0.263244
0.418834 0.093835 0.256335
0.574425 0.086925 0.249425
0.730016 0.080016 0.242515
0.885606 0.073106 0.235606
1.000000 0.066196 0.228697
1.000000 0.059287 0.221787
0.000000 0.253819 0.253819
0.084409 0.246910 0.246910
0.240000 0.240000 0.240000
0.395591 0.233090 0.233090
0.551181 0.226181 0.226181
0.706772 0.219271 0.219271
0.862362 0.212362 0.212362
1.000000 0.205453 0.205453
1.000000 0.198543 0.198543
0.000000 0.393075 0.230575
0.061165 0.386165 0.223665
0.216756 0.379256 0.216756
0.372347 0.372347 0.209846
0.527937 0.365437 0.202937
0.683527 0.358527 0.196028
0.839118 0.351618 0.189118
0.994708 0.344708 0.182208
1.000000 0.337799 0.175299
0.000000 0.532331 0.207331
0.037921 0.525421 0.200421
0.193512 0.518512 0.193512
0.349102 0.511602 0.186602
0.504693 0.504693 0.179693
0.660284 0.497783 0.172783
0.815874 0.490874 0.165874
0.971464 0.483964 0.158964
1.000000 0.477055 0.152055
0.000000 0.671587 0.184087
0.014678 0.664678 0.177177
0.170268 0.657768 0.170268
0.325858 0.650859 0.163358
0.481449 0.643949 0.156449
0.637039 0.637039 0.149539
0.792630 0.630130 0.142630
0.948221 0.623220 0.135720
1.000000 0.616311 0.128811
0.000000 0.810843 0.160843
0.000000 0.803934 0.153934
0.147024 0.797024 0.147024
0.302615 0.790115 0.140115
0.458205 0.783205 0.133205
0.613796 0.776296 0.126296
0.769386 0.769386 0.119386
0.924977 0.762477 0.112476
1.000000 0.755567 0.105567
0.000000 0.950099 0.137599
0.000000 0.943190 0.130690
0.123780 0.936280 0.123780
0.279371 0.929371 0.116871
0.434961 0.922461 0.109961
0.590552 0.915552 0.103052
0.746142 0.908642 0.096142
0.901733 0.901733 0.089232
1.000000 0.894823 0.082323
0.000000 1.000000 0.114355
0.000000 1.000000 0.107445
0.100536 1.000000 0.100536
0.256127 1.000000 0.093627
0.411717 1.000000 0.086717
0.567308 1.000000 0.079808
0.722898 1.000000 0.072898
0.878489 1.000000 0.065989
1.000000 1.000000 0.059079
0.000000 0.000000 0.460460
0.128551 0.000000 0.453551
0.284141 0.000000 0.446642
0.439732 0.000000 0.439732
0.595322 0.000000 0.432822
0.750913 0.000000 0.425913
0.906503 0.000000 0.419003
1.000000 0.000000 0.412094
1.000000 0.000000 0.405184
0.000000 0.112216 0.437217
0.105307 0.105307 0.430307
0.260898 0.098398 0.423398
0.416488 0.091488 0.416488
0.572079 0.084579 0.409579
0.727669 0.077669 0.402669
0.883260 0.070759 0.395759
1.000000 0.063850 0.388850
1.000000 0.056941 0.381941
0.000000 0.251472 0.413972
0.082063 0.244563 0.407063
0.237653 0.237653 0.400153
0.393244 0.230744 0.393244
0.548835 0.223834 0.386334
0.704425 0.216925 0.379425
0.860016 0.210016 0.372515
1.000000 0.203106 0.365606
1.000000 0.196196 0.358696
0.000000 0.390729 0.390729
0.058819 0.383819 0.383819
0.214409 0.376910 0.376910
0.370000 0.370000 0.370000
0.525590 0.363090 0.363090
0.681181 0.356181 0.356181
0.836772 0.349271 0.349271
0.992362 0.342362 0.342362
1.000000 0.335453 0.335453
0.000000 0.529984 0.367484
0.035575 0.523075 0.360575
0.191165 0.516165 0.353666
0.346756 0.509256 0.346756
0.502346 0.502346 0.339847
0.657937 0.495437 0.332937
0.813527 0.488528 0.326028
0.969118 0.481618 0.319118
1.000000 0.474708 0.312208
0.000000 0.669241 0.344240
0.012331 0.662331 0.337331
0.167922 0.655421 0.330421
0.323512 0.648512 0.323512
0.479103 0.641602 0.316603
0.634693 0.634693 0.309693
0.790284 0.627784 0.302783
0.945874 0.620874 0.295874
1.000000 0.613965 0.288965
0.000000 0.808496 0.320997
0.000000 0.801587 0.314087
0.144678 0.794678 0.307177
0.300268 0.787768 0.300268
0.455858 0.780859 0.293358
0.611449 0.773949 0.286449
0.767039 0.767039 0.279539
0.922630 0.760130 0.272630
1.000000 0.753221 0.265720
0.000000 0.947752 0.297753
0.000000 0.940843 0.290843
0.121434 0.933933 0.283934
0.277024 0.927024 0.277024
0.432615 0.920115 0.270115
0.588205 0.913205 0.263205
0.743796 0.906296 0.256296
0.899386 0.899386 0.249386
1.000000 0.892477 0.242476
0.000000 1.000000 0.274509
0.000000 1.000000 0.267599
0.098190 1.000000 0.260690
0.253780 1.000000 0.253780
0.409371 1.000000 0.246871
0.564961 1.000000 0.239961
0.720552 1.000000 0.233052
0.876142 1.000000 0.226142
1.000000 1.000000 0.219232
0.000000 0.000000 0.620614
0.126204 0.000000 0.613704
0.281795 0.000000 0.606795
0.437385 0.000000 0.599885
0.592976 0.000000 0.592976
0.748567 0.000000 0.586066
0.904157 0.000000 0.579157
1.000000 0.000000 0.572248
1.000000 0.000000 0.565338
0.000000 0.109870 0.597370
0.102961 0.102961 0.590461
0.258551 0.096051 0.583551
0.414141 0.089141 0.576642
0.569732 0.082232 0.569732
0.725322 0.075322 0.562823
0.880913 0.068413 0.555913
1.000000 0.061503 0.549003
1.000000 0.054594 0.542094
0.000000 0.249126 0.574126
0.079717 0.242217 0.567217
0.235307 0.235307 0.560307
0.390898 0.228398 0.553397
0.546488 0.221488 0.546488
0.702079 0.214579 0.539578
0.857669 0.207669 0.532669
1.000000 0.200759 0.525760
1.000000 0.193850 0.518850
0.000000 0.388382 0.550882
0.056472 0.381472 0.543973
0.212063 0.374563 0.537063
0.367653 0.367653 0.530153
0.523244 0.360744 0.523244
0.678835 0.353834 0.516335
0.834425 0.346925 0.509425
0.990016 0.340016 0.502516
1.000000 0.333106 0.495606
0.000000 0.527638 0.527638
0.033228 0.520728 0.520728
0.188819 0.513819 0.513819
0.344410 0.506910 0.506910
0.500000 0.500000 0.500000
0.655590 0.493090 0.493090
0.811181 0.486181 0.486181
0.966772 0.479271 0.479271
1.000000 0.472362 0.472362
0.000000 0.666894 0.504394
0.009984 0.659984 0.497484
0.165575 0.653075 0.490575
0.321165 0.646165 0.483665
0.476756 0.639256 0.476756
0.632347 0.632347 0.469847
0.787937 0.625437 0.462937
0.943527 0.618527 0.456028
1.000000 0.611618 0.449118
0.000000 0.806150 0.481150
0.000000 0.799241 0.474241
0.142331 0.792331 0.467331
0.297921 0.785421 0.460421
0.453512 0.778512 0.453512
0.609102 0.771602 0.446602
0.764693 0.764693 0.439693
0.920284 0.757783 0.432783
1.000000 0.750874 0.425874
0.000000 0.945406 0.457906
0.000000 0.938497 0.450997
0.119087 0.931587 0.444087
0.274678 0.924678 0.437177
0.430268 0.917768 0.430268
0.585859 0.910859 0.423358
0.741449 0.903949 0.416449
0.897039 0.897039 0.409540
1.000000 0.890130 0.402630
0.000000 1.000000 0.434662
0.000000 1.000000 0.427753
0.095843 1.000000 0.420843
0.251433 1.000000 0.413934
0.407024 1.000000 0.407024
0.562615 1.000000 0.400115
0.718205 1.000000 0.393205
0.873795 1.000000 0.386296
1.000000 1.000000 0.379386
0.000000 0.000000 0.780768
0.123858 0.000000 0.773858
0.279448 0.000000 0.766949
0.435039 0.000000 0.760039
0.590629 0.000000 0.753130
0.746220 0.000000 0.746220
0.901810 0.000000 0.739310
1.000000 0.000000 0.732401
1.000000 0.000000 0.725492
0.000000 0.107523 0.757524
0.100614 0.100614 0.750614
0.256204 0.093704 0.743704
0.411795 0.086795 0.736795
0.567385 0.079885 0.729885
0.722976 0.072976 0.722976
0.878567 0.066066 0.716066
1.000000 0.059157 0.709157
1.000000 0.052247 0.702247
0.000000 0.246779 0.734279
0.077370 0.239870 0.727370
0.232961 0.232961 0.720461
0.388551 0.226051 0.713551
0.544142 0.219141 0.706642
0.699732 0.212232 0.699732
0.855322 0.205322 0.692823
1.000000 0.198413 0.685913
1.000000 0.191503 0.679003
0.000000 0.386036 0.711036
0.054126 0.379126 0.704126
0.209717 0.372217 0.697217
0.365307 0.365307 0.690307
0.520898 0.358398 0.683397
0.676488 0.351488 0.676488
0.832078 0.344579 0.669579
0.987669 0.337669 0.662669
1.000000 0.330759 0.655760
0.000000 0.525291 0.687791
0.030882 0.518382 0.680882
0.186473 0.511472 0.673973
0.342063 0.504563 0.667063
0.497654 0.497654 0.660154
0.653244 0.490744 0.653244
0.808835 0.483835 0.646335
0.964425 0.476925 0.639425
1.000000 0.470016 0.632516
0.000000 0.664548 0.664548
0.007638 0.657638 0.657638
0.163228 0.650728 0.650728
0.318819 0.643819 0.643819
0.474410 0.636910 0.636910
0.630000 0.630000 0.630000
0.785591 0.623091 0.623091
0.941181 0.616181 0.616181
1.000000 0.609272 0.609272
0.000000 0.803804 0.641304
0.000000 0.796894 0.634394
0.139984 0.789984 0.627485
0.295575 0.783075 0.620575
0.451165 0.776165 0.613665
0.606756 0.769256 0.606756
0.762347 0.762347 0.599847
0.917937 0.755437 0.592937
1.000000 0.748528 0.586027
0.000000 0.943059 0.618059
0.000000 0.936150 0.611150
0.116740 0.929241 0.604240
0.272331 0.922331 0.597331
0.427921 0.915421 0.590421
0.583512 0.908512 0.583512
0.739102 0.901602 0.576603
0.894693 0.894693 0.569693
1.000000 0.887784 0.562784
0.000000 1.000000 0.594816
0.000000 1.000000 0.587906
0.093496 1.000000 0.580997
0.249087 1.000000 0.574087
0.404678 1.000000 0.567178
0.560268 1.000000 0.560268
0.715858 1.000000 0.553358
0.871449 1.000000 0.546449
1.000000 1.000000 0.539539
0.000000 0.000000 0.940921
0.121511 0.000000 0.934011
0.277102 0.000000 0.927102
0.432693 0.000000 0.920193
0.588283 0.000000 0.913283
0.743873 0.000000 0.906373
0.899464 0.000000 0.899464
1.000000 0.000000 0.892555
1.000000 0.000000 0.885645
0.000000 0.105177 0.917677
0.098267 0.098267 0.910767
0.253858 0.091358 0.903858
0.409448 0.084448 0.896948
0.565039 0.077539 0.890039
0.720630 0.070629 0.883129
0.876220 0.063720 0.876220
1.000000 0.056810 0.869310
1.000000 0.049901 0.862401
0.000000 0.244433 0.894433
0.075023 0.237523 0.887524
0.230614 0.230614 0.880614
0.386205 0.223704 0.873704
0.541795 0.216795 0.866795
0.697385 0.209885 0.859885
0.852976 0.202976 0.852976
1.000000 0.196066 0.846067
1.000000 0.189157 0.839157
0.000000 0.383689 0.871189
0.051779 0.376780 0.864280
0.207370 0.369870 0.857370
0.362961 0.362961 0.850461
0.518551 0.356051 0.843551
0.674141 0.349141 0.836642
0.829732 0.342232 0.829732
0.985322 0.335322 0.822823
1.000000 0.328413 0.815913
0.000000 0.522945 0.847945
0.028536 0.516036 0.841036
0.184126 0.509126 0.834126
0.339717 0.502217 0.827217
0.495307 0.495307 0.820307
0.650898 0.488398 0.813397
0.806488 0.481488 0.806488
0.962079 0.474579 0.799578
1.000000 0.467669 0.792669
0.000000 0.662201 0.824701
0.005291 0.655291 0.817792
0.160882 0.648382 0.810882
0.316472 0.641473 0.803972
0.472063 0.634563 0.797063
0.627654 0.627654 0.790154
0.783244 0.620744 0.783244
0.938835 0.613835 0.776335
1.000000 0.606925 0.769425
0.000000 0.801457 0.801457
0.000000 0.794547 0.794547
0.137638 0.787638 0.787638
0.293228 0.780728 0.780728
0.448819 0.773819 0.773819
0.604409 0.766909 0.766909
0.760000 0.760000 0.760000
0.915590 0.753090 0.753090
1.000000 0.746181 0.746181
0.000000 0.940713 0.778213
0.000000 0.933804 0.771303
0.114394 0.926894 0.764394
0.269984 0.919984 0.757485
0.425575 0.913075 0.750575
0.581166 0.906165 0.743665
0.736756 0.899256 0.736756
0.892347 0.892347 0.729847
1.000000 0.885437 0.722937
0.000000 1.000000 0.754969
0.000000 1.000000 0.748059
0.091150 1.000000 0.741150
0.246740 1.000000 0.734240
0.402331 1.000000 0.727331
0.557921 1.000000 0.720422
0.713512 1.000000 0.713512
0.869103 1.000000 0.706603
1.000000 1.000000 0.699693
0.000000 0.000000 1.000000
0.119165 0.000000 1.000000
0.274755 0.000000 1.000000
0.430346 0.000000 1.000000
0.585936 0.000000 1.000000
0.741527 0.000000 1.000000
0.897118 0.000000 1.000000
1.000000 0.000000 1.000000
1.000000 0.000000 1.000000
0.000000 0.102830 1.000000
0.095921 0.095921 1.000000
0.251511 0.089012 1.000000
0.407102 0.082102 1.000000
0.562693 0.075192 1.000000
0.718283 0.068283 1.000000
0.873873 0.061373 1.000000
1.000000 0.054464 1.000000
1.000000 0.047554 1.000000
0.000000 0.242086 1.000000
0.072677 0.235177 1.000000
0.228267 0.228267 1.000000
0.383858 0.221358 1.000000
0.539448 0.214448 1.000000
0.695039 0.207539 1.000000
0.850630 0.200630 1.000000
1.000000 0.193720 1.000000
1.000000 0.186810 0.999310
0.000000 0.381343 1.000000
0.049433 0.374433 1.000000
0.205023 0.367524 1.000000
0.360614 0.360614 1.000000
0.516204 0.353704 1.000000
0.671795 0.346795 0.996795
0.827385 0.339885 0.989885
0.982976 0.332976 0.982976
1.000000 0.326066 0.976066
0.000000 0.520599 1.000000
0.026189 0.513689 1.000000
0.181779 0.506780 0.994279
0.337370 0.499870 0.987370
0.492961 0.492961 0.980460
0.648551 0.486051 0.973551
0.804142 0.479141 0.966642
0.959732 0.472232 0.959732
1.000000 0.465322 0.952823
0.000000 0.659855 0.984855
0.002945 0.652945 0.977945
0.158536 0.646035 0.971036
0.314126 0.639126 0.964126
0.469717 0.632217 0.957217
0.625307 0.625307 0.950307
0.780898 0.618398 0.943398
0.936488 0.611488 0.936488
1.000000 0.604579 0.929579
0.000000 0.799111 0.961611
0.000000 0.792201 0.954701
0.135291 0.785292 0.947791
0.290882 0.778382 0.940882
0.446472 0.771473 0.933973
0.602063 0.764563 0.927063
0.757653 0.757653 0.920154
0.913244 0.750744 0.913244
1.000000 0.743835 0.906335
0.000000 0.938366 0.938366
0.000000 0.931457 0.931457
0.112048 0.924548 0.924548
0.267638 0.917638 0.917638
0.423229 0.910728 0.910728
0.578819 0.903819 0.903819
0.734410 0.896910 0.896910
0.890000 0.890000 0.890000
1.000000 0.883091 0.883091
0.000000 1.000000 0.915123
0.000000 1.000000 0.908213
0.088803 1.000000 0.901304
0.244394 1.000000 0.894394
0.399985 1.000000 0.887485
0.555575 1.000000 0.880575
0.711166 1.000000 0.873665
0.866756 1.000000 0.866756
1.000000 1.000000 0.859847
0.000000 0.000000 1.000000
0.116818 0.000000 1.000000
0.272409 0.000000 1.000000
0.428000 0.000000 1.000000
0.583590 0.000000 1.000000
0.739181 0.000000 1.000000
0.894771 0.000000 1.000000
1.000000 0.000000 1.000000
1.000000 0.000000 1.000000
0.000000 0.100484 1.000000
0.093575 0.093575 1.000000
0.249165 0.086665 1.000000
0.404755 0.079755 1.000000
0.560346 0.072846 1.000000
0.715936 0.065936 1.000000
0.871527 0.059027 1.000000
1.000000 0.052118 1.000000
1.000000 0.045208 1.000000
0.000000 0.239740 1.000000
0.070331 0.232830 1.000000
0.225921 0.225921 1.000000
0.381512 0.219012 1.000000
0.537102 0.212102 1.000000
0.692693 0.205192 1.000000
0.848283 0.198283 1.000000
1.000000 0.191373 1.000000
1.000000 0.184464 1.000000
0.000000 0.378996 1.000000
0.047086 0.372086 1.000000
0.202677 0.365177 1.000000
0.358267 0.358267 1.000000
0.513858 0.351358 1.000000
0.669449 0.344448 1.000000
0.825039 0.337539 1.000000
0.980630 0.330629 1.000000
1.000000 0.323720 1.000000
0.000000 0.518252 1.000000
0.023842 0.511343 1.000000
0.179433 0.504433 1.000000
0.335024 0.497524 1.000000
0.490614 0.490614 1.000000
0.646204 0.483704 1.000000
0.801795 0.476795 1.000000
0.957386 0.469885 1.000000
1.000000 0.462976 1.000000
0.000000 0.657508 1.000000
0.000599 0.650599 1.000000
0.156189 0.643689 1.000000
0.311779 0.636780 1.000000
0.467370 0.629870 1.000000
0.622961 0.622961 1.000000
0.778551 0.616051 1.000000
0.934141 0.609142 1.000000
1.000000 0.602232 1.000000
0.000000 0.796764 1.000000
0.000000 0.789854 1.000000
0.132945 0.782945 1.000000
0.288535 0.776036 1.000000
0.444126 0.769126 1.000000
0.599716 0.762216 1.000000
0.755307 0.755307 1.000000
0.910898 0.748398 1.000000
1.000000 0.741488 1.000000
0.000000 0.936020 1.000000
0.000000 0.929111 1.000000
0.109701 0.922201 1.000000
0.265291 0.915291 1.000000
0.420882 0.908382 1.000000
0.576473 0.901473 1.000000
0.732063 0.894563 1.000000
0.887654 0.887654 1.000000
1.000000 0.880744 1.000000
0.000000 1.000000 1.000000
0.000000 1.000000 1.000000
0.086457 1.000000 1.000000
0.242047 1.000000 1.000000
0.397638 1.000000 1.000000
0.553228 1.000000 1.000000
0.708819 1.000000 1.000000
0.864410 1.000000 1.000000
1.000000 1.000000 1.000000
