Data/Shaders/SimpleGraphicsSuite/LUTs/Vibrant.cube
LUT_3D_SIZE 17
0.000000 0.000000 0.000000
0.057795 0.000000 0.000000
0.135591 0.000000 0.000000
0.213386 0.000000 0.000000
0.291181 0.000000 0.000000
0.368976 0.000000 0.000000
0.446771 0.000000 0.000000
0.524567 0.000000 0.000000
0.602362 0.000000 0.000000
0.680157 0.000000 0.000000
0.757952 0.000000 0.000000
0.835748 0.000000 0.000000
0.913543 0.000000 0.000000
0.991338 0.000000 0.000000
1.000000 0.000000 0.000000
1.000000 0.000000 0.000000
1.000000 0.000000 0.000000
0.000000 0.049628 0.000000
0.046173 0.046173 0.000000
0.123968 0.042718 0.000000
0.201764 0.039264 0.000000
0.279559 0.035809 0.000000
0.357354 0.032354 0.000000
0.435149 0.028899 0.000000
0.512945 0.025445 0.000000
0.590740 0.021990 0.000000
0.668535 0.018535 0.000000
0.746331 0.015080 0.000000
0.824126 0.011626 0.000000
0.901921 0.008171 0.000000
0.979716 0.004716 0.000000
1.000000 0.001261 0.000000
1.000000 0.000000 0.000000
1.000000 0.000000 0.000000
0.000000 0.119256 0.000000
0.034551 0.115801 0.000000
0.112347 0.112347 0.000000
0.190142 0.108892 0.000000
0.267937 0.105437 0.000000
0.345732 0.101982 0.000000
0.423527 0.098527 0.000000
0.501323 0.095073 0.000000
0.579118 0.091618 0.000000
0.656913 0.088163 0.000000
0.734709 0.084708 0.000000
0.812504 0.081254 0.000000
0.890299 0.077799 0.000000
0.968094 0.074344 0.000000
1.000000 0.070889 0.000000
1.000000 0.067435 0.000000
1.000000 0.063980 0.000000
0.000000 0.188884 0.000000
0.022929 0.185429 0.000000
0.100724 0.181975 0.000000
0.178520 0.178520 0.000000
0.256315 0.175065 0.000000
0.334110 0.171610 0.000000
0.411906 0.168156 0.000000
0.489701 0.164701 0.000000
0.567496 0.161246 0.000000
0.645291 0.157791 0.000000
0.723086 0.154336 0.000000
0.800882 0.150882 0.000000
0.878677 0.147427 0.000000
0.956472 0.143972 0.000000
1.000000 0.140517 0.000000
1.000000 0.137063 0.000000
1.000000 0.133608 0.000000
0.000000 0.258512 0.000000
0.011307 0.255057 0.000000
0.089102 0.251602 0.000000
0.166898 0.248148 0.000000
0.244693 0.244693 0.000000
0.322488 0.241238 0.000000
0.400283 0.237783 0.000000
0.478079 0.234329 0.000000
0.555874 0.230874 0.000000
0.633669 0.227419 0.000000
0.711464 0.223964 0.000000
0.789260 0.220510 0.000000
0.867055 0.217055 0.000000
0.944850 0.213600 0.000000
1.000000 0.210145 0.000000
1.000000 0.206691 0.000000
1.000000 0.203236 0.000000
0.000000 0.328140 0.000000
0.000000 0.324685 0.000000
0.077480 0.321230 0.000000
0.155276 0.317776 0.000000
0.233071 0.314321 0.000000
0.310866 0.310866 0.000000
0.388662 0.307412 0.000000
0.466457 0.303957 0.000000
0.544252 0.300502 0.000000
0.622047 0.297047 0.000000
0.699843 0.293593 0.000000
0.777638 0.290138 0.000000
0.855433 0.286683 0.000000
0.933228 0.283228 0.000000
1.000000 0.279774 0.000000
1.000000 0.276319 0.000000
1.000000 0.272864 0.000000
0.000000 0.397768 0.000000
0.000000 0.394313 0.000000
0.065858 0.390858 0.000000
0.143654 0.387404 0.000000
0.221449 0.383949 0.000000
0.299244 0.380494 0.000000
0.377039 0.377039 0.000000
0.454835 0.373585 0.000000
0.532630 0.370130 0.000000
0.610425 0.366675 0.000000
0.688221 0.363220 0.000000
0.766016 0.359766 0.000000
0.843811 0.356311 0.000000
0.921606 0.352856 0.000000
0.999402 0.349401 0.000000
1.000000 0.345947 0.000000
1.000000 0.342492 0.000000
0.000000 0.467396 0.000000
0.000000 0.463941 0.000000
0.054236 0.460487 0.000000
0.132032 0.457032 0.000000
0.209827 0.453577 0.000000
0.287622 0.450122 0.000000
0.365418 0.446667 0.000000
0.443213 0.443213 0.000000
0.521008 0.439758 0.000000
0.598803 0.436303 0.000000
0.676598 0.432848 0.000000
0.754394 0.429394 0.000000
0.832189 0.425939 0.000000
0.909984 0.422484 0.000000
0.987780 0.419030 0.000000
1.000000 0.415575 0.000000
1.000000 0.412120 0.000000
0.000000 0.537024 0.000000
0.000000 0.533569 0.000000
0.042614 0.530115 0.000000
0.120410 0.526660 0.000000
0.198205 0.523205 0.000000
0.276000 0.519750 0.000000
0.353796 0.516296 0.000000
0.431591 0.512841 0.000000
0.509386 0.509386 0.000000
0.587181 0.505931 0.000000
0.664976 0.502476 0.000000
0.742772 0.499022 0.000000
0.820567 0.495567 0.000000
0.898362 0.492112 0.000000
0.976158 0.488657 0.000000
1.000000 0.485203 0.000000
1.000000 0.481748 0.000000
0.000000 0.606652 0.000000
0.000000 0.603197 0.000000
0.030992 0.599742 0.000000
0.108788 0.596288 0.000000
0.186583 0.592833 0.000000
0.264378 0.589378 0.000000
0.342174 0.585923 0.000000
0.419969 0.582469 0.000000
0.497764 0.579014 0.000000
0.575559 0.575559 0.000000
0.653355 0.572105 0.000000
0.731150 0.568650 0.000000
0.808945 0.565195 0.000000
0.886740 0.561740 0.000000
0.964535 0.558285 0.000000
1.000000 0.554831 0.000000
1.000000 0.551376 0.000000
0.000000 0.676280 0.000000
0.000000 0.672825 0.000000
0.019371 0.669371 0.000000
0.097166 0.665916 0.000000
0.174961 0.662461 0.000000
0.252756 0.659006 0.000000
0.330551 0.655552 0.000000
0.408347 0.652097 0.000000
0.486142 0.648642 0.000000
0.563937 0.645187 0.000000
0.641733 0.641733 0.000000
0.719528 0.638278 0.000000
0.797323 0.634823 0.000000
0.875118 0.631368 0.000000
0.952913 0.627914 0.000000
1.000000 0.624459 0.000000
1.000000 0.621004 0.000000
0.000000 0.745908 0.000000
0.000000 0.742453 0.000000
0.007748 0.738999 0.000000
0.085544 0.735544 0.000000
0.163339 0.732089 0.000000
0.241134 0.728634 0.000000
0.318929 0.725179 0.000000
0.396725 0.721725 0.000000
0.474520 0.718270 0.000000
0.552315 0.714815 0.000000
0.630111 0.711360 0.000000
0.707906 0.707906 0.000000
0.785701 0.704451 0.000000
0.863496 0.700996 0.000000
0.941292 0.697542 0.000000
1.000000 0.694087 0.000000
1.000000 0.690632 0.000000
0.000000 0.815536 0.000000
0.000000 0.812081 0.000000
0.000000 0.808627 0.000000
0.073922 0.805172 0.000000
0.151717 0.801717 0.000000
0.229512 0.798262 0.000000
0.307307 0.794807 0.000000
0.385103 0.791353 0.000000
0.462898 0.787898 0.000000
0.540693 0.784443 0.000000
0.618488 0.780989 0.000000
0.696284 0.777534 0.000000
0.774079 0.774079 0.000000
0.851874 0.770624 0.000000
0.929670 0.767170 0.000000
1.000000 0.763715 0.000000
1.000000 0.760260 0.000000
0.000000 0.885164 0.000000
0.000000 0.881709 0.000000
0.000000 0.878255 0.000000
0.062300 0.874800 0.000000
0.140095 0.871345 0.000000
0.217890 0.867890 0.000000
0.295685 0.864436 0.000000
0.373481 0.860981 0.000000
0.451276 0.857526 0.000000
0.529071 0.854071 0.000000
0.606866 0.850616 0.000000
0.684662 0.847162 0.000000
0.762457 0.843707 0.000000
0.840252 0.840252 0.000000
0.918048 0.836797 0.000000
0.995843 0.833343 0.000000
1.000000 0.829888 0.000000
0.000000 0.954792 0.000000
0.000000 0.951337 0.000000
0.000000 0.947882 0.000000
0.050678 0.944428 0.000000
0.128473 0.940973 0.000000
0.206268 0.937518 0.000000
0.284064 0.934064 0.000000
0.361859 0.930609 0.000000
0.439654 0.927154 0.000000
0.517449 0.923699 0.000000
0.595244 0.920244 0.000000
0.673040 0.916790 0.000000
0.750835 0.913335 0.000000
0.828630 0.909880 0.000000
0.906426 0.906426 0.000000
0.984221 0.902971 0.000000
1.000000 0.899516 0.000000
0.000000 1.000000 0.000000
0.000000 1.000000 0.000000
0.000000 1.000000 0.000000
0.039056 1.000000 0.000000
0.116851 1.000000 0.000000
0.194646 1.000000 0.000000
0.272442 1.000000 0.000000
0.350237 1.000000 0.000000
0.428032 0.996782 0.000000
0.505827 0.993327 0.000000
0.583623 0.989873 0.000000
0.661418 0.986418 0.000000
0.739213 0.982963 0.000000
0.817008 0.979508 0.000000
0.894804 0.976054 0.000000
0.972599 0.972599 0.000000
1.000000 0.969144 0.000000
0.000000 1.000000 0.000000
0.000000 1.000000 0.000000
0.000000 1.000000 0.000000
0.027434 1.000000 0.000000
0.105229 1.000000 0.000000
0.183024 1.000000 0.000000
0.260819 1.000000 0.000000
0.338615 1.000000 0.000000
0.416410 1.000000 0.000000
0.494205 1.000000 0.000000
0.572001 1.000000 0.000000
0.649796 1.000000 0.000000
0.727591 1.000000 0.000000
0.805386 1.000000 0.000000
0.883181 1.000000 0.000000
0.960977 1.000000 0.000000
1.000000 1.000000 0.000000
0.000000 0.000000 0.060077
0.056622 0.000000 0.056622
0.134417 0.000000 0.053167
0.212212 0.000000 0.049712
0.290008 0.000000 0.046258
0.367803 0.000000 0.042803
0.445598 0.000000 0.039348
0.523393 0.000000 0.035893
0.601189 0.000000 0.032439
0.678984 0.000000 0.028984
0.756779 0.000000 0.025529
0.834574 0.000000 0.022074
0.912370 0.000000 0.018620
0.990165 0.000000 0.015165
1.000000 0.000000 0.011710
1.000000 0.000000 0.008255
1.000000 0.000000 0.004801
0.000000 0.048455 0.048455
0.045000 0.045000 0.045000
0.122795 0.041545 0.041545
0.200591 0.038090 0.038090
0.278386 0.034636 0.034636
0.356181 0.031181 0.031181
0.433976 0.027726 0.027726
0.511772 0.024271 0.024271
0.589567 0.020817 0.020817
0.667362 0.017362 0.017362
0.745157 0.013907 0.013907
0.822952 0.010453 0.010453
0.900748 0.006998 0.006998
0.978543 0.003543 0.003543
1.000000 0.000088 0.000088
1.000000 0.000000 0.000000
1.000000 0.000000 0.000000
0.000000 0.118083 0.036833
0.033378 0.114628 0.033378
0.111173 0.111173 0.029923
0.188968 0.107718 0.026469
0.266764 0.104264 0.023014
0.344559 0.100809 0.019559
0.422354 0.097354 0.016104
0.500150 0.093899 0.012649
0.577945 0.090445 0.009195
0.655740 0.086990 0.005740
0.733535 0.083535 0.002285
0.811330 0.080080 0.000000
0.889126 0.076626 0.000000
0.966921 0.073171 0.000000
1.000000 0.069716 0.000000
1.000000 0.066261 0.000000
1.000000 0.062807 0.000000
0.000000 0.187711 0.025211
0.021756 0.184256 0.021756
0.099551 0.180801 0.018301
0.177347 0.177347 0.014846
0.255142 0.173892 0.011392
0.332937 0.170437 0.007937
0.410732 0.166982 0.004482
0.488527 0.163527 0.001028
0.566323 0.160073 0.000000
0.644118 0.156618 0.000000
0.721913 0.153163 0.000000
0.799709 0.149708 0.000000
0.877504 0.146254 0.000000
0.955299 0.142799 0.000000
1.000000 0.139344 0.000000
1.000000 0.135889 0.000000
1.000000 0.132435 0.000000
0.000000 0.257339 0.013589
0.010134 0.253884 0.010134
0.087929 0.250429 0.006679
0.165724 0.246975 0.003225
0.243520 0.243520 0.000000
0.321315 0.240065 0.000000
0.399110 0.236610 0.000000
0.476906 0.233156 0.000000
0.554701 0.229701 0.000000
0.632496 0.226246 0.000000
0.710291 0.222791 0.000000
0.788087 0.219336 0.000000
0.865882 0.215882 0.000000
0.943677 0.212427 0.000000
1.000000 0.208972 0.000000
1.000000 0.205517 0.000000
1.000000 0.202063 0.000000
0.000000 0.326967 0.001967
0.000000 0.323512 0.000000
0.076307 0.320057 0.000000
0.154102 0.316603 0.000000
0.231898 0.313148 0.000000
0.309693 0.309693 0.000000
0.387488 0.306238 0.000000
0.465284 0.302783 0.000000
0.543079 0.299329 0.000000
0.620874 0.295874 0.000000
0.698669 0.292419 0.000000
0.776464 0.288965 0.000000
0.854260 0.285510 0.000000
0.932055 0.282055 0.000000
1.000000 0.278600 0.000000
1.000000 0.275146 0.000000
1.000000 0.271691 0.000000
0.000000 0.396595 0.000000
0.000000 0.393140 0.000000
0.064685 0.389685 0.000000
0.142480 0.386230 0.000000
0.220276 0.382776 0.000000
0.298071 0.379321 0.000000
0.375866 0.375866 0.000000
0.453662 0.372412 0.000000
0.531457 0.368957 0.000000
0.609252 0.365502 0.000000
0.687047 0.362047 0.000000
0.764843 0.358593 0.000000
0.842638 0.355138 0.000000
0.920433 0.351683 0.000000
0.998228 0.348228 0.000000
1.000000 0.344774 0.000000
1.000000 0.341319 0.000000
0.000000 0.466223 0.000000
0.000000 0.462768 0.000000
0.053063 0.459313 0.000000
0.130858 0.455858 0.000000
0.208654 0.452404 0.000000
0.286449 0.448949 0.000000
0.364244 0.445494 0.000000
0.442039 0.442039 0.000000
0.519835 0.438585 0.000000
0.597630 0.435130 0.000000
0.675425 0.431675 0.000000
0.753221 0.428221 0.000000
0.831016 0.424766 0.000000
0.908811 0.421311 0.000000
0.986606 0.417856 0.000000
1.000000 0.414401 0.000000
1.000000 0.410947 0.000000
0.000000 0.535851 0.000000
0.000000 0.532396 0.000000
0.041441 0.528941 0.000000
0.119236 0.525486 0.000000
0.197032 0.522032 0.000000
0.274827 0.518577 0.000000
0.352622 0.515122 0.000000
0.430418 0.511668 0.000000
0.508213 0.508213 0.000000
0.586008 0.504758 0.000000
0.663803 0.501303 0.000000
0.741598 0.497848 0.000000
0.819394 0.494394 0.000000
0.897189 0.490939 0.000000
0.974984 0.487484 0.000000
1.000000 0.484030 0.000000
1.000000 0.480575 0.000000
0.000000 0.605479 0.000000
0.000000 0.602024 0.000000
0.029819 0.598569 0.000000
0.107615 0.595114 0.000000
0.185410 0.591660 0.000000
0.263205 0.588205 0.000000
0.341000 0.584750 0.000000
0.418795 0.581295 0.000000
0.496591 0.577841 0.000000
0.574386 0.574386 0.000000
0.652181 0.570931 0.000000
0.729977 0.567477 0.000000
0.807772 0.564022 0.000000
0.885567 0.560567 0.000000
0.963362 0.557112 0.000000
1.000000 0.553658 0.000000
1.000000 0.550203 0.000000
0.000000 0.675107 0.000000
0.000000 0.671652 0.000000
0.018197 0.668197 0.000000
0.095993 0.664743 0.000000
0.173788 0.661288 0.000000
0.251583 0.657833 0.000000
0.329378 0.654378 0.000000
0.407173 0.650923 0.000000
0.484969 0.647469 0.000000
0.562764 0.644014 0.000000
0.640559 0.640559 0.000000
0.718355 0.637105 0.000000
0.796150 0.633650 0.000000
0.873945 0.630195 0.000000
0.951740 0.626740 0.000000
1.000000 0.623285 0.000000
1.000000 0.619831 0.000000
0.000000 0.744735 0.000000
0.000000 0.741280 0.000000
0.006575 0.737825 0.000000
0.084371 0.734371 0.000000
0.162166 0.730916 0.000000
0.239961 0.727461 0.000000
0.317756 0.724006 0.000000
0.395552 0.720552 0.000000
0.473347 0.717097 0.000000
0.551142 0.713642 0.000000
0.628937 0.710187 0.000000
0.706732 0.706732 0.000000
0.784528 0.703278 0.000000
0.862323 0.699823 0.000000
0.940118 0.696368 0.000000
1.000000 0.692913 0.000000
1.000000 0.689459 0.000000
0.000000 0.814363 0.000000
0.000000 0.810908 0.000000
0.000000 0.807453 0.000000
0.072748 0.803999 0.000000
0.150544 0.800544 0.000000
0.228339 0.797089 0.000000
0.306134 0.793634 0.000000
0.383929 0.790180 0.000000
0.461725 0.786725 0.000000
0.539520 0.783270 0.000000
0.617315 0.779815 0.000000
0.695110 0.776361 0.000000
0.772906 0.772906 0.000000
0.850701 0.769451 0.000000
0.928496 0.765996 0.000000
1.000000 0.762541 0.000000
1.000000 0.759087 0.000000
0.000000 0.883991 0.000000
0.000000 0.880536 0.000000
0.000000 0.877081 0.000000
0.061127 0.873627 0.000000
0.138922 0.870172 0.000000
0.216717 0.866717 0.000000
0.294512 0.863262 0.000000
0.372308 0.859808 0.000000
0.450103 0.856353 0.000000
0.527898 0.852898 0.000000
0.605693 0.849443 0.000000
0.683489 0.845989 0.000000
0.761284 0.842534 0.000000
0.839079 0.839079 0.000000
0.916874 0.835624 0.000000
0.994670 0.832170 0.000000
1.000000 0.828715 0.000000
0.000000 0.953619 0.000000
0.000000 0.950164 0.000000
0.000000 0.946709 0.000000
0.049505 0.943255 0.000000
0.127300 0.939800 0.000000
0.205095 0.936345 0.000000
0.282890 0.932890 0.000000
0.360685 0.929436 0.000000
0.438481 0.925981 0.000000
0.516276 0.922526 0.000000
0.594071 0.919071 0.000000
0.671867 0.915617 0.000000
0.749662 0.912162 0.000000
0.827457 0.908707 0.000000
0.905252 0.905252 0.000000
0.983048 0.901798 0.000000
1.000000 0.898343 0.000000
0.000000 1.000000 0.000000
0.000000 1.000000 0.000000
0.000000 1.000000 0.000000
0.037882 1.000000 0.000000
0.115678 1.000000 0.000000
0.193473 1.000000 0.000000
0.271268 1.000000 0.000000
0.349063 0.999063 0.000000
0.426859 0.995609 0.000000
0.504654 0.992154 0.000000
0.582449 0.988699 0.000000
0.660244 0.985244 0.000000
0.738040 0.981790 0.000000
0.815835 0.978335 0.000000
0.893630 0.974880 0.000000
0.971426 0.971426 0.000000
1.000000 0.967971 0.000000
0.000000 1.000000 0.000000
0.000000 1.000000 0.000000
0.000000 1.000000 0.000000
0.026261 1.000000 0.000000
0.104056 1.000000 0.000000
0.181851 1.000000 0.000000
0.259646 1.000000 0.000000
0.337442 1.000000 0.000000
0.415237 1.000000 0.000000
0.493032 1.000000 0.000000
0.570827 1.000000 0.000000
0.648622 1.000000 0.000000
0.726418 1.000000 0.000000
0.804213 1.000000 0.000000
0.882008 1.000000 0.000000
0.959804 1.000000 0.000000
1.000000 1.000000 0.000000
0.000000 0.000000 0.140153
0.055449 0.000000 0.136699
0.133244 0.000000 0.133244
0.211039 0.000000 0.129789
0.288834 0.000000 0.126335
0.366630 0.000000 0.122880
0.444425 0.000000 0.119425
0.522220 0.000000 0.115970
0.600016 0.000000 0.112515
0.677811 0.000000 0.109061
0.755606 0.000000 0.105606
0.833401 0.000000 0.102151
0.911196 0.000000 0.098697
0.988992 0.000000 0.095242
1.000000 0.000000 0.091787
1.000000 0.000000 0.088332
1.000000 0.000000 0.084877
0.000000 0.047281 0.128531
0.043827 0.043827 0.125077
0.121622 0.040372 0.121622
0.199417 0.036917 0.118167
0.277212 0.033462 0.114712
0.355008 0.030008 0.111258
0.432803 0.026553 0.107803
0.510598 0.023098 0.104348
0.588394 0.019643 0.100893
0.666189 0.016189 0.097439
0.743984 0.012734 0.093984
0.821779 0.009279 0.090529
0.899574 0.005824 0.087074
0.977370 0.002370 0.083620
1.000000 0.000000 0.080165
1.000000 0.000000 0.076710
1.000000 0.000000 0.073255
0.000000 0.116909 0.116909
0.032205 0.113455 0.113455
0.110000 0.110000 0.110000
0.187795 0.106545 0.106545
0.265590 0.103090 0.103090
0.343386 0.099636 0.099636
0.421181 0.096181 0.096181
0.498976 0.092726 0.092726
0.576771 0.089271 0.089271
0.654567 0.085817 0.085817
0.732362 0.082362 0.082362
0.810157 0.078907 0.078907
0.887952 0.075452 0.075452
0.965748 0.071998 0.071998
1.000000 0.068543 0.068543
1.000000 0.065088 0.065088
1.000000 0.061634 0.061634
0.000000 0.186538 0.105287
0.020583 0.183083 0.101833
0.098378 0.179628 0.098378
0.176173 0.176173 0.094923
0.253968 0.172718 0.091469
0.331764 0.169264 0.088014
0.409559 0.165809 0.084559
0.487354 0.162354 0.081104
0.565149 0.158899 0.077649
0.642945 0.155445 0.074195
0.720740 0.151990 0.070740
0.798535 0.148535 0.067285
0.876331 0.145081 0.063830
0.954126 0.141626 0.060376
1.000000 0.138171 0.056921
1.000000 0.134716 0.053466
1.000000 0.131261 0.050011
0.000000 0.256165 0.093665
0.008961 0.252711 0.090211
0.086756 0.249256 0.086756
0.164551 0.245801 0.083301
0.242347 0.242347 0.079846
0.320142 0.238892 0.076392
0.397937 0.235437 0.072937
0.475732 0.231982 0.069482
0.553527 0.228527 0.066028
0.631323 0.225073 0.062573
0.709118 0.221618 0.059118
0.786913 0.218163 0.055663
0.864709 0.214708 0.052208
0.942504 0.211254 0.048754
1.000000 0.207799 0.045299
1.000000 0.204344 0.041844
1.000000 0.200889 0.038389
0.000000 0.325794 0.082044
0.000000 0.322339 0.078589
0.075134 0.318884 0.075134
0.152929 0.315429 0.071679
0.230724 0.311975 0.068225
0.308520 0.308520 0.064770
0.386315 0.305065 0.061315
0.464110 0.301610 0.057860
0.541906 0.298156 0.054405
0.619701 0.294701 0.050951
0.697496 0.291246 0.047496
0.775291 0.287791 0.044041
0.853087 0.284336 0.040586
0.930882 0.280882 0.037132
1.000000 0.277427 0.033677
1.000000 0.273972 0.030222
1.000000 0.270517 0.026767
0.000000 0.395421 0.070421
0.000000 0.391967 0.066967
0.063512 0.388512 0.063512
0.141307 0.385057 0.060057
0.219102 0.381602 0.056602
0.296898 0.378148 0.053148
0.374693 0.374693 0.049693
0.452488 0.371238 0.046238
0.530284 0.367783 0.042783
0.608079 0.364329 0.039329
0.685874 0.360874 0.035874
0.763669 0.357419 0.032419
0.841464 0.353965 0.028965
0.919260 0.350510 0.025510
0.997055 0.347055 0.022055
1.000000 0.343600 0.018600
1.000000 0.340145 0.015145
0.000000 0.465050 0.058800
0.000000 0.461595 0.055345
0.051890 0.458140 0.051890
0.129685 0.454685 0.048435
0.207480 0.451230 0.044980
0.285276 0.447776 0.041526
0.363071 0.444321 0.038071
0.440866 0.440866 0.034616
0.518661 0.437412 0.031162
0.596457 0.433957 0.027707
0.674252 0.430502 0.024252
0.752047 0.427047 0.020797
0.829843 0.423593 0.017343
0.907638 0.420138 0.013888
0.985433 0.416683 0.010433
1.000000 0.413228 0.006978
1.000000 0.409774 0.003524
0.000000 0.534678 0.047177
0.000000 0.531223 0.043723
0.040268 0.527768 0.040268
0.118063 0.524313 0.036813
0.195858 0.520859 0.033358
0.273654 0.517404 0.029904
0.351449 0.513949 0.026449
0.429244 0.510494 0.022994
0.507039 0.507039 0.019539
0.584835 0.503585 0.016085
0.662630 0.500130 0.012630
0.740425 0.496675 0.009175
0.818221 0.493221 0.005720
0.896016 0.489766 0.002266
0.973811 0.486311 0.000000
1.000000 0.482856 0.000000
1.000000 0.479401 0.000000
0.000000 0.604306 0.035556
0.000000 0.600851 0.032101
0.028646 0.597396 0.028646
0.106441 0.593941 0.025191
0.184236 0.590486 0.021736
0.262032 0.587032 0.018282
0.339827 0.583577 0.014827
0.417622 0.580122 0.011372
0.495418 0.576668 0.007918
0.573213 0.573213 0.004463
0.651008 0.569758 0.001008
0.728803 0.566303 0.000000
0.806598 0.562849 0.000000
0.884394 0.559394 0.000000
0.962189 0.555939 0.000000
1.000000 0.552484 0.000000
1.000000 0.549030 0.000000
0.000000 0.673933 0.023933
0.000000 0.670479 0.020479
0.017024 0.667024 0.017024
0.094819 0.663569 0.013569
0.172615 0.660115 0.010115
0.250410 0.656660 0.006660
0.328205 0.653205 0.003205
0.406000 0.649750 0.000000
0.483795 0.646296 0.000000
0.561591 0.642841 0.000000
0.639386 0.639386 0.000000
0.717181 0.635931 0.000000
0.794976 0.632476 0.000000
0.872772 0.629022 0.000000
0.950567 0.625567 0.000000
1.000000 0.622112 0.000000
1.000000 0.618657 0.000000
0.000000 0.743561 0.012311
0.000000 0.740107 0.008857
0.005402 0.736652 0.005402
0.083197 0.733197 0.001947
0.160993 0.729743 0.000000
0.238788 0.726288 0.000000
0.316583 0.722833 0.000000
0.394378 0.719378 0.000000
0.472174 0.715923 0.000000
0.549969 0.712469 0.000000
0.627764 0.709014 0.000000
0.705559 0.705559 0.000000
0.783355 0.702105 0.000000
0.861150 0.698650 0.000000
0.938945 0.695195 0.000000
1.000000 0.691740 0.000000
1.000000 0.688286 0.000000
0.000000 0.813190 0.000690
0.000000 0.809735 0.000000
0.000000 0.806280 0.000000
0.071575 0.802825 0.000000
0.149371 0.799370 0.000000
0.227166 0.795916 0.000000
0.304961 0.792461 0.000000
0.382756 0.789006 0.000000
0.460552 0.785551 0.000000
0.538347 0.782097 0.000000
0.616142 0.778642 0.000000
0.693937 0.775187 0.000000
0.771733 0.771733 0.000000
0.849528 0.768278 0.000000
0.927323 0.764823 0.000000
1.000000 0.761368 0.000000
1.000000 0.757914 0.000000
0.000000 0.882818 0.000000
0.000000 0.879363 0.000000
0.000000 0.875908 0.000000
0.059953 0.872453 0.000000
0.137748 0.868999 0.000000
0.215544 0.865544 0.000000
0.293339 0.862089 0.000000
0.371134 0.858634 0.000000
0.448929 0.855179 0.000000
0.526725 0.851725 0.000000
0.604520 0.848270 0.000000
0.682315 0.844815 0.000000
0.760110 0.841360 0.000000
0.837906 0.837906 0.000000
0.915701 0.834451 0.000000
0.993496 0.830996 0.000000
1.000000 0.827542 0.000000
0.000000 0.952446 0.000000
0.000000 0.948991 0.000000
0.000000 0.945536 0.000000
0.048331 0.942081 0.000000
0.126127 0.938627 0.000000
0.203922 0.935172 0.000000
0.281717 0.931717 0.000000
0.359512 0.928262 0.000000
0.437308 0.924808 0.000000
0.515103 0.921353 0.000000
0.592898 0.917898 0.000000
0.670693 0.914443 0.000000
0.748489 0.910988 0.000000
0.826284 0.907534 0.000000
0.904079 0.904079 0.000000
0.981874 0.900624 0.000000
1.000000 0.897170 0.000000
0.000000 1.000000 0.000000
0.000000 1.000000 0.000000
0.000000 1.000000 0.000000
0.036709 1.000000 0.000000
0.114505 1.000000 0.000000
0.192300 1.000000 0.000000
0.270095 1.000000 0.000000
0.347890 0.997890 0.000000
0.425685 0.994436 0.000000
0.503481 0.990981 0.000000
0.581276 0.987526 0.000000
0.659071 0.984071 0.000000
0.736866 0.980617 0.000000
0.814662 0.977162 0.000000
0.892457 0.973707 0.000000
0.970252 0.970252 0.000000
1.000000 0.966797 0.000000
0.000000 1.000000 0.000000
0.000000 1.000000 0.000000
0.000000 1.000000 0.000000
0.025087 1.000000 0.000000
0.102882 1.000000 0.000000
0.180678 1.000000 0.000000
0.258473 1.000000 0.000000
0.336268 1.000000 0.000000
0.414064 1.000000 0.000000
0.491859 1.000000 0.000000
0.569654 1.000000 0.000000
0.647449 1.000000 0.000000
0.725245 1.000000 0.000000
0.803040 1.000000 0.000000
0.880835 1.000000 0.000000
0.958630 1.000000 0.000000
1.000000 1.000000 0.000000
0.000000 0.000000 0.220230
0.054275 0.000000 0.216776
0.132071 0.000000 0.213321
0.209866 0.000000 0.209866
0.287661 0.000000 0.206411
0.365456 0.000000 0.202956
0.443252 0.000000 0.199502
0.521047 0.000000 0.196047
0.598842 0.000000 0.192592
0.676638 0.000000 0.189137
0.754433 0.000000 0.185683
0.832228 0.000000 0.182228
0.910023 0.000000 0.178773
0.987818 0.000000 0.175318
1.000000 0.000000 0.171864
1.000000 0.000000 0.168409
1.000000 0.000000 0.164954
0.000000 0.046108 0.208608
0.042653 0.042653 0.205153
0.120449 0.039199 0.201699
0.198244 0.035744 0.198244
