Data/Shaders/SimpleGraphicsSuite/LUTs/Vibrant.cube
LUT_3D_SIZE 5
0.000000 0.000000 0.000000
0.291181 0.000000 0.000000
0.602362 0.000000 0.000000
0.913543 0.000000 0.000000
1.000000 0.000000 0.000000
0.000000 0.258512 0.000000
0.244693 0.244693 0.000000
0.555874 0.230874 0.000000
0.867055 0.217055 0.000000
1.000000 0.203236 0.000000
0.000000 0.537024 0.000000
0.198205 0.523205 0.000000
0.509386 0.509386 0.000000
0.820567 0.495567 0.000000
1.000000 0.481748 0.000000
0.000000 0.815536 0.000000
0.151717 0.801717 0.000000
0.462898 0.787898 0.000000
0.774079 0.774079 0.000000
1.000000 0.760260 0.000000
0.000000 1.000000 0.000000
0.105229 1.000000 0.000000
0.416410 1.000000 0.000000
0.727591 1.000000 0.000000
1.000000 1.000000 0.000000
0.000000 0.000000 0.300307
0.286488 0.000000 0.286488
0.597669 0.000000 0.272669
0.908850 0.000000 0.258850
1.000000 0.000000 0.245031
0.000000 0.253819 0.253819
0.240000 0.240000 0.240000
0.551181 0.226181 0.226181
0.862362 0.212362 0.212362
1.000000 0.198543 0.198543
0.000000 0.532331 0.207331
0.193512 0.518512 0.193512
0.504693 0.504693 0.179693
0.815874 0.490874 0.165874
1.000000 0.477055 0.152055
0.000000 0.810843 0.160843
0.147024 0.797024 0.147024
0.458205 0.783205 0.133205
0.769386 0.769386 0.119386
1.000000 0.755567 0.105567
0.000000 1.000000 0.114355
0.100536 1.000000 0.100536
0.411717 1.000000 0.086717
0.722898 1.000000 0.072898
1.000000 1.000000 0.059079
0.000000 0.000000 0.620614
0.281795 0.000000 0.606795
0.592976 0.000000 0.592976
0.904157 0.000000 0.579157
1.000000 0.000000 0.565338
0.000000 0.249126 0.574126
0.235307 0.235307 0.560307
0.546488 0.221488 0.546488
0.857669 0.207669 0.532669
1.000000 0.193850 0.518850
0.000000 0.527638 0.527638
0.188819 0.513819 0.513819
0.500000 0.500000 0.500000
0.811181 0.486181 0.486181
1.000000 0.472362 0.472362
0.000000 0.806150 0.481150
0.142331 0.792331 0.467331
0.453512 0.778512 0.453512
0.764693 0.764693 0.439693
1.000000 0.750874 0.425874
0.000000 1.000000 0.434662
0.095843 1.000000 0.420843
0.407024 1.000000 0.407024
0.718205 1.000000 0.393205
1.000000 1.000000 0.379386
0.000000 0.000000 0.940921
0.277102 0.000000 0.927102
0.588283 0.000000 0.913283
0.899464 0.000000 0.899464
1.000000 0.000000 0.885645
0.000000 0.244433 0.894433
0.230614 0.230614 0.880614
0.541795 0.216795 0.866795
0.852976 0.202976 0.852976
1.000000 0.189157 0.839157
0.000000 0.522945 0.847945
0.184126 0.509126 0.834126
0.495307 0.495307 0.820307
0.806488 0.481488 0.806488
1.000000 0.467669 0.792669
0.000000 0.801457 0.801457
0.137638 0.787638 0.787638
0.448819 0.773819 0.773819
0.760000 0.760000 0.760000
1.000000 0.746181 0.746181
0.000000 1.000000 0.754969
0.091150 1.000000 0.741150
0.402331 1.000000 0.727331
0.713512 1.000000 0.713512
1.000000 1.000000 0.699693
0.000000 0.000000 1.000000
0.272409 0.000000 1.000000
0.583590 0.000000 1.000000
0.894771 0.000000 1.000000
1.000000 0.000000 1.000000
0.000000 0.239740 1.000000
0.225921 0.225921 1.000000
0.537102 0.212102 1.000000
0.848283 0.198283 1.000000
1.000000 0.184464 1.000000
0.000000 0.518252 1.000000
0.179433 0.504433 1.000000
0.490614 0.490614 1.000000
0.801795 0.476795 1.000000
1.000000 0.462976 1.000000
0.000000 0.796764 1.000000
0.132945 0.782945 1.000000
0.444126 0.769126 1.000000
0.755307 0.755307 1.000000
1.000000 0.741488 1.000000
0.000000 1.000000 1.000000
0.086457 1.000000 1.000000
0.397638 1.000000 1.000000
0.708819 1.000000 1.000000
1.000000 1.000000 1.000000
